;FLAVOR:Marlin
;TIME:902
;Filament used: 0.270881m
;Layer height: 0.1
;MINX:13.049
;MINY:41.653
;MINZ:0.2
;MAXX:37.149
;MAXY:65.753
;MAXZ:15
;Generated with Cura_SteamEngine 4.4.1
M140 S60
M105
M190 S60
M104 S200
M105
M109 S200
M82 ;absolute extrusion mode
G28 ;Home
G1 Z15.0 F6000 ;Move the platform down 15mm
;Prime the extruder
G92 E0
G1 F200 E3
G92 E0
G92 E0
G92 E0
G1 F1500 E-6.5
;LAYER_COUNT:149
;LAYER:0
M107
G0 F2400 X18.135 Y42.14 Z0.2
;TYPE:SKIRT
G1 F1500 E0
G1 F1200 X18.888 Y41.903 E0.0237
G1 X19.662 Y41.744 E0.04741
G1 X20.447 Y41.663 E0.0711
G1 X20.849 Y41.653 E0.08317
G1 X29.349 Y41.653 E0.33832
G1 X30.138 Y41.693 E0.36203
G1 X30.918 Y41.812 E0.38572
G1 X31.683 Y42.01 E0.40944
G1 X32.423 Y42.284 E0.43313
G1 X33.132 Y42.632 E0.45683
G1 X33.803 Y43.05 E0.48056
G1 X34.427 Y43.533 E0.50425
G1 X35 Y44.076 E0.52795
G1 X35.515 Y44.675 E0.55166
G1 X35.966 Y45.323 E0.57536
G1 X36.35 Y46.014 E0.59909
G1 X36.662 Y46.739 E0.62278
G1 X36.899 Y47.492 E0.64647
G1 X37.058 Y48.266 E0.67019
G1 X37.139 Y49.051 E0.69388
G1 X37.149 Y49.453 E0.70595
G1 X37.149 Y57.953 E0.9611
G1 X37.109 Y58.742 E0.98481
G1 X36.99 Y59.522 E1.0085
G1 X36.792 Y60.287 E1.03222
G1 X36.518 Y61.027 E1.0559
G1 X36.17 Y61.736 E1.07961
G1 X35.752 Y62.407 E1.10334
G1 X35.269 Y63.031 E1.12703
G1 X34.726 Y63.604 E1.15072
G1 X34.127 Y64.119 E1.17444
G1 X33.479 Y64.57 E1.19814
G1 X32.788 Y64.954 E1.22186
G1 X32.063 Y65.266 E1.24556
G1 X31.31 Y65.503 E1.26925
G1 X30.536 Y65.662 E1.29297
G1 X29.751 Y65.743 E1.31666
G1 X29.349 Y65.753 E1.32873
G1 X20.849 Y65.753 E1.58388
G1 X20.06 Y65.713 E1.60759
G1 X19.28 Y65.594 E1.63128
G1 X18.515 Y65.396 E1.655
G1 X17.775 Y65.122 E1.67868
G1 X17.066 Y64.774 E1.70239
G1 X16.395 Y64.356 E1.72612
G1 X15.771 Y63.873 E1.74981
G1 X15.198 Y63.33 E1.7735
G1 X14.683 Y62.731 E1.79721
G1 X14.232 Y62.083 E1.82091
G1 X13.848 Y61.392 E1.84464
G1 X13.536 Y60.667 E1.86834
G1 X13.299 Y59.914 E1.89203
G1 X13.14 Y59.14 E1.91575
G1 X13.059 Y58.355 E1.93944
G1 X13.049 Y57.953 E1.95151
G1 X13.049 Y49.453 E2.20666
G1 X13.089 Y48.664 E2.23037
G1 X13.208 Y47.884 E2.25405
G1 X13.406 Y47.119 E2.27777
G1 X13.68 Y46.379 E2.30146
G1 X14.028 Y45.67 E2.32517
G1 X14.446 Y44.999 E2.3489
G1 X14.929 Y44.375 E2.37258
G1 X15.472 Y43.802 E2.39628
G1 X16.071 Y43.287 E2.41999
G1 X16.719 Y42.836 E2.44369
G1 X17.41 Y42.452 E2.46742
G1 X18.135 Y42.14 E2.49111
G0 F2400 X18.5 Y42.436
G1 F1200 X19.242 Y42.23 E2.51423
G1 X20 Y42.102 E2.5373
G1 X20.849 Y42.053 E2.56283
G1 X29.349 Y42.053 E2.81798
G1 X30.117 Y42.093 E2.84106
G1 X30.877 Y42.212 E2.86415
G1 X31.62 Y42.41 E2.88723
G1 X32.339 Y42.684 E2.91033
G1 X33.025 Y43.031 E2.93341
G1 X33.672 Y43.447 E2.9565
G1 X34.272 Y43.928 E2.97958
G1 X34.819 Y44.469 E3.00267
G1 X35.307 Y45.064 E3.02577
G1 X35.73 Y45.706 E3.04885
G1 X36.085 Y46.389 E3.07196
G1 X36.366 Y47.104 E3.09502
G1 X36.572 Y47.846 E3.11813
G1 X36.7 Y48.604 E3.14121
G1 X36.749 Y49.453 E3.16673
G1 X36.749 Y57.953 E3.42188
G1 X36.709 Y58.721 E3.44497
G1 X36.59 Y59.481 E3.46806
G1 X36.392 Y60.224 E3.49114
G1 X36.118 Y60.943 E3.51423
G1 X35.771 Y61.629 E3.53731
G1 X35.355 Y62.276 E3.5604
G1 X34.874 Y62.876 E3.58348
G1 X34.333 Y63.423 E3.60658
G1 X33.738 Y63.911 E3.62968
G1 X33.096 Y64.334 E3.65275
G1 X32.413 Y64.689 E3.67586
G1 X31.698 Y64.97 E3.69892
G1 X30.956 Y65.176 E3.72204
G1 X30.198 Y65.304 E3.74511
G1 X29.349 Y65.353 E3.77064
G1 X20.849 Y65.353 E4.02578
G1 X20.081 Y65.313 E4.04887
G1 X19.321 Y65.194 E4.07196
G1 X18.578 Y64.996 E4.09504
G1 X17.859 Y64.722 E4.11814
G1 X17.173 Y64.375 E4.14121
G1 X16.526 Y63.959 E4.1643
G1 X15.926 Y63.478 E4.18739
G1 X15.379 Y62.937 E4.21048
G1 X14.891 Y62.342 E4.23358
G1 X14.468 Y61.7 E4.25666
G1 X14.113 Y61.017 E4.27976
G1 X13.832 Y60.302 E4.30282
G1 X13.626 Y59.56 E4.32594
G1 X13.498 Y58.802 E4.34901
G1 X13.449 Y57.953 E4.37454
G1 X13.449 Y49.453 E4.62969
G1 X13.489 Y48.685 E4.65277
G1 X13.608 Y47.925 E4.67586
G1 X13.806 Y47.182 E4.69894
G1 X14.08 Y46.463 E4.72204
G1 X14.427 Y45.777 E4.74512
G1 X14.843 Y45.13 E4.76821
G1 X15.324 Y44.53 E4.79129
G1 X15.865 Y43.983 E4.81438
G1 X16.46 Y43.495 E4.83748
G1 X17.102 Y43.072 E4.86056
G1 X17.785 Y42.717 E4.88367
G1 X18.5 Y42.436 E4.90673
G0 F2400 X18.157 Y42.991
G1 F1200 X18.862 Y42.741 E4.92918
G1 X19.59 Y42.567 E4.95165
G1 X20.332 Y42.472 E4.9741
G1 X20.849 Y42.453 E4.98963
G1 X29.349 Y42.453 E5.24478
G1 X30.096 Y42.493 E5.26723
G1 X30.834 Y42.612 E5.28967
G1 X31.556 Y42.81 E5.31215
G1 X32.252 Y43.083 E5.33459
G1 X32.915 Y43.43 E5.35705
G1 X33.538 Y43.845 E5.37952
G1 X34.112 Y44.324 E5.40196
G1 X34.633 Y44.861 E5.42442
G1 X35.092 Y45.451 E5.44686
G1 X35.487 Y46.087 E5.46933
G1 X35.811 Y46.761 E5.49178
G1 X36.061 Y47.466 E5.51423
G1 X36.235 Y48.194 E5.5367
G1 X36.33 Y48.936 E5.55916
G1 X36.349 Y49.453 E5.57468
G1 X36.349 Y57.953 E5.82983
G1 X36.309 Y58.7 E5.85229
G1 X36.19 Y59.438 E5.87473
G1 X35.992 Y60.16 E5.8972
G1 X35.719 Y60.856 E5.91964
G1 X35.372 Y61.519 E5.9421
G1 X34.957 Y62.142 E5.96457
G1 X34.478 Y62.716 E5.98701
G1 X33.941 Y63.237 E6.00947
G1 X33.351 Y63.696 E6.03191
G1 X32.715 Y64.091 E6.05438
G1 X32.041 Y64.415 E6.07683
G1 X31.336 Y64.665 E6.09929
G1 X30.608 Y64.839 E6.12175
G1 X29.866 Y64.934 E6.14421
G1 X29.349 Y64.953 E6.15974
G1 X20.849 Y64.953 E6.41488
G1 X20.102 Y64.913 E6.43734
G1 X19.364 Y64.794 E6.45978
G1 X18.642 Y64.596 E6.48225
G1 X17.946 Y64.323 E6.50469
G1 X17.283 Y63.976 E6.52715
G1 X16.66 Y63.561 E6.54962
G1 X16.086 Y63.082 E6.57207
G1 X15.565 Y62.545 E6.59453
G1 X15.106 Y61.955 E6.61696
G1 X14.711 Y61.319 E6.63944
G1 X14.387 Y60.645 E6.66188
G1 X14.137 Y59.94 E6.68434
G1 X13.963 Y59.212 E6.70681
G1 X13.868 Y58.47 E6.72926
G1 X13.849 Y57.953 E6.74479
G1 X13.849 Y49.453 E6.99994
G1 X13.889 Y48.706 E7.02239
G1 X14.008 Y47.968 E7.04483
G1 X14.206 Y47.246 E7.0673
G1 X14.479 Y46.55 E7.08975
G1 X14.826 Y45.887 E7.11221
G1 X15.241 Y45.264 E7.13468
G1 X15.72 Y44.69 E7.15712
G1 X16.257 Y44.169 E7.17958
G1 X16.847 Y43.71 E7.20202
G1 X17.483 Y43.315 E7.22449
G1 X18.157 Y42.991 E7.24694
G0 F2400 X18.527 Y43.275
G1 F1200 X19.22 Y43.057 E7.26874
G1 X19.932 Y42.917 E7.29053
G1 X20.849 Y42.853 E7.31812
G1 X29.349 Y42.853 E7.57327
G1 X30.074 Y42.893 E7.59506
G1 X30.791 Y43.012 E7.61688
G1 X31.49 Y43.21 E7.63869
G1 X32.163 Y43.483 E7.66049
G1 X32.802 Y43.828 E7.68228
G1 X33.399 Y44.242 E7.70409
G1 X33.947 Y44.718 E7.72588
G1 X34.44 Y45.252 E7.7477
G1 X34.87 Y45.837 E7.76949
G1 X35.234 Y46.466 E7.7913
G1 X35.527 Y47.131 E7.81312
G1 X35.745 Y47.824 E7.83492
G1 X35.885 Y48.536 E7.85671
G1 X35.949 Y49.453 E7.8843
G1 X35.949 Y57.953 E8.13945
G1 X35.909 Y58.678 E8.16124
G1 X35.79 Y59.395 E8.18306
G1 X35.592 Y60.094 E8.20487
G1 X35.319 Y60.767 E8.22667
G1 X34.974 Y61.406 E8.24846
G1 X34.56 Y62.003 E8.27027
G1 X34.084 Y62.551 E8.29206
G1 X33.55 Y63.044 E8.31388
G1 X32.965 Y63.474 E8.33567
G1 X32.336 Y63.838 E8.35748
G1 X31.671 Y64.131 E8.3793
G1 X30.978 Y64.349 E8.4011
G1 X30.266 Y64.489 E8.42289
G1 X29.349 Y64.553 E8.45048
G1 X20.849 Y64.553 E8.70563
G1 X20.124 Y64.513 E8.72742
G1 X19.407 Y64.394 E8.74924
G1 X18.708 Y64.196 E8.77105
G1 X18.035 Y63.923 E8.79285
G1 X17.396 Y63.578 E8.81464
G1 X16.799 Y63.164 E8.83645
G1 X16.251 Y62.688 E8.85824
G1 X15.758 Y62.154 E8.88006
G1 X15.328 Y61.569 E8.90185
G1 X14.964 Y60.94 E8.92366
G1 X14.671 Y60.275 E8.94548
G1 X14.453 Y59.582 E8.96728
G1 X14.313 Y58.87 E8.98907
G1 X14.249 Y57.953 E9.01666
G1 X14.249 Y49.453 E9.2718
G1 X14.289 Y48.728 E9.2936
G1 X14.408 Y48.011 E9.31542
G1 X14.606 Y47.312 E9.33722
G1 X14.879 Y46.639 E9.35903
G1 X15.224 Y46 E9.38082
G1 X15.638 Y45.403 E9.40263
G1 X16.114 Y44.855 E9.42442
G1 X16.648 Y44.362 E9.44624
G1 X17.233 Y43.932 E9.46803
G1 X17.862 Y43.568 E9.48984
G1 X18.527 Y43.275 E9.51166
G0 F2400 X18.892 Y43.57
G1 F1200 X19.572 Y43.386 E9.5328
G1 X20.268 Y43.28 E9.55394
G1 X20.849 Y43.253 E9.57139
G1 X29.349 Y43.253 E9.82654
G1 X30.052 Y43.293 E9.84768
G1 X30.746 Y43.412 E9.86881
G1 X31.421 Y43.61 E9.88993
G1 X32.07 Y43.882 E9.91105
G1 X32.684 Y44.227 E9.93219
G1 X33.255 Y44.638 E9.95331
G1 X33.776 Y45.112 E9.97445
G1 X34.24 Y45.642 E9.9956
G1 X34.64 Y46.221 E10.01672
G1 X34.972 Y46.842 E10.03786
G1 X35.232 Y47.496 E10.05899
G1 X35.416 Y48.176 E10.08013
G1 X35.522 Y48.872 E10.10126
G1 X35.549 Y49.453 E10.11872
G1 X35.549 Y57.953 E10.37387
G1 X35.509 Y58.656 E10.39501
G1 X35.39 Y59.35 E10.41614
G1 X35.192 Y60.025 E10.43726
G1 X34.92 Y60.674 E10.45838
G1 X34.575 Y61.288 E10.47952
G1 X34.164 Y61.859 E10.50064
G1 X33.69 Y62.38 E10.52178
G1 X33.16 Y62.844 E10.54293
G1 X32.581 Y63.244 E10.56405
G1 X31.96 Y63.576 E10.58519
G1 X31.306 Y63.836 E10.60631
G1 X30.626 Y64.02 E10.62746
G1 X29.93 Y64.126 E10.64859
G1 X29.349 Y64.153 E10.66605
G1 X20.849 Y64.153 E10.9212
G1 X20.146 Y64.113 E10.94233
G1 X19.452 Y63.994 E10.96347
G1 X18.777 Y63.796 E10.98459
G1 X18.128 Y63.524 E11.00571
G1 X17.514 Y63.179 E11.02685
G1 X16.943 Y62.768 E11.04797
G1 X16.422 Y62.294 E11.06911
G1 X15.958 Y61.764 E11.09026
G1 X15.558 Y61.185 E11.11138
G1 X15.226 Y60.564 E11.13252
G1 X14.966 Y59.91 E11.15364
G1 X14.782 Y59.23 E11.17479
G1 X14.676 Y58.534 E11.19592
G1 X14.649 Y57.953 E11.21338
G1 X14.649 Y49.453 E11.46853
G1 X14.689 Y48.75 E11.48966
G1 X14.808 Y48.056 E11.5108
G1 X15.006 Y47.381 E11.53192
G1 X15.278 Y46.732 E11.55304
G1 X15.623 Y46.118 E11.57418
G1 X16.034 Y45.547 E11.5953
G1 X16.508 Y45.026 E11.61644
G1 X17.038 Y44.562 E11.63758
G1 X17.617 Y44.162 E11.65871
G1 X18.238 Y43.83 E11.67985
G1 X18.892 Y43.57 E11.70097
G0 F2400 X18.611 Y44.102
G1 F1200 X19.253 Y43.877 E11.72139
G1 X19.918 Y43.728 E11.74185
G1 X20.849 Y43.653 E11.76989
G1 X29.349 Y43.653 E12.02503
G1 X30.029 Y43.693 E12.04548
G1 X30.699 Y43.812 E12.06591
G1 X31.351 Y44.009 E12.08635
G1 X31.975 Y44.281 E12.10678
G1 X32.563 Y44.625 E12.12723
G1 X33.107 Y45.035 E12.14768
G1 X33.598 Y45.506 E12.1681
G1 X34.032 Y46.031 E12.18855
G1 X34.401 Y46.603 E12.20898
G1 X34.7 Y47.215 E12.22943
G1 X34.925 Y47.857 E12.24985
G1 X35.074 Y48.522 E12.2703
G1 X35.149 Y49.453 E12.29834
G1 X35.149 Y57.953 E12.55349
G1 X35.109 Y58.633 E12.57394
G1 X34.99 Y59.303 E12.59436
G1 X34.793 Y59.955 E12.61481
G1 X34.521 Y60.579 E12.63524
G1 X34.177 Y61.167 E12.65569
G1 X33.767 Y61.711 E12.67614
G1 X33.296 Y62.202 E12.69656
G1 X32.771 Y62.636 E12.71701
G1 X32.199 Y63.005 E12.73744
G1 X31.587 Y63.304 E12.75788
G1 X30.945 Y63.529 E12.7783
G1 X30.28 Y63.678 E12.79876
G1 X29.349 Y63.753 E12.8268
G1 X20.849 Y63.753 E13.08194
G1 X20.169 Y63.713 E13.10239
G1 X19.499 Y63.594 E13.12282
G1 X18.847 Y63.397 E13.14326
G1 X18.223 Y63.125 E13.1637
G1 X17.635 Y62.781 E13.18414
G1 X17.091 Y62.371 E13.20459
G1 X16.6 Y61.9 E13.22502
G1 X16.166 Y61.375 E13.24546
G1 X15.797 Y60.803 E13.2659
G1 X15.498 Y60.191 E13.28634
G1 X15.273 Y59.549 E13.30676
G1 X15.124 Y58.884 E13.32722
G1 X15.049 Y57.953 E13.35525
G1 X15.049 Y49.453 E13.6104
G1 X15.089 Y48.773 E13.63085
G1 X15.208 Y48.103 E13.65127
G1 X15.405 Y47.451 E13.67172
G1 X15.677 Y46.827 E13.69215
G1 X16.021 Y46.239 E13.7126
G1 X16.431 Y45.695 E13.73305
G1 X16.902 Y45.204 E13.75347
G1 X17.427 Y44.77 E13.77392
G1 X17.999 Y44.401 E13.79435
G1 X18.611 Y44.102 E13.8148
G0 F2400 X18.98 Y44.387
G1 F1200 X19.609 Y44.197 E13.83452
G1 X20.256 Y44.086 E13.85423
G1 X20.849 Y44.053 E13.87205
G1 X29.349 Y44.053 E14.1272
G1 X30.005 Y44.093 E14.14693
G1 X30.651 Y44.212 E14.16665
G1 X31.278 Y44.409 E14.18637
G1 X31.876 Y44.681 E14.20609
G1 X32.437 Y45.023 E14.22582
G1 X32.952 Y45.431 E14.24554
G1 X33.414 Y45.898 E14.26526
G1 X33.815 Y46.418 E14.28497
G1 X34.151 Y46.982 E14.30467
G1 X34.415 Y47.584 E14.32441
G1 X34.605 Y48.213 E14.34413
G1 X34.716 Y48.86 E14.36383
G1 X34.749 Y49.453 E14.38166
G1 X34.749 Y57.953 E14.63681
G1 X34.709 Y58.609 E14.65654
G1 X34.59 Y59.255 E14.67625
G1 X34.393 Y59.882 E14.69598
G1 X34.121 Y60.48 E14.7157
G1 X33.779 Y61.041 E14.73542
G1 X33.371 Y61.556 E14.75515
G1 X32.904 Y62.018 E14.77487
G1 X32.384 Y62.419 E14.79458
G1 X31.82 Y62.755 E14.81428
G1 X31.218 Y63.019 E14.83401
G1 X30.589 Y63.209 E14.85374
G1 X29.942 Y63.32 E14.87344
G1 X29.349 Y63.353 E14.89127
G1 X20.849 Y63.353 E15.14642
G1 X20.193 Y63.313 E15.16615
G1 X19.547 Y63.194 E15.18586
G1 X18.92 Y62.997 E15.20559
G1 X18.322 Y62.725 E15.22531
G1 X17.761 Y62.383 E15.24503
G1 X17.246 Y61.975 E15.26475
G1 X16.784 Y61.508 E15.28447
G1 X16.383 Y60.988 E15.30418
G1 X16.047 Y60.424 E15.32389
G1 X15.783 Y59.822 E15.34362
G1 X15.593 Y59.193 E15.36335
G1 X15.482 Y58.546 E15.38305
G1 X15.449 Y57.953 E15.40088
G1 X15.449 Y49.453 E15.65603
G1 X15.489 Y48.797 E15.67575
G1 X15.608 Y48.151 E15.69547
G1 X15.805 Y47.524 E15.7152
G1 X16.077 Y46.926 E15.73492
G1 X16.419 Y46.365 E15.75464
G1 X16.827 Y45.85 E15.77436
G1 X17.294 Y45.388 E15.79408
G1 X17.814 Y44.987 E15.81379
G1 X18.378 Y44.651 E15.8335
G1 X18.98 Y44.387 E15.85323
G0 F2400 X19.344 Y44.685
G1 F1200 X19.958 Y44.533 E15.87222
G1 X20.849 Y44.453 E15.89907
G1 X29.349 Y44.453 E16.15422
G1 X29.98 Y44.493 E16.1732
G1 X30.601 Y44.612 E16.19218
G1 X31.201 Y44.809 E16.21113
G1 X31.773 Y45.08 E16.23013
G1 X32.305 Y45.42 E16.24908
G1 X32.79 Y45.826 E16.26807
G1 X33.22 Y46.289 E16.28704
G1 X33.589 Y46.803 E16.30603
G1 X33.889 Y47.359 E16.32499
G1 X34.117 Y47.948 E16.34395
G1 X34.269 Y48.562 E16.36294
G1 X34.349 Y49.453 E16.38979
G1 X34.349 Y57.953 E16.64494
G1 X34.309 Y58.584 E16.66392
G1 X34.19 Y59.205 E16.6829
G1 X33.993 Y59.805 E16.70186
G1 X33.722 Y60.377 E16.72085
G1 X33.382 Y60.909 E16.73981
G1 X32.976 Y61.394 E16.75879
G1 X32.513 Y61.824 E16.77776
G1 X31.999 Y62.193 E16.79675
G1 X31.443 Y62.493 E16.81572
G1 X30.854 Y62.721 E16.83468
G1 X30.24 Y62.873 E16.85366
G1 X29.349 Y62.953 E16.88052
G1 X20.849 Y62.953 E17.13566
G1 X20.218 Y62.913 E17.15464
G1 X19.597 Y62.794 E17.17362
G1 X18.997 Y62.597 E17.19258
G1 X18.425 Y62.326 E17.21158
G1 X17.893 Y61.986 E17.23053
G1 X17.408 Y61.58 E17.24951
G1 X16.978 Y61.117 E17.26848
G1 X16.609 Y60.603 E17.28748
G1 X16.309 Y60.047 E17.30644
G1 X16.081 Y59.458 E17.3254
G1 X15.929 Y58.844 E17.34438
G1 X15.849 Y57.953 E17.37124
G1 X15.849 Y49.453 E17.62638
G1 X15.889 Y48.822 E17.64536
G1 X16.008 Y48.201 E17.66434
G1 X16.205 Y47.601 E17.6833
G1 X16.476 Y47.029 E17.7023
G1 X16.816 Y46.497 E17.72125
G1 X17.222 Y46.012 E17.74024
G1 X17.685 Y45.582 E17.7592
G1 X18.199 Y45.213 E17.7782
G1 X18.755 Y44.913 E17.79716
G1 X19.344 Y44.685 E17.81612
G0 F2400 X19.127 Y45.187
G1 F1200 X19.703 Y44.998 E17.83432
G1 X20.299 Y44.886 E17.85252
G1 X20.849 Y44.853 E17.86906
G1 X29.349 Y44.853 E18.12421
G1 X29.954 Y44.893 E18.14241
G1 X30.548 Y45.012 E18.16059
G1 X31.122 Y45.208 E18.1788
G1 X31.665 Y45.479 E18.19701
G1 X32.168 Y45.818 E18.21522
G1 X32.621 Y46.22 E18.2334
G1 X33.018 Y46.678 E18.2516
G1 X33.351 Y47.185 E18.2698
G1 X33.615 Y47.731 E18.28801
G1 X33.804 Y48.307 E18.30621
G1 X33.916 Y48.903 E18.32441
G1 X33.949 Y49.453 E18.34095
G1 X33.949 Y57.953 E18.59609
G1 X33.909 Y58.558 E18.61429
G1 X33.79 Y59.152 E18.63248
G1 X33.594 Y59.726 E18.65069
G1 X33.323 Y60.269 E18.6689
G1 X32.984 Y60.772 E18.68711
G1 X32.582 Y61.225 E18.70529
G1 X32.124 Y61.622 E18.72348
G1 X31.617 Y61.955 E18.74169
G1 X31.071 Y62.219 E18.7599
G1 X30.495 Y62.408 E18.77809
G1 X29.899 Y62.52 E18.7963
G1 X29.349 Y62.553 E18.81284
G1 X20.849 Y62.553 E19.06798
G1 X20.244 Y62.513 E19.08618
G1 X19.65 Y62.394 E19.10437
G1 X19.076 Y62.198 E19.12257
G1 X18.533 Y61.927 E19.14079
G1 X18.03 Y61.588 E19.159
G1 X17.577 Y61.186 E19.17718
G1 X17.18 Y60.728 E19.19537
G1 X16.847 Y60.221 E19.21358
G1 X16.583 Y59.675 E19.23178
G1 X16.394 Y59.099 E19.24998
G1 X16.282 Y58.503 E19.26819
G1 X16.249 Y57.953 E19.28472
G1 X16.249 Y49.453 E19.53987
G1 X16.289 Y48.848 E19.55807
G1 X16.408 Y48.254 E19.57626
G1 X16.604 Y47.68 E19.59446
G1 X16.875 Y47.137 E19.61268
G1 X17.214 Y46.634 E19.63089
G1 X17.616 Y46.181 E19.64907
G1 X18.074 Y45.784 E19.66726
G1 X18.581 Y45.451 E19.68547
G1 X19.127 Y45.187 E19.70367
G0 F2400 X19.494 Y45.477
G1 F1200 X20.054 Y45.329 E19.72106
G1 X20.849 Y45.253 E19.74503
G1 X29.349 Y45.253 E20.00018
G1 X29.927 Y45.293 E20.01757
G1 X30.494 Y45.412 E20.03496
G1 X31.039 Y45.608 E20.05235
G1 X31.552 Y45.877 E20.06973
G1 X32.023 Y46.214 E20.08712
G1 X32.443 Y46.613 E20.10451
