;FLAVOR:Marlin
;TIME:2553
;Filament used: 1.18063m
;Layer height: 0.1
;MINX:7.244
;MINY:90.7
;MINZ:0.2
;MAXX:62.844
;MAXY:129.3
;MAXZ:20
;Generated with Cura_SteamEngine 4.4.1
M140 S60
M105
M190 S60
M104 S200
M105
M109 S200
M82 ;absolute extrusion mode
G28 ;Home
G1 Z15.0 F6000 ;Move the platform down 15mm
;Prime the extruder
G92 E0
G1 F200 E3
G92 E0
G92 E0
G92 E0
G1 F1500 E-6.5
;LAYER_COUNT:199
;LAYER:0
M107
G0 F2400 X13.782 Y90.823 Z0.2
;TYPE:SKIRT
G1 F1500 E0
G1 F1200 X14.566 Y90.723 E0.02372
G1 X15.161 Y90.7 E0.0416
G1 X54.927 Y90.7 E1.23526
G1 X55.716 Y90.74 E1.25898
G1 X56.496 Y90.859 E1.28266
G1 X57.261 Y91.057 E1.30638
G1 X58.001 Y91.331 E1.33007
G1 X58.71 Y91.679 E1.35378
G1 X59.381 Y92.097 E1.37751
G1 X60.005 Y92.58 E1.40119
G1 X60.442 Y92.985 E1.41908
G1 X60.559 Y93.102 E1.42405
G1 X61.089 Y93.688 E1.44776
G1 X61.556 Y94.324 E1.47145
G1 X61.957 Y95.004 E1.49514
G1 X62.287 Y95.722 E1.51886
G1 X62.542 Y96.469 E1.54256
G1 X62.721 Y97.238 E1.56626
G1 X62.821 Y98.022 E1.58998
G1 X62.844 Y98.617 E1.60786
G1 X62.844 Y121.383 E2.29123
G1 X62.804 Y122.172 E2.31494
G1 X62.685 Y122.952 E2.33863
G1 X62.487 Y123.717 E2.36235
G1 X62.213 Y124.457 E2.38603
G1 X61.865 Y125.166 E2.40974
G1 X61.447 Y125.837 E2.43347
G1 X60.964 Y126.461 E2.45716
G1 X60.559 Y126.898 E2.47504
G1 X60.442 Y127.015 E2.48001
G1 X59.856 Y127.545 E2.50373
G1 X59.22 Y128.012 E2.52741
G1 X58.54 Y128.413 E2.55111
G1 X57.822 Y128.743 E2.57483
G1 X57.075 Y128.998 E2.59852
G1 X56.306 Y129.177 E2.62222
G1 X55.522 Y129.277 E2.64595
G1 X54.927 Y129.3 E2.66382
G1 X15.161 Y129.3 E3.85749
G1 X14.372 Y129.26 E3.8812
G1 X13.592 Y129.141 E3.90488
G1 X12.827 Y128.943 E3.9286
G1 X12.087 Y128.669 E3.95229
G1 X11.378 Y128.321 E3.976
G1 X10.707 Y127.903 E3.99973
G1 X10.083 Y127.42 E4.02341
G1 X9.646 Y127.015 E4.0413
G1 X9.529 Y126.898 E4.04627
G1 X8.999 Y126.312 E4.06998
G1 X8.532 Y125.676 E4.09367
G1 X8.131 Y124.996 E4.11737
G1 X7.801 Y124.278 E4.14108
G1 X7.546 Y123.531 E4.16478
G1 X7.367 Y122.762 E4.18848
G1 X7.267 Y121.978 E4.2122
G1 X7.244 Y121.383 E4.23008
G1 X7.244 Y98.617 E4.91345
G1 X7.284 Y97.828 E4.93716
G1 X7.403 Y97.048 E4.96085
G1 X7.601 Y96.283 E4.98457
G1 X7.875 Y95.543 E5.00825
G1 X8.223 Y94.834 E5.03196
G1 X8.641 Y94.163 E5.05569
G1 X9.124 Y93.539 E5.07938
G1 X9.529 Y93.102 E5.09726
G1 X9.646 Y92.985 E5.10223
G1 X10.232 Y92.455 E5.12595
G1 X10.868 Y91.988 E5.14963
G1 X11.548 Y91.587 E5.17333
G1 X12.266 Y91.257 E5.19705
G1 X13.013 Y91.002 E5.22074
G1 X13.782 Y90.823 E5.24444
G0 F2400 X13.971 Y91.196
G1 F1200 X14.736 Y91.112 E5.26754
G1 X15.161 Y91.1 E5.28031
G1 X54.927 Y91.1 E6.47397
G1 X55.695 Y91.14 E6.49706
G1 X56.455 Y91.259 E6.52015
G1 X57.198 Y91.457 E6.54323
G1 X57.917 Y91.731 E6.56633
G1 X58.603 Y92.078 E6.5894
G1 X59.25 Y92.494 E6.61249
G1 X59.85 Y92.975 E6.63558
G1 X60.16 Y93.267 E6.64836
G1 X60.277 Y93.384 E6.65333
G1 X60.791 Y93.956 E6.67641
G1 X61.244 Y94.578 E6.69951
G1 X61.63 Y95.243 E6.72259
G1 X61.945 Y95.945 E6.74568
G1 X62.185 Y96.676 E6.76878
G1 X62.348 Y97.427 E6.79185
G1 X62.432 Y98.192 E6.81495
G1 X62.444 Y98.617 E6.82771
G1 X62.444 Y121.383 E7.51108
G1 X62.404 Y122.151 E7.53417
G1 X62.285 Y122.911 E7.55726
G1 X62.087 Y123.654 E7.58034
G1 X61.813 Y124.373 E7.60344
G1 X61.466 Y125.059 E7.62651
G1 X61.05 Y125.706 E7.6496
G1 X60.569 Y126.306 E7.67269
G1 X60.277 Y126.616 E7.68547
G1 X60.16 Y126.733 E7.69044
G1 X59.588 Y127.247 E7.71352
G1 X58.966 Y127.7 E7.73662
G1 X58.301 Y128.086 E7.7597
G1 X57.599 Y128.401 E7.78279
G1 X56.868 Y128.641 E7.80589
G1 X56.117 Y128.804 E7.82896
G1 X55.352 Y128.888 E7.85206
G1 X54.927 Y128.9 E7.86482
G1 X15.161 Y128.9 E9.05849
G1 X14.393 Y128.86 E9.08157
G1 X13.633 Y128.741 E9.10466
G1 X12.89 Y128.543 E9.12774
G1 X12.171 Y128.269 E9.15084
G1 X11.485 Y127.922 E9.17392
G1 X10.838 Y127.506 E9.19701
G1 X10.238 Y127.025 E9.22009
G1 X9.928 Y126.733 E9.23287
G1 X9.811 Y126.616 E9.23784
G1 X9.297 Y126.044 E9.26092
G1 X8.844 Y125.422 E9.28402
G1 X8.458 Y124.757 E9.3071
G1 X8.143 Y124.055 E9.3302
G1 X7.903 Y123.324 E9.35329
G1 X7.74 Y122.573 E9.37636
G1 X7.656 Y121.808 E9.39946
G1 X7.644 Y121.383 E9.41222
G1 X7.644 Y98.617 E10.0956
G1 X7.684 Y97.849 E10.11868
G1 X7.803 Y97.089 E10.14177
G1 X8.001 Y96.346 E10.16485
G1 X8.275 Y95.627 E10.18795
G1 X8.622 Y94.941 E10.21103
G1 X9.038 Y94.294 E10.23412
G1 X9.519 Y93.694 E10.2572
G1 X9.811 Y93.384 E10.26998
G1 X9.928 Y93.267 E10.27495
G1 X10.5 Y92.753 E10.29803
G1 X11.122 Y92.3 E10.32113
G1 X11.787 Y91.914 E10.34421
G1 X12.489 Y91.599 E10.36731
G1 X13.22 Y91.359 E10.3904
G1 X13.971 Y91.196 E10.41347
G0 F2400 X14.157 Y91.572
G1 F1200 X15.161 Y91.5 E10.44368
G1 X54.927 Y91.5 E11.63735
G1 X55.674 Y91.54 E11.65981
G1 X56.412 Y91.659 E11.68225
G1 X57.134 Y91.857 E11.70472
G1 X57.83 Y92.13 E11.72716
G1 X58.493 Y92.477 E11.74962
G1 X59.116 Y92.892 E11.77209
G1 X59.877 Y93.55 E11.80229
G1 X59.994 Y93.667 E11.80726
G1 X60.494 Y94.224 E11.82972
G1 X60.931 Y94.83 E11.85215
G1 X61.302 Y95.48 E11.87462
G1 X61.601 Y96.166 E11.89708
G1 X61.825 Y96.88 E11.91954
G1 X61.972 Y97.613 E11.94198
G1 X62.044 Y98.617 E11.9722
G1 X62.044 Y121.383 E12.65557
G1 X62.004 Y122.13 E12.67803
G1 X61.885 Y122.868 E12.70047
G1 X61.687 Y123.59 E12.72294
G1 X61.414 Y124.286 E12.74538
G1 X61.067 Y124.949 E12.76784
G1 X60.652 Y125.572 E12.79031
G1 X59.994 Y126.333 E12.82051
G1 X59.877 Y126.45 E12.82548
G1 X59.32 Y126.95 E12.84794
G1 X58.714 Y127.387 E12.87037
G1 X58.064 Y127.758 E12.89284
G1 X57.378 Y128.057 E12.9153
G1 X56.664 Y128.281 E12.93776
G1 X55.931 Y128.428 E12.9602
G1 X54.927 Y128.5 E12.99042
G1 X15.161 Y128.5 E14.18408
G1 X14.414 Y128.46 E14.20654
G1 X13.676 Y128.341 E14.22898
G1 X12.954 Y128.143 E14.25145
G1 X12.258 Y127.87 E14.27389
G1 X11.595 Y127.523 E14.29636
G1 X10.972 Y127.108 E14.31883
G1 X10.211 Y126.45 E14.34902
G1 X10.094 Y126.333 E14.35399
G1 X9.594 Y125.776 E14.37646
G1 X9.157 Y125.17 E14.39888
G1 X8.786 Y124.52 E14.42135
G1 X8.487 Y123.834 E14.44381
G1 X8.263 Y123.12 E14.46628
G1 X8.116 Y122.387 E14.48872
G1 X8.044 Y121.383 E14.51893
G1 X8.044 Y98.617 E15.2023
G1 X8.084 Y97.87 E15.22476
G1 X8.203 Y97.132 E15.2472
G1 X8.401 Y96.41 E15.26967
G1 X8.674 Y95.714 E15.29211
G1 X9.021 Y95.051 E15.31457
G1 X9.436 Y94.428 E15.33704
G1 X10.094 Y93.667 E15.36724
G1 X10.211 Y93.55 E15.37221
G1 X10.768 Y93.05 E15.39468
G1 X11.374 Y92.613 E15.4171
G1 X12.024 Y92.242 E15.43957
G1 X12.71 Y91.943 E15.46203
G1 X13.424 Y91.719 E15.4845
G1 X14.157 Y91.572 E15.50694
G0 F2400 X14.34 Y91.951
G1 F1200 X15.161 Y91.9 E15.53163
G1 X54.927 Y91.9 E16.72529
G1 X55.652 Y91.94 E16.74709
G1 X56.369 Y92.059 E16.76891
G1 X57.068 Y92.257 E16.79071
G1 X57.741 Y92.53 E16.81251
G1 X58.38 Y92.875 E16.83431
G1 X58.977 Y93.289 E16.85612
G1 X59.594 Y93.833 E16.88081
G1 X59.711 Y93.95 E16.88578
G1 X60.195 Y94.491 E16.90757
G1 X60.618 Y95.082 E16.92938
G1 X60.972 Y95.716 E16.95118
G1 X61.255 Y96.385 E16.97299
G1 X61.463 Y97.081 E16.99479
G1 X61.593 Y97.796 E17.0166
G1 X61.644 Y98.617 E17.0413
G1 X61.644 Y121.383 E17.72467
G1 X61.604 Y122.108 E17.74647
G1 X61.485 Y122.825 E17.76828
G1 X61.287 Y123.524 E17.79009
G1 X61.014 Y124.197 E17.81189
G1 X60.669 Y124.836 E17.83369
G1 X60.255 Y125.433 E17.8555
G1 X59.711 Y126.05 E17.88019
G1 X59.594 Y126.167 E17.88515
G1 X59.053 Y126.651 E17.90694
G1 X58.462 Y127.074 E17.92876
G1 X57.828 Y127.428 E17.95056
G1 X57.159 Y127.711 E17.97236
G1 X56.463 Y127.919 E17.99417
G1 X55.748 Y128.049 E18.01598
G1 X54.927 Y128.1 E18.04067
G1 X15.161 Y128.1 E19.23434
G1 X14.436 Y128.06 E19.25613
G1 X13.719 Y127.941 E19.27795
G1 X13.02 Y127.743 E19.29976
G1 X12.347 Y127.47 E19.32156
G1 X11.708 Y127.125 E19.34336
G1 X11.111 Y126.711 E19.36516
G1 X10.494 Y126.167 E19.38986
G1 X10.377 Y126.05 E19.39482
G1 X9.893 Y125.509 E19.41661
G1 X9.47 Y124.918 E19.43843
G1 X9.116 Y124.284 E19.46022
G1 X8.833 Y123.615 E19.48203
G1 X8.625 Y122.919 E19.50383
G1 X8.495 Y122.204 E19.52565
G1 X8.444 Y121.383 E19.55034
G1 X8.444 Y98.617 E20.23371
G1 X8.484 Y97.892 E20.25551
G1 X8.603 Y97.175 E20.27733
G1 X8.801 Y96.476 E20.29913
G1 X9.074 Y95.803 E20.32093
G1 X9.419 Y95.164 E20.34273
G1 X9.833 Y94.567 E20.36454
G1 X10.377 Y93.95 E20.38923
G1 X10.494 Y93.833 E20.3942
G1 X11.035 Y93.349 E20.41599
G1 X11.626 Y92.926 E20.4378
G1 X12.26 Y92.572 E20.4596
G1 X12.929 Y92.289 E20.4814
G1 X13.625 Y92.081 E20.50321
G1 X14.34 Y91.951 E20.52502
G0 F2400 X13.824 Y92.446
G1 F1200 X14.519 Y92.333 E20.54616
G1 X15.161 Y92.3 E20.56546
G1 X54.927 Y92.3 E21.75912
G1 X55.63 Y92.34 E21.78026
G1 X56.324 Y92.459 E21.8014
G1 X56.999 Y92.657 E21.82251
G1 X57.648 Y92.929 E21.84363
G1 X58.262 Y93.274 E21.86477
G1 X58.833 Y93.685 E21.88589
G1 X59.311 Y94.116 E21.90521
G1 X59.428 Y94.233 E21.91018
G1 X59.897 Y94.758 E21.93131
G1 X60.303 Y95.333 E21.95244
G1 X60.641 Y95.951 E21.97358
G1 X60.908 Y96.602 E21.9947
G1 X61.098 Y97.28 E22.01584
G1 X61.211 Y97.975 E22.03698
G1 X61.244 Y98.617 E22.05627
G1 X61.244 Y121.383 E22.73965
G1 X61.204 Y122.086 E22.76078
G1 X61.085 Y122.78 E22.78192
G1 X60.887 Y123.455 E22.80303
G1 X60.615 Y124.104 E22.82416
G1 X60.27 Y124.718 E22.8453
G1 X59.859 Y125.289 E22.86642
G1 X59.428 Y125.767 E22.88573
G1 X59.311 Y125.884 E22.8907
G1 X58.786 Y126.353 E22.91183
G1 X58.211 Y126.759 E22.93296
G1 X57.593 Y127.097 E22.95411
G1 X56.942 Y127.364 E22.97523
G1 X56.264 Y127.554 E22.99636
G1 X55.569 Y127.667 E23.0175
G1 X54.927 Y127.7 E23.0368
G1 X15.161 Y127.7 E24.23046
G1 X14.458 Y127.66 E24.2516
G1 X13.764 Y127.541 E24.27273
G1 X13.089 Y127.343 E24.29385
G1 X12.44 Y127.071 E24.31497
G1 X11.826 Y126.726 E24.33611
G1 X11.255 Y126.315 E24.35723
G1 X10.777 Y125.884 E24.37655
G1 X10.66 Y125.767 E24.38152
G1 X10.191 Y125.242 E24.40265
G1 X9.785 Y124.667 E24.42378
G1 X9.447 Y124.049 E24.44492
G1 X9.18 Y123.398 E24.46604
G1 X8.99 Y122.72 E24.48718
G1 X8.877 Y122.025 E24.50831
G1 X8.844 Y121.383 E24.52761
G1 X8.844 Y98.617 E25.21098
G1 X8.884 Y97.914 E25.23212
G1 X9.003 Y97.22 E25.25326
G1 X9.201 Y96.545 E25.27437
G1 X9.473 Y95.896 E25.2955
G1 X9.818 Y95.282 E25.31664
G1 X10.229 Y94.711 E25.33775
G1 X10.66 Y94.233 E25.35707
G1 X10.777 Y94.116 E25.36204
G1 X11.302 Y93.647 E25.38317
G1 X11.877 Y93.241 E25.4043
G1 X12.495 Y92.903 E25.42545
G1 X13.146 Y92.636 E25.44657
G1 X13.824 Y92.446 E25.4677
G0 F2400 X14.02 Y92.813
G1 F1200 X14.694 Y92.719 E25.48813
G1 X15.161 Y92.7 E25.50216
G1 X54.927 Y92.7 E26.69583
G1 X55.607 Y92.74 E26.71627
G1 X56.277 Y92.859 E26.7367
G1 X56.929 Y93.056 E26.75714
G1 X57.553 Y93.328 E26.77758
G1 X58.141 Y93.672 E26.79803
G1 X58.685 Y94.082 E26.81847
G1 X59.028 Y94.399 E26.83249
G1 X59.145 Y94.516 E26.83746
G1 X59.598 Y95.025 E26.85791
G1 X59.987 Y95.583 E26.87833
G1 X60.309 Y96.183 E26.89877
G1 X60.558 Y96.817 E26.91922
G1 X60.731 Y97.476 E26.93967
G1 X60.825 Y98.15 E26.9601
G1 X60.844 Y98.617 E26.97413
G1 X60.844 Y121.383 E27.6575
G1 X60.804 Y122.063 E27.67795
G1 X60.685 Y122.733 E27.69837
G1 X60.488 Y123.385 E27.71882
G1 X60.216 Y124.009 E27.73925
G1 X59.872 Y124.597 E27.7597
G1 X59.462 Y125.141 E27.78015
G1 X59.145 Y125.484 E27.79417
G1 X59.028 Y125.601 E27.79913
G1 X58.519 Y126.054 E27.81959
G1 X57.961 Y126.443 E27.84001
G1 X57.361 Y126.765 E27.86045
G1 X56.727 Y127.014 E27.88089
G1 X56.068 Y127.187 E27.90134
G1 X55.394 Y127.281 E27.92177
G1 X54.927 Y127.3 E27.9358
G1 X15.161 Y127.3 E29.12947
G1 X14.481 Y127.26 E29.14991
G1 X13.811 Y127.141 E29.17034
G1 X13.159 Y126.944 E29.19079
G1 X12.535 Y126.672 E29.21122
G1 X11.947 Y126.328 E29.23167
G1 X11.403 Y125.918 E29.25212
G1 X11.06 Y125.601 E29.26613
G1 X10.943 Y125.484 E29.2711
G1 X10.49 Y124.975 E29.29156
G1 X10.101 Y124.417 E29.31197
G1 X9.779 Y123.817 E29.33241
G1 X9.53 Y123.183 E29.35286
G1 X9.357 Y122.524 E29.37331
G1 X9.263 Y121.85 E29.39374
G1 X9.244 Y121.383 E29.40777
G1 X9.244 Y98.617 E30.09114
G1 X9.284 Y97.937 E30.11159
G1 X9.403 Y97.267 E30.13201
G1 X9.6 Y96.615 E30.15246
G1 X9.872 Y95.991 E30.17289
G1 X10.216 Y95.403 E30.19334
G1 X10.626 Y94.859 E30.21379
G1 X10.943 Y94.516 E30.22781
G1 X11.06 Y94.399 E30.23278
G1 X11.569 Y93.946 E30.25323
G1 X12.127 Y93.557 E30.27365
G1 X12.727 Y93.235 E30.29409
G1 X13.361 Y92.986 E30.31453
G1 X14.02 Y92.813 E30.33498
G0 F2400 X14.212 Y93.184
G1 F1200 X15.161 Y93.1 E30.36358
G1 X54.927 Y93.1 E31.55725
G1 X55.583 Y93.14 E31.57698
G1 X56.229 Y93.259 E31.59669
G1 X56.856 Y93.456 E31.61642
G1 X57.454 Y93.728 E31.63614
G1 X58.015 Y94.07 E31.65586
G1 X58.745 Y94.682 E31.68446
G1 X58.862 Y94.799 E31.68943
G1 X59.298 Y95.291 E31.70916
G1 X59.67 Y95.832 E31.72887
G1 X59.974 Y96.414 E31.74858
G1 X60.205 Y97.029 E31.7683
G1 X60.36 Y97.668 E31.78803
G1 X60.444 Y98.617 E31.81663
G1 X60.444 Y121.383 E32.5
G1 X60.404 Y122.039 E32.51973
G1 X60.285 Y122.685 E32.53945
G1 X60.088 Y123.312 E32.55918
G1 X59.816 Y123.91 E32.5789
G1 X59.474 Y124.471 E32.59862
G1 X58.862 Y125.201 E32.62721
G1 X58.745 Y125.318 E32.63218
G1 X58.253 Y125.754 E32.65191
G1 X57.712 Y126.126 E32.67162
G1 X57.13 Y126.43 E32.69133
G1 X56.515 Y126.661 E32.71105
G1 X55.876 Y126.816 E32.73079
G1 X54.927 Y126.9 E32.75939
G1 X15.161 Y126.9 E33.95305
G1 X14.505 Y126.86 E33.97278
G1 X13.859 Y126.741 E33.9925
G1 X13.232 Y126.544 E34.01223
G1 X12.634 Y126.272 E34.03195
G1 X12.073 Y125.93 E34.05167
G1 X11.343 Y125.318 E34.08026
G1 X11.226 Y125.201 E34.08523
G1 X10.79 Y124.709 E34.10496
G1 X10.418 Y124.168 E34.12467
G1 X10.114 Y123.586 E34.14438
G1 X9.883 Y122.971 E34.1641
G1 X9.728 Y122.332 E34.18384
G1 X9.644 Y121.383 E34.21244
G1 X9.644 Y98.617 E34.89581
G1 X9.684 Y97.961 E34.91554
G1 X9.803 Y97.315 E34.93525
G1 X10 Y96.688 E34.95498
G1 X10.272 Y96.09 E34.9747
G1 X10.614 Y95.529 E34.99442
G1 X11.226 Y94.799 E35.02302
G1 X11.343 Y94.682 E35.02799
G1 X11.835 Y94.246 E35.04772
G1 X12.376 Y93.874 E35.06743
G1 X12.958 Y93.57 E35.08714
G1 X13.573 Y93.339 E35.10686
G1 X14.212 Y93.184 E35.12659
G0 F2400 X14.4 Y93.558
G1 F1200 X15.161 Y93.5 E35.1495
G1 X54.927 Y93.5 E36.34317
G1 X55.558 Y93.54 E36.36215
G1 X56.179 Y93.659 E36.38113
G1 X56.779 Y93.856 E36.40009
G1 X57.351 Y94.127 E36.41908
G1 X57.883 Y94.467 E36.43804
G1 X58.463 Y94.964 E36.46096
G1 X58.58 Y95.081 E36.46593
G1 X58.997 Y95.556 E36.4849
G1 X59.352 Y96.079 E36.50388
G1 X59.638 Y96.643 E36.52286
G1 X59.85 Y97.238 E36.54182
G1 X59.986 Y97.856 E36.56081
G1 X60.044 Y98.617 E36.58372
G1 X60.044 Y121.383 E37.2671
G1 X60.004 Y122.014 E37.28608
G1 X59.885 Y122.635 E37.30506
G1 X59.688 Y123.235 E37.32401
G1 X59.417 Y123.807 E37.34301
G1 X59.077 Y124.339 E37.36196
G1 X58.58 Y124.919 E37.38489
G1 X58.463 Y125.036 E37.38986
G1 X57.988 Y125.453 E37.40883
G1 X57.465 Y125.808 E37.4278
G1 X56.901 Y126.094 E37.44679
G1 X56.306 Y126.306 E37.46575
G1 X55.688 Y126.442 E37.48474
G1 X54.927 Y126.5 E37.50765
G1 X15.161 Y126.5 E38.70132
G1 X14.53 Y126.46 E38.7203
G1 X13.909 Y126.341 E38.73928
G1 X13.309 Y126.144 E38.75823
G1 X12.737 Y125.873 E38.77723
G1 X12.205 Y125.533 E38.79618
G1 X11.625 Y125.036 E38.81911
G1 X11.508 Y124.919 E38.82408
G1 X11.091 Y124.444 E38.84305
G1 X10.736 Y123.921 E38.86203
G1 X10.45 Y123.357 E38.88101
G1 X10.238 Y122.762 E38.89997
G1 X10.102 Y122.144 E38.91896
G1 X10.044 Y121.383 E38.94187
G1 X10.044 Y98.617 E39.62524
G1 X10.084 Y97.986 E39.64422
G1 X10.203 Y97.365 E39.6632
G1 X10.4 Y96.765 E39.68216
G1 X10.671 Y96.193 E39.70116
G1 X11.011 Y95.661 E39.72011
G1 X11.508 Y95.081 E39.74304
G1 X11.625 Y94.964 E39.74801
G1 X12.1 Y94.547 E39.76698
G1 X12.623 Y94.192 E39.78595
G1 X13.187 Y93.906 E39.80493
G1 X13.782 Y93.694 E39.82389
G1 X14.4 Y93.558 E39.84289
G0 F2400 X14.583 Y93.936
G1 F1200 X15.161 Y93.9 E39.86027
G1 X54.927 Y93.9 E41.05394
G1 X55.532 Y93.94 E41.07214
G1 X56.126 Y94.059 E41.09032
G1 X56.7 Y94.255 E41.10853
G1 X57.243 Y94.526 E41.12675
G1 X57.746 Y94.865 E41.14496
G1 X58.18 Y95.247 E41.16231
G1 X58.297 Y95.364 E41.16728
G1 X58.696 Y95.82 E41.18547
G1 X59.032 Y96.325 E41.20367
G1 X59.299 Y96.869 E41.22186
G1 X59.492 Y97.444 E41.24007
G1 X59.608 Y98.039 E41.25827
G1 X59.644 Y98.617 E41.27565
G1 X59.644 Y121.383 E41.95902
G1 X59.604 Y121.988 E41.97722
G1 X59.485 Y122.582 E41.99541
G1 X59.289 Y123.156 E42.01361
G1 X59.018 Y123.699 E42.03183
G1 X58.679 Y124.202 E42.05004
G1 X58.297 Y124.636 E42.06739
