;FLAVOR:Marlin
;TIME:1419
;Filament used: 0.657424m
;Layer height: 0.1
;MINX:9.823
;MINY:88.972
;MINZ:0.2
;MAXX:53.877
;MAXY:131.026
;MAXZ:10
;Generated with Cura_SteamEngine 4.4.1
M140 S60
M105
M190 S60
M104 S200
M105
M109 S200
M82 ;absolute extrusion mode
G28 ;Home
G1 Z15.0 F6000 ;Move the platform down 15mm
;Prime the extruder
G92 E0
G1 F200 E3
G92 E0
G92 E0
G92 E0
G1 F1500 E-6.5
;LAYER_COUNT:99
;LAYER:0
M107
G0 F2400 X24.419 Y89.965 Z0.2
;TYPE:SKIRT
G1 F1500 E0
G1 F1200 X25.011 Y89.804 E0.01842
G1 X27.32 Y89.272 E0.08954
G1 X28.097 Y89.134 E0.11323
G1 X28.713 Y89.081 E0.13179
G1 X31.088 Y88.972 E0.20315
G1 X31.878 Y88.976 E0.22687
G1 X32.476 Y89.032 E0.2449
G1 X34.804 Y89.342 E0.31539
G1 X35.58 Y89.486 E0.33909
G1 X36.159 Y89.648 E0.35713
G1 X38.438 Y90.38 E0.42898
G1 X39.177 Y90.659 E0.4527
G1 X39.738 Y90.931 E0.47141
G1 X41.835 Y92.055 E0.54283
G1 X42.511 Y92.463 E0.56653
G1 X42.999 Y92.82 E0.58468
G1 X44.859 Y94.296 E0.65596
G1 X45.451 Y94.818 E0.67965
G1 X45.874 Y95.263 E0.69808
G1 X47.423 Y97.029 E0.76859
G1 X47.913 Y97.648 E0.79229
G1 X48.241 Y98.148 E0.81024
G1 X49.475 Y100.197 E0.88203
G1 X49.847 Y100.893 E0.90572
G1 X50.087 Y101.458 E0.92415
G1 X50.581 Y102.762 E0.96601
G1 X52.472 Y105.47 E1.06515
G1 X52.891 Y106.14 E1.08887
G1 X53.24 Y106.848 E1.11257
G1 X53.515 Y107.588 E1.13626
G1 X53.715 Y108.353 E1.16
G1 X53.836 Y109.133 E1.18369
G1 X53.877 Y109.936 E1.20783
G1 X53.877 Y110.064 E1.21167
G1 X53.837 Y110.853 E1.23538
G1 X53.718 Y111.633 E1.25907
G1 X53.52 Y112.398 E1.28279
G1 X53.246 Y113.138 E1.30647
G1 X52.898 Y113.847 E1.33018
G1 X52.466 Y114.538 E1.35464
G1 X50.59 Y117.217 E1.45282
G1 X50.108 Y118.494 E1.49379
G1 X49.792 Y119.218 E1.5175
G1 X49.511 Y119.732 E1.53508
G1 X48.3 Y121.764 E1.60609
G1 X47.862 Y122.421 E1.62979
G1 X47.48 Y122.896 E1.64809
G1 X45.917 Y124.689 E1.71949
G1 X45.368 Y125.258 E1.74322
G1 X44.91 Y125.655 E1.76142
G1 X43.06 Y127.135 E1.83253
G1 X42.419 Y127.596 E1.85623
G1 X41.891 Y127.908 E1.87464
G1 X39.797 Y129.038 E1.94607
G1 X39.084 Y129.378 E1.96978
G1 X38.514 Y129.589 E1.98802
G1 X36.26 Y130.325 E2.0592
G1 X35.498 Y130.532 E2.0829
G1 X34.895 Y130.638 E2.10128
G1 X32.545 Y130.959 E2.17247
G1 X31.758 Y131.026 E2.19618
G1 X31.161 Y131.024 E2.2141
G1 X28.787 Y130.924 E2.28543
G1 X28 Y130.851 E2.30915
G1 X27.387 Y130.737 E2.32787
G1 X25.071 Y130.211 E2.39916
G1 X24.311 Y129.998 E2.42285
G1 X23.747 Y129.783 E2.44097
G1 X21.567 Y128.856 E2.51208
G1 X20.857 Y128.511 E2.53577
G1 X20.334 Y128.196 E2.5541
G1 X18.349 Y126.891 E2.6254
G1 X17.712 Y126.424 E2.64911
G1 X17.255 Y126.022 E2.66738
G1 X15.517 Y124.367 E2.73942
G1 X14.974 Y123.794 E2.76312
G1 X14.586 Y123.303 E2.7819
G1 X13.206 Y121.404 E2.85237
G1 X12.775 Y120.743 E2.87606
G1 X12.498 Y120.222 E2.89377
G1 X11.451 Y118.063 E2.96579
G1 X11.143 Y117.336 E2.98949
G1 X10.95 Y116.736 E3.00841
G1 X10.325 Y114.473 E3.07888
G1 X10.154 Y113.703 E3.10256
G1 X10.077 Y113.116 E3.12033
G1 X9.856 Y110.73 E3.19226
G1 X9.823 Y109.941 E3.21596
G1 X9.854 Y109.321 E3.2346
G1 X10.062 Y106.979 E3.30518
G1 X10.171 Y106.197 E3.32888
G1 X10.308 Y105.61 E3.34697
G1 X10.941 Y103.297 E3.41895
G1 X11.187 Y102.547 E3.44265
G1 X11.433 Y101.98 E3.4612
G1 X12.451 Y99.86 E3.53179
G1 X12.828 Y99.166 E3.5555
G1 X13.159 Y98.669 E3.57342
G1 X14.564 Y96.724 E3.64545
G1 X15.058 Y96.108 E3.66915
G1 X15.488 Y95.661 E3.68777
G1 X17.195 Y94.024 E3.75876
G1 X17.792 Y93.507 E3.78247
G1 X18.287 Y93.151 E3.80077
G1 X20.25 Y91.851 E3.87144
G1 X20.93 Y91.449 E3.89515
G1 X21.473 Y91.189 E3.91322
G1 X23.678 Y90.24 E3.98528
G1 X24.419 Y89.965 E4.00901
G0 F2400 X24.558 Y90.341
G1 F1200 X25.101 Y90.194 E4.02589
G1 X27.41 Y89.662 E4.09702
G1 X28.167 Y89.528 E4.1201
G1 X28.732 Y89.481 E4.13711
G1 X31.107 Y89.372 E4.20848
G1 X31.876 Y89.376 E4.23156
G1 X32.423 Y89.429 E4.24806
G1 X34.751 Y89.739 E4.31856
G1 X35.507 Y89.88 E4.34164
G1 X36.037 Y90.029 E4.35817
G1 X38.316 Y90.761 E4.43002
G1 X39.035 Y91.033 E4.45309
G1 X39.549 Y91.284 E4.47026
G1 X41.646 Y92.408 E4.54168
G1 X42.304 Y92.806 E4.56477
G1 X42.75 Y93.133 E4.58137
G1 X44.61 Y94.609 E4.65264
G1 X45.187 Y95.118 E4.67574
G1 X45.573 Y95.526 E4.6926
G1 X47.122 Y97.292 E4.76311
G1 X47.599 Y97.896 E4.78621
G1 X47.898 Y98.354 E4.80263
G1 X49.132 Y100.403 E4.87443
G1 X49.494 Y101.082 E4.89753
G1 X49.713 Y101.599 E4.91438
G1 X50.225 Y102.951 E4.95778
G1 X52.144 Y105.699 E5.05839
G1 X52.551 Y106.352 E5.08148
G1 X52.888 Y107.044 E5.10459
G1 X53.152 Y107.766 E5.12766
G1 X53.339 Y108.512 E5.15075
G1 X53.447 Y109.274 E5.17385
G1 X53.477 Y109.936 E5.19374
G1 X53.477 Y110.064 E5.19758
G1 X53.437 Y110.832 E5.22067
G1 X53.318 Y111.592 E5.24376
G1 X53.12 Y112.335 E5.26684
G1 X52.846 Y113.054 E5.28994
G1 X52.499 Y113.74 E5.31301
G1 X52.139 Y114.308 E5.3332
G1 X50.234 Y117.029 E5.4329
G1 X49.734 Y118.353 E5.47539
G1 X49.425 Y119.057 E5.49847
G1 X49.168 Y119.527 E5.51454
G1 X47.957 Y121.559 E5.58555
G1 X47.529 Y122.199 E5.60866
G1 X47.178 Y122.634 E5.62544
G1 X45.615 Y124.427 E5.69684
G1 X45.08 Y124.979 E5.71991
G1 X44.66 Y125.342 E5.73658
G1 X42.81 Y126.822 E5.80769
G1 X42.185 Y127.271 E5.83079
G1 X41.701 Y127.556 E5.84765
G1 X39.607 Y128.686 E5.91908
G1 X38.912 Y129.016 E5.94217
G1 X38.39 Y129.208 E5.95887
G1 X36.136 Y129.944 E6.03004
G1 X35.393 Y130.145 E6.05315
G1 X34.841 Y130.242 E6.06997
G1 X32.491 Y130.563 E6.14117
G1 X31.724 Y130.627 E6.16427
G1 X31.178 Y130.624 E6.18066
G1 X28.804 Y130.524 E6.25198
G1 X28.038 Y130.452 E6.27508
G1 X27.476 Y130.347 E6.29224
G1 X25.16 Y129.821 E6.36353
G1 X24.42 Y129.612 E6.38661
G1 X23.903 Y129.415 E6.40322
G1 X21.723 Y128.488 E6.47433
G1 X21.032 Y128.151 E6.4974
G1 X20.554 Y127.861 E6.51419
G1 X18.569 Y126.556 E6.58549
G1 X17.949 Y126.101 E6.60858
G1 X17.531 Y125.732 E6.62531
G1 X15.793 Y124.077 E6.69735
G1 X15.264 Y123.518 E6.72046
G1 X14.91 Y123.068 E6.73764
G1 X13.53 Y121.169 E6.80811
G1 X13.111 Y120.524 E6.83119
G1 X12.858 Y120.048 E6.84738
G1 X11.811 Y117.889 E6.9194
G1 X11.511 Y117.18 E6.94251
G1 X11.336 Y116.63 E6.95984
G1 X10.711 Y114.367 E7.03031
G1 X10.545 Y113.616 E7.0534
G1 X10.476 Y113.079 E7.06965
G1 X10.255 Y110.693 E7.14157
G1 X10.224 Y109.925 E7.16465
G1 X10.252 Y109.356 E7.18175
G1 X10.46 Y107.014 E7.25232
G1 X10.568 Y106.253 E7.2754
G1 X10.693 Y105.716 E7.29195
G1 X11.326 Y103.403 E7.36393
G1 X11.568 Y102.672 E7.38704
G1 X11.793 Y102.153 E7.40402
G1 X12.811 Y100.033 E7.47462
G1 X13.18 Y99.358 E7.49771
G1 X13.483 Y98.903 E7.51412
G1 X14.888 Y96.958 E7.58614
G1 X15.371 Y96.359 E7.60924
G1 X15.765 Y95.95 E7.62628
G1 X17.472 Y94.313 E7.69728
G1 X18.054 Y93.81 E7.72037
G1 X18.508 Y93.484 E7.73715
G1 X20.471 Y92.184 E7.80782
G1 X21.134 Y91.793 E7.83092
G1 X21.632 Y91.557 E7.84747
G1 X23.837 Y90.608 E7.91952
G1 X24.558 Y90.341 E7.9426
G0 F2400 X24.697 Y90.717
G1 F1200 X25.19 Y90.584 E7.95793
G1 X27.499 Y90.052 E8.02906
G1 X28.236 Y89.923 E8.05152
G1 X28.75 Y89.88 E8.067
G1 X31.125 Y89.771 E8.13836
G1 X31.873 Y89.777 E8.16082
G1 X32.37 Y89.825 E8.17581
G1 X34.698 Y90.135 E8.2463
G1 X35.433 Y90.273 E8.26875
G1 X35.915 Y90.409 E8.28378
G1 X38.194 Y91.141 E8.35564
G1 X38.893 Y91.408 E8.3781
G1 X39.36 Y91.636 E8.3937
G1 X41.457 Y92.76 E8.46511
G1 X42.096 Y93.149 E8.48757
G1 X42.501 Y93.447 E8.50266
G1 X44.361 Y94.923 E8.57394
G1 X44.922 Y95.418 E8.5964
G1 X45.272 Y95.79 E8.61173
G1 X46.821 Y97.556 E8.68224
G1 X47.284 Y98.144 E8.70471
G1 X47.556 Y98.561 E8.71965
G1 X48.79 Y100.61 E8.79145
G1 X49.141 Y101.27 E8.81389
G1 X49.339 Y101.741 E8.82922
G1 X49.869 Y103.139 E8.8741
G1 X51.816 Y105.928 E8.9762
G1 X52.211 Y106.564 E8.99868
G1 X52.536 Y107.238 E9.02114
G1 X52.787 Y107.942 E9.04357
G1 X52.962 Y108.67 E9.06605
G1 X53.057 Y109.412 E9.0885
G1 X53.077 Y109.936 E9.10424
G1 X53.077 Y110.064 E9.10808
G1 X53.037 Y110.811 E9.13054
G1 X52.918 Y111.549 E9.15298
G1 X52.72 Y112.271 E9.17545
G1 X52.447 Y112.967 E9.19789
G1 X52.1 Y113.63 E9.22036
G1 X51.811 Y114.079 E9.23638
G1 X49.878 Y116.839 E9.33753
G1 X49.36 Y118.212 E9.38158
G1 X49.059 Y118.896 E9.40401
G1 X48.824 Y119.323 E9.41864
G1 X47.613 Y121.355 E9.48965
G1 X47.196 Y121.976 E9.5121
G1 X46.877 Y122.371 E9.52734
G1 X45.314 Y124.164 E9.59874
G1 X44.793 Y124.701 E9.6212
G1 X44.41 Y125.03 E9.63636
G1 X42.56 Y126.51 E9.70747
G1 X41.952 Y126.946 E9.72993
G1 X41.511 Y127.204 E9.74527
G1 X39.417 Y128.334 E9.81669
G1 X38.741 Y128.654 E9.83914
G1 X38.266 Y128.828 E9.85432
G1 X36.012 Y129.564 E9.9255
G1 X35.289 Y129.758 E9.94797
G1 X34.786 Y129.846 E9.9633
G1 X32.436 Y130.167 E10.03449
G1 X31.691 Y130.228 E10.05693
G1 X31.194 Y130.225 E10.07185
G1 X28.82 Y130.125 E10.14317
G1 X28.076 Y130.053 E10.16561
G1 X27.565 Y129.957 E10.18122
G1 X25.249 Y129.431 E10.25251
G1 X24.529 Y129.227 E10.27497
G1 X24.06 Y129.047 E10.29005
G1 X21.88 Y128.12 E10.36116
G1 X21.208 Y127.791 E10.38362
G1 X20.774 Y127.527 E10.39887
G1 X18.789 Y126.222 E10.47017
G1 X18.186 Y125.778 E10.49265
G1 X17.807 Y125.442 E10.50786
G1 X16.069 Y123.787 E10.5799
G1 X15.555 Y123.243 E10.60236
G1 X15.233 Y122.833 E10.61801
G1 X13.853 Y120.934 E10.68847
G1 X13.447 Y120.306 E10.71092
G1 X13.218 Y119.873 E10.72563
G1 X12.171 Y117.714 E10.79765
G1 X11.881 Y117.025 E10.82009
G1 X11.722 Y116.524 E10.83587
G1 X11.097 Y114.261 E10.90634
G1 X10.936 Y113.53 E10.92881
G1 X10.874 Y113.043 E10.94354
G1 X10.653 Y110.657 E11.01547
G1 X10.624 Y109.909 E11.03794
G1 X10.65 Y109.392 E11.05348
G1 X10.858 Y107.05 E11.12406
G1 X10.964 Y106.309 E11.14653
G1 X11.079 Y105.821 E11.16158
G1 X11.712 Y103.508 E11.23356
G1 X11.948 Y102.798 E11.25602
G1 X12.154 Y102.326 E11.27148
G1 X13.172 Y100.206 E11.34207
G1 X13.531 Y99.55 E11.36452
G1 X13.808 Y99.137 E11.37945
G1 X15.213 Y97.192 E11.45147
G1 X15.682 Y96.61 E11.4739
G1 X16.042 Y96.239 E11.48942
G1 X17.749 Y94.602 E11.56042
G1 X18.316 Y94.114 E11.58287
G1 X18.729 Y93.818 E11.59812
G1 X20.692 Y92.518 E11.6688
G1 X21.337 Y92.139 E11.69125
G1 X21.79 Y91.924 E11.7063
G1 X23.995 Y90.975 E11.77836
G1 X24.697 Y90.717 E11.80081
G0 F2400 X24.835 Y91.093
G1 F1200 X25.28 Y90.974 E11.81464
G1 X27.589 Y90.442 E11.88577
G1 X28.305 Y90.318 E11.90758
G1 X28.768 Y90.28 E11.92152
G1 X31.143 Y90.171 E11.99289
G1 X31.87 Y90.178 E12.01471
G1 X32.317 Y90.222 E12.0282
G1 X34.645 Y90.532 E12.09869
G1 X35.359 Y90.667 E12.1205
G1 X35.792 Y90.79 E12.13402
G1 X38.071 Y91.522 E12.20587
G1 X38.75 Y91.782 E12.22769
G1 X39.171 Y91.989 E12.24177
G1 X41.268 Y93.113 E12.31319
G1 X41.888 Y93.491 E12.33499
G1 X42.253 Y93.76 E12.3486
G1 X44.113 Y95.236 E12.41988
G1 X44.656 Y95.718 E12.44167
G1 X44.972 Y96.054 E12.45552
G1 X46.521 Y97.82 E12.52603
G1 X46.969 Y98.392 E12.54784
G1 X47.213 Y98.767 E12.56127
G1 X48.447 Y100.816 E12.63307
G1 X48.787 Y101.458 E12.65487
G1 X48.965 Y101.883 E12.6687
G1 X49.512 Y103.327 E12.71505
G1 X51.488 Y106.157 E12.81866
G1 X51.871 Y106.775 E12.84049
G1 X52.183 Y107.431 E12.86229
G1 X52.421 Y108.117 E12.88409
G1 X52.583 Y108.825 E12.90589
G1 X52.666 Y109.547 E12.9277
G1 X52.677 Y109.936 E12.93938
G1 X52.677 Y110.064 E12.94323
G1 X52.637 Y110.789 E12.96502
G1 X52.518 Y111.506 E12.98684
G1 X52.32 Y112.205 E13.00865
G1 X52.047 Y112.878 E13.03045
G1 X51.702 Y113.517 E13.05225
G1 X51.483 Y113.849 E13.06418
G1 X49.523 Y116.649 E13.16678
G1 X48.986 Y118.07 E13.21238
G1 X48.692 Y118.735 E13.2342
G1 X48.481 Y119.118 E13.24733
G1 X47.27 Y121.15 E13.31833
G1 X46.864 Y121.752 E13.34013
G1 X46.575 Y122.108 E13.35389
G1 X45.012 Y123.901 E13.42529
G1 X44.505 Y124.421 E13.44709
G1 X44.16 Y124.718 E13.46076
G1 X42.31 Y126.198 E13.53187
G1 X41.719 Y126.62 E13.55367
G1 X41.321 Y126.852 E13.5675
G1 X39.227 Y127.982 E13.63892
G1 X38.57 Y128.292 E13.66073
G1 X38.142 Y128.448 E13.67441
G1 X35.888 Y129.184 E13.74558
G1 X35.186 Y129.371 E13.76739
G1 X34.732 Y129.449 E13.78121
G1 X32.382 Y129.77 E13.85241
G1 X31.658 Y129.829 E13.87421
G1 X31.211 Y129.825 E13.88763
G1 X28.837 Y129.725 E13.95896
G1 X28.114 Y129.655 E13.98076
G1 X27.653 Y129.567 E13.99485
G1 X25.337 Y129.041 E14.06614
G1 X24.639 Y128.841 E14.08793
G1 X24.216 Y128.679 E14.10153
G1 X22.036 Y127.752 E14.17264
G1 X21.385 Y127.431 E14.19443
G1 X20.993 Y127.193 E14.20819
G1 X19.008 Y125.888 E14.2795
G1 X18.424 Y125.456 E14.30131
G1 X18.083 Y125.153 E14.315
G1 X16.345 Y123.498 E14.38704
G1 X15.847 Y122.969 E14.40885
G1 X15.557 Y122.598 E14.42298
G1 X14.177 Y120.699 E14.49345
G1 X13.783 Y120.089 E14.51524
G1 X13.577 Y119.699 E14.52848
G1 X12.53 Y117.54 E14.60051
G1 X12.25 Y116.87 E14.62231
G1 X12.107 Y116.417 E14.63657
G1 X11.482 Y114.154 E14.70704
G1 X11.328 Y113.444 E14.72885
G1 X11.272 Y113.006 E14.7421
G1 X11.051 Y110.62 E14.81403
G1 X11.024 Y109.894 E14.83584
G1 X11.049 Y109.427 E14.84987
G1 X11.257 Y107.085 E14.92045
G1 X11.361 Y106.366 E14.94226
G1 X11.465 Y105.927 E14.9558
G1 X12.098 Y103.614 E15.02778
G1 X12.328 Y102.925 E15.04959
G1 X12.514 Y102.499 E15.06354
G1 X13.532 Y100.379 E15.13413
G1 X13.882 Y99.743 E15.15592
G1 X14.132 Y99.371 E15.16938
G1 X15.537 Y97.426 E15.2414
G1 X15.994 Y96.862 E15.26319
G1 X16.319 Y96.527 E15.2772
G1 X18.026 Y94.89 E15.34819
G1 X18.577 Y94.417 E15.36999
G1 X18.95 Y94.151 E15.38374
G1 X20.913 Y92.851 E15.45442
G1 X21.54 Y92.484 E15.47623
G1 X21.948 Y92.292 E15.48976
G1 X24.153 Y91.343 E15.56182
G1 X24.835 Y91.093 E15.58362
G0 F2400 X24.972 Y91.469
G1 F1200 X25.37 Y91.363 E15.59599
G1 X27.679 Y90.831 E15.66711
G1 X28.373 Y90.712 E15.68825
G1 X28.787 Y90.68 E15.70071
G1 X31.162 Y90.571 E15.77208
G1 X31.866 Y90.578 E15.79321
G1 X32.264 Y90.618 E15.80522
G1 X34.592 Y90.928 E15.87572
G1 X35.284 Y91.061 E15.89687
G1 X35.67 Y91.171 E15.90892
G1 X37.949 Y91.903 E15.98077
G1 X38.606 Y92.156 E16.0019
G1 X38.982 Y92.341 E16.01448
G1 X41.079 Y93.465 E16.0859
G1 X41.68 Y93.833 E16.10705
G1 X42.004 Y94.073 E16.11915
G1 X43.864 Y95.549 E16.19043
G1 X44.39 Y96.018 E16.21158
G1 X44.671 Y96.318 E16.22392
G1 X46.22 Y98.084 E16.29443
G1 X46.653 Y98.638 E16.31554
G1 X46.87 Y98.973 E16.32752
G1 X48.104 Y101.022 E16.39932
G1 X48.433 Y101.645 E16.42047
G1 X48.591 Y102.025 E16.43282
G1 X49.156 Y103.516 E16.48068
G1 X51.16 Y106.386 E16.58576
G1 X51.53 Y106.986 E16.60692
G1 X51.829 Y107.623 E16.62804
G1 X52.054 Y108.29 E16.64917
G1 X52.203 Y108.978 E16.6703
G1 X52.277 Y109.936 E16.69914
G1 X52.277 Y110.064 E16.70298
G1 X52.237 Y110.767 E16.72412
G1 X52.118 Y111.461 E16.74526
G1 X51.92 Y112.136 E16.76637
G1 X51.648 Y112.785 E16.78749
G1 X51.156 Y113.62 E16.81659
G1 X49.163 Y116.466 E16.92088
G1 X48.611 Y117.929 E16.96782
G1 X48.326 Y118.572 E16.98893
G1 X48.137 Y118.913 E17.00063
G1 X46.926 Y120.945 E17.07164
G1 X46.532 Y121.528 E17.09276
G1 X46.274 Y121.845 E17.10503
G1 X44.711 Y123.638 E17.17643
G1 X44.219 Y124.142 E17.19757
G1 X43.91 Y124.405 E17.20975
G1 X42.06 Y125.885 E17.28086
G1 X41.486 Y126.293 E17.302
G1 X41.131 Y126.5 E17.31434
G1 X39.037 Y127.63 E17.38576
G1 X38.4 Y127.929 E17.40689
G1 X38.017 Y128.068 E17.41912
G1 X35.763 Y128.804 E17.49029
G1 X35.083 Y128.984 E17.51141
G1 X34.678 Y129.053 E17.52374
G1 X32.328 Y129.374 E17.59493
G1 X31.626 Y129.429 E17.61607
G1 X31.228 Y129.426 E17.62802
G1 X28.854 Y129.326 E17.69934
G1 X28.154 Y129.256 E17.72046
G1 X27.742 Y129.177 E17.73305
G1 X25.426 Y128.651 E17.80434
G1 X24.749 Y128.456 E17.82549
G1 X24.373 Y128.311 E17.83759
G1 X22.193 Y127.384 E17.90869
G1 X21.562 Y127.072 E17.92982
G1 X21.213 Y126.859 E17.9421
G1 X19.228 Y125.554 E18.0134
G1 X18.663 Y125.134 E18.03454
G1 X18.358 Y124.863 E18.04678
G1 X16.62 Y123.208 E18.11882
G1 X16.139 Y122.694 E18.13995
G1 X15.88 Y122.363 E18.15257
G1 X14.5 Y120.464 E18.22303
G1 X14.12 Y119.872 E18.24415
G1 X13.937 Y119.524 E18.25595
G1 X12.89 Y117.365 E18.32798
G1 X12.62 Y116.715 E18.34911
G1 X12.493 Y116.311 E18.36182
G1 X11.868 Y114.048 E18.43229
G1 X11.719 Y113.359 E18.45345
G1 X11.67 Y112.969 E18.46525
G1 X11.449 Y110.583 E18.53718
G1 X11.424 Y109.879 E18.55832
G1 X11.447 Y109.463 E18.57083
G1 X11.655 Y107.121 E18.64141
G1 X11.757 Y106.424 E18.66255
G1 X11.851 Y106.032 E18.67465
G1 X12.484 Y103.719 E18.74663
G1 X12.708 Y103.052 E18.76775
G1 X12.875 Y102.672 E18.78021
G1 X13.893 Y100.552 E18.85081
G1 X14.233 Y99.936 E18.87193
G1 X14.456 Y99.605 E18.88391
G1 X15.861 Y97.66 E18.95593
G1 X16.305 Y97.114 E18.97705
