;FLAVOR:Marlin
;TIME:11673
;Filament used: 5.40586m
;Layer height: 0.1
;MINX:6.158
;MINY:39.931
;MINZ:0.2
;MAXX:94.258
;MAXY:155.531
;MAXZ:5
;Generated with Cura_SteamEngine 4.4.1
M140 S60
M105
M190 S60
M104 S200
M105
M109 S200
M82 ;absolute extrusion mode
G28 ;Home
G1 Z15.0 F6000 ;Move the platform down 15mm
;Prime the extruder
G92 E0
G1 F200 E3
G92 E0
G92 E0
G92 E0
G1 F1500 E-6.5
;LAYER_COUNT:49
;LAYER:0
M107
G0 F2400 X11.927 Y40.233 Z0.2
;TYPE:SKIRT
G1 F1500 E0
G1 F1200 X12.696 Y40.054 E0.0237
G1 X13.48 Y39.954 E0.04742
G1 X14.075 Y39.931 E0.0653
G1 X86.341 Y39.931 E2.23453
G1 X87.13 Y39.971 E2.25824
G1 X87.91 Y40.09 E2.28192
G1 X88.675 Y40.288 E2.30564
G1 X89.415 Y40.562 E2.32933
G1 X90.124 Y40.91 E2.35304
G1 X90.795 Y41.328 E2.37677
G1 X91.419 Y41.811 E2.40046
G1 X91.856 Y42.216 E2.41834
G1 X91.973 Y42.333 E2.42331
G1 X92.503 Y42.919 E2.44702
G1 X92.97 Y43.555 E2.47071
G1 X93.371 Y44.235 E2.49441
G1 X93.701 Y44.953 E2.51813
G1 X93.956 Y45.7 E2.54182
G1 X94.135 Y46.469 E2.56552
G1 X94.235 Y47.253 E2.58924
G1 X94.258 Y47.848 E2.60712
G1 X94.258 Y147.614 E5.60182
G1 X94.218 Y148.403 E5.62553
G1 X94.099 Y149.183 E5.64922
G1 X93.901 Y149.948 E5.67294
G1 X93.627 Y150.688 E5.69663
G1 X93.279 Y151.397 E5.72033
G1 X92.861 Y152.068 E5.74406
G1 X92.378 Y152.692 E5.76775
G1 X91.973 Y153.129 E5.78563
G1 X91.856 Y153.246 E5.7906
G1 X91.27 Y153.776 E5.81432
G1 X90.634 Y154.243 E5.838
G1 X89.954 Y154.644 E5.8617
G1 X89.236 Y154.974 E5.88542
G1 X88.489 Y155.229 E5.90911
G1 X87.72 Y155.408 E5.93281
G1 X86.936 Y155.508 E5.95654
G1 X86.341 Y155.531 E5.97441
G1 X14.075 Y155.531 E8.14364
G1 X13.286 Y155.491 E8.16735
G1 X12.506 Y155.372 E8.19104
G1 X11.741 Y155.174 E8.21476
G1 X11.001 Y154.9 E8.23844
G1 X10.292 Y154.552 E8.26215
G1 X9.621 Y154.134 E8.28588
G1 X8.997 Y153.651 E8.30957
G1 X8.56 Y153.246 E8.32745
G1 X8.443 Y153.129 E8.33242
G1 X7.913 Y152.543 E8.35614
G1 X7.446 Y151.907 E8.37982
G1 X7.045 Y151.227 E8.40352
G1 X6.715 Y150.509 E8.42724
G1 X6.46 Y149.762 E8.45093
G1 X6.281 Y148.993 E8.47463
G1 X6.181 Y148.209 E8.49836
G1 X6.158 Y147.614 E8.51623
G1 X6.158 Y47.848 E11.51093
G1 X6.198 Y47.059 E11.53465
G1 X6.317 Y46.279 E11.55833
G1 X6.515 Y45.514 E11.58205
G1 X6.789 Y44.774 E11.60574
G1 X7.137 Y44.065 E11.62945
G1 X7.555 Y43.394 E11.65318
G1 X8.038 Y42.77 E11.67686
G1 X8.443 Y42.333 E11.69475
G1 X8.56 Y42.216 E11.69971
G1 X9.146 Y41.686 E11.72343
G1 X9.782 Y41.219 E11.74712
G1 X10.462 Y40.818 E11.77081
G1 X11.18 Y40.488 E11.79453
G1 X11.927 Y40.233 E11.81823
G0 F2400 X12.134 Y40.59
G1 F1200 X12.885 Y40.427 E11.84129
G1 X13.65 Y40.343 E11.86439
G1 X14.075 Y40.331 E11.87716
G1 X86.341 Y40.331 E14.04638
G1 X87.109 Y40.371 E14.06947
G1 X87.869 Y40.49 E14.09256
G1 X88.612 Y40.688 E14.11564
G1 X89.331 Y40.962 E14.13874
G1 X90.017 Y41.309 E14.16181
G1 X90.664 Y41.725 E14.1849
G1 X91.264 Y42.206 E14.20799
G1 X91.574 Y42.498 E14.22077
G1 X91.691 Y42.615 E14.22574
G1 X92.205 Y43.187 E14.24882
G1 X92.658 Y43.809 E14.27192
G1 X93.044 Y44.474 E14.295
G1 X93.359 Y45.176 E14.3181
G1 X93.599 Y45.907 E14.34119
G1 X93.762 Y46.658 E14.36426
G1 X93.846 Y47.423 E14.38736
G1 X93.858 Y47.848 E14.40012
G1 X93.858 Y147.614 E17.39482
G1 X93.818 Y148.382 E17.41791
G1 X93.699 Y149.142 E17.441
G1 X93.501 Y149.885 E17.46408
G1 X93.227 Y150.604 E17.48718
G1 X92.88 Y151.29 E17.51025
G1 X92.464 Y151.937 E17.53334
G1 X91.983 Y152.537 E17.55643
G1 X91.691 Y152.847 E17.56921
G1 X91.574 Y152.964 E17.57418
G1 X91.002 Y153.478 E17.59726
G1 X90.38 Y153.931 E17.62036
G1 X89.715 Y154.317 E17.64344
G1 X89.013 Y154.632 E17.66653
G1 X88.282 Y154.872 E17.68963
G1 X87.531 Y155.035 E17.7127
G1 X86.766 Y155.119 E17.7358
G1 X86.341 Y155.131 E17.74856
G1 X14.075 Y155.131 E19.91779
G1 X13.307 Y155.091 E19.94087
G1 X12.547 Y154.972 E19.96397
G1 X11.804 Y154.774 E19.98705
G1 X11.085 Y154.5 E20.01014
G1 X10.399 Y154.153 E20.03322
G1 X9.752 Y153.737 E20.05631
G1 X9.152 Y153.256 E20.07939
G1 X8.842 Y152.964 E20.09218
G1 X8.725 Y152.847 E20.09714
G1 X8.211 Y152.275 E20.12023
G1 X7.758 Y151.653 E20.14332
G1 X7.372 Y150.988 E20.1664
G1 X7.057 Y150.286 E20.1895
G1 X6.817 Y149.555 E20.21259
G1 X6.654 Y148.804 E20.23566
G1 X6.57 Y148.039 E20.25876
G1 X6.558 Y147.614 E20.27153
G1 X6.558 Y47.848 E23.26623
G1 X6.598 Y47.08 E23.28931
G1 X6.717 Y46.32 E23.31241
G1 X6.915 Y45.577 E23.33549
G1 X7.189 Y44.858 E23.35858
G1 X7.536 Y44.172 E23.38166
G1 X7.952 Y43.525 E23.40475
G1 X8.433 Y42.925 E23.42783
G1 X8.725 Y42.615 E23.44062
G1 X8.842 Y42.498 E23.44558
G1 X9.414 Y41.984 E23.46867
G1 X10.036 Y41.531 E23.49176
G1 X10.701 Y41.145 E23.51484
G1 X11.403 Y40.83 E23.53794
G1 X12.134 Y40.59 E23.56103
G0 F2400 X12.338 Y40.95
G1 F1200 X13.071 Y40.803 E23.58348
G1 X14.075 Y40.731 E23.61369
G1 X86.341 Y40.731 E25.78292
G1 X87.088 Y40.771 E25.80537
G1 X87.826 Y40.89 E25.82781
G1 X88.548 Y41.088 E25.85029
G1 X89.244 Y41.361 E25.87273
G1 X89.907 Y41.708 E25.89519
G1 X90.53 Y42.123 E25.91766
G1 X91.291 Y42.781 E25.94786
G1 X91.408 Y42.898 E25.95282
G1 X91.908 Y43.455 E25.97529
G1 X92.345 Y44.061 E25.99772
G1 X92.716 Y44.711 E26.02018
G1 X93.015 Y45.397 E26.04265
G1 X93.239 Y46.111 E26.06511
G1 X93.386 Y46.844 E26.08755
G1 X93.458 Y47.848 E26.11777
G1 X93.458 Y147.614 E29.11247
G1 X93.418 Y148.361 E29.13492
G1 X93.299 Y149.099 E29.15736
G1 X93.101 Y149.821 E29.17983
G1 X92.828 Y150.517 E29.20228
G1 X92.481 Y151.18 E29.22474
G1 X92.066 Y151.803 E29.24721
G1 X91.408 Y152.564 E29.27741
G1 X91.291 Y152.681 E29.28237
G1 X90.734 Y153.181 E29.30484
G1 X90.128 Y153.618 E29.32727
G1 X89.478 Y153.989 E29.34973
G1 X88.792 Y154.288 E29.3722
G1 X88.078 Y154.512 E29.39466
G1 X87.345 Y154.659 E29.4171
G1 X86.341 Y154.731 E29.44731
G1 X14.075 Y154.731 E31.61654
G1 X13.328 Y154.691 E31.639
G1 X12.59 Y154.572 E31.66144
G1 X11.868 Y154.374 E31.68391
G1 X11.172 Y154.101 E31.70635
G1 X10.509 Y153.754 E31.72881
G1 X9.886 Y153.339 E31.75128
G1 X9.125 Y152.681 E31.78148
G1 X9.008 Y152.564 E31.78645
G1 X8.508 Y152.007 E31.80892
G1 X8.071 Y151.401 E31.83134
G1 X7.7 Y150.751 E31.85381
G1 X7.401 Y150.065 E31.87627
G1 X7.177 Y149.351 E31.89873
G1 X7.03 Y148.618 E31.92117
G1 X6.958 Y147.614 E31.95139
G1 X6.958 Y47.848 E34.94609
G1 X6.998 Y47.101 E34.96855
G1 X7.117 Y46.363 E34.99099
G1 X7.315 Y45.641 E35.01346
G1 X7.588 Y44.945 E35.0359
G1 X7.935 Y44.282 E35.05836
G1 X8.35 Y43.659 E35.08083
G1 X9.008 Y42.898 E35.11103
G1 X9.125 Y42.781 E35.116
G1 X9.682 Y42.281 E35.13847
G1 X10.288 Y41.844 E35.16089
G1 X10.938 Y41.473 E35.18336
G1 X11.624 Y41.174 E35.20582
G1 X12.338 Y40.95 E35.22828
G0 F2400 X12.539 Y41.312
G1 F1200 X13.254 Y41.182 E35.2501
G1 X14.075 Y41.131 E35.27479
G1 X86.341 Y41.131 E37.44402
G1 X87.066 Y41.171 E37.46581
G1 X87.783 Y41.29 E37.48763
G1 X88.482 Y41.488 E37.50944
G1 X89.155 Y41.761 E37.53124
G1 X89.794 Y42.106 E37.55304
G1 X90.391 Y42.52 E37.57484
G1 X91.008 Y43.064 E37.59954
G1 X91.125 Y43.181 E37.6045
G1 X91.609 Y43.722 E37.62629
G1 X92.032 Y44.313 E37.64811
G1 X92.386 Y44.947 E37.6699
G1 X92.669 Y45.616 E37.69171
G1 X92.877 Y46.312 E37.71351
G1 X93.007 Y47.027 E37.73533
G1 X93.058 Y47.848 E37.76002
G1 X93.058 Y147.614 E40.75472
G1 X93.018 Y148.339 E40.77652
G1 X92.899 Y149.056 E40.79834
G1 X92.701 Y149.755 E40.82014
G1 X92.428 Y150.428 E40.84194
G1 X92.083 Y151.067 E40.86374
G1 X91.669 Y151.664 E40.88555
G1 X91.125 Y152.281 E40.91024
G1 X91.008 Y152.398 E40.91521
G1 X90.467 Y152.882 E40.937
G1 X89.876 Y153.305 E40.95881
G1 X89.242 Y153.659 E40.98061
G1 X88.573 Y153.942 E41.00241
G1 X87.877 Y154.15 E41.02422
G1 X87.162 Y154.28 E41.04603
G1 X86.341 Y154.331 E41.07072
G1 X14.075 Y154.331 E43.23995
G1 X13.35 Y154.291 E43.26175
G1 X12.633 Y154.172 E43.28357
G1 X11.934 Y153.974 E43.30537
G1 X11.261 Y153.701 E43.32717
G1 X10.622 Y153.356 E43.34897
G1 X10.025 Y152.942 E43.37078
G1 X9.408 Y152.398 E43.39547
G1 X9.291 Y152.281 E43.40044
G1 X8.807 Y151.74 E43.42223
G1 X8.384 Y151.149 E43.44404
G1 X8.03 Y150.515 E43.46584
G1 X7.747 Y149.846 E43.48764
G1 X7.539 Y149.15 E43.50945
G1 X7.409 Y148.435 E43.53126
G1 X7.358 Y147.614 E43.55595
G1 X7.358 Y47.848 E46.55066
G1 X7.398 Y47.123 E46.57245
G1 X7.517 Y46.406 E46.59427
G1 X7.715 Y45.707 E46.61608
G1 X7.988 Y45.034 E46.63788
G1 X8.333 Y44.395 E46.65968
G1 X8.747 Y43.798 E46.68148
G1 X9.291 Y43.181 E46.70618
G1 X9.408 Y43.064 E46.71114
G1 X9.949 Y42.58 E46.73293
G1 X10.54 Y42.157 E46.75475
G1 X11.174 Y41.803 E46.77654
G1 X11.843 Y41.52 E46.79835
G1 X12.539 Y41.312 E46.82015
G0 F2400 X12.06 Y41.867
G1 F1200 X12.738 Y41.677 E46.84129
G1 X13.433 Y41.564 E46.86243
G1 X14.075 Y41.531 E46.88172
G1 X86.341 Y41.531 E49.05095
G1 X87.044 Y41.571 E49.07209
G1 X87.738 Y41.69 E49.09322
G1 X88.413 Y41.888 E49.11434
G1 X89.062 Y42.16 E49.13546
G1 X89.676 Y42.505 E49.1566
G1 X90.247 Y42.916 E49.17772
G1 X90.725 Y43.347 E49.19704
G1 X90.842 Y43.464 E49.20201
G1 X91.311 Y43.989 E49.22314
G1 X91.717 Y44.564 E49.24427
G1 X92.055 Y45.182 E49.26541
G1 X92.322 Y45.833 E49.28653
G1 X92.512 Y46.511 E49.30767
G1 X92.625 Y47.206 E49.3288
G1 X92.658 Y47.848 E49.3481
G1 X92.658 Y147.614 E52.3428
G1 X92.618 Y148.317 E52.36394
G1 X92.499 Y149.011 E52.38508
G1 X92.301 Y149.686 E52.40619
G1 X92.029 Y150.335 E52.42731
G1 X91.684 Y150.949 E52.44845
G1 X91.273 Y151.52 E52.46957
G1 X90.842 Y151.998 E52.48889
G1 X90.725 Y152.115 E52.49386
G1 X90.2 Y152.584 E52.51499
G1 X89.625 Y152.99 E52.53612
G1 X89.007 Y153.328 E52.55726
G1 X88.356 Y153.595 E52.57838
G1 X87.678 Y153.785 E52.59952
G1 X86.983 Y153.898 E52.62066
G1 X86.341 Y153.931 E52.63995
G1 X14.075 Y153.931 E54.80918
G1 X13.372 Y153.891 E54.83032
G1 X12.678 Y153.772 E54.85145
G1 X12.003 Y153.574 E54.87257
G1 X11.354 Y153.302 E54.89369
G1 X10.74 Y152.957 E54.91483
G1 X10.169 Y152.546 E54.93595
G1 X9.691 Y152.115 E54.95527
G1 X9.574 Y151.998 E54.96024
G1 X9.105 Y151.473 E54.98137
G1 X8.699 Y150.898 E55.0025
G1 X8.361 Y150.28 E55.02364
G1 X8.094 Y149.629 E55.04476
G1 X7.904 Y148.951 E55.0659
G1 X7.791 Y148.256 E55.08703
G1 X7.758 Y147.614 E55.10633
G1 X7.758 Y47.848 E58.10103
G1 X7.798 Y47.145 E58.12217
G1 X7.917 Y46.451 E58.14331
G1 X8.115 Y45.776 E58.16442
G1 X8.387 Y45.127 E58.18554
G1 X8.732 Y44.513 E58.20668
G1 X9.143 Y43.942 E58.2278
G1 X9.574 Y43.464 E58.24712
G1 X9.691 Y43.347 E58.25209
G1 X10.216 Y42.878 E58.27322
G1 X10.791 Y42.472 E58.29435
G1 X11.409 Y42.134 E58.31549
G1 X12.06 Y41.867 E58.33661
G0 F2400 X12.275 Y42.217
G1 F1200 X12.934 Y42.044 E58.35707
G1 X13.608 Y41.95 E58.37749
G1 X14.075 Y41.931 E58.39152
G1 X86.341 Y41.931 E60.56075
G1 X87.021 Y41.971 E60.5812
G1 X87.691 Y42.09 E60.60162
G1 X88.343 Y42.287 E60.62207
G1 X88.967 Y42.559 E60.6425
G1 X89.555 Y42.903 E60.66295
G1 X90.099 Y43.313 E60.6834
G1 X90.442 Y43.63 E60.69742
G1 X90.559 Y43.747 E60.70239
G1 X91.012 Y44.256 E60.72284
G1 X91.401 Y44.814 E60.74326
G1 X91.723 Y45.414 E60.7637
G1 X91.972 Y46.048 E60.78414
G1 X92.145 Y46.707 E60.8046
G1 X92.239 Y47.381 E60.82502
G1 X92.258 Y47.848 E60.83905
G1 X92.258 Y147.614 E63.83376
G1 X92.218 Y148.294 E63.8542
G1 X92.099 Y148.964 E63.87463
G1 X91.902 Y149.616 E63.89507
G1 X91.63 Y150.24 E63.91551
G1 X91.286 Y150.828 E63.93596
G1 X90.876 Y151.372 E63.9564
G1 X90.559 Y151.715 E63.97042
G1 X90.442 Y151.832 E63.97539
G1 X89.933 Y152.285 E63.99584
G1 X89.375 Y152.674 E64.01626
G1 X88.775 Y152.996 E64.0367
G1 X88.141 Y153.245 E64.05715
G1 X87.482 Y153.418 E64.0776
G1 X86.808 Y153.512 E64.09803
G1 X86.341 Y153.531 E64.11206
G1 X14.075 Y153.531 E66.28128
G1 X13.395 Y153.491 E66.30173
G1 X12.725 Y153.372 E66.32216
G1 X12.073 Y153.175 E66.3426
G1 X11.449 Y152.903 E66.36304
G1 X10.861 Y152.559 E66.38348
G1 X10.317 Y152.149 E66.40393
G1 X9.974 Y151.832 E66.41795
G1 X9.857 Y151.715 E66.42292
G1 X9.404 Y151.206 E66.44337
G1 X9.015 Y150.648 E66.46379
G1 X8.693 Y150.048 E66.48423
G1 X8.444 Y149.414 E66.50468
G1 X8.271 Y148.755 E66.52513
G1 X8.177 Y148.081 E66.54556
G1 X8.158 Y147.614 E66.55958
G1 X8.158 Y47.848 E69.55429
G1 X8.198 Y47.168 E69.57474
G1 X8.317 Y46.498 E69.59516
G1 X8.514 Y45.846 E69.61561
G1 X8.786 Y45.222 E69.63604
G1 X9.13 Y44.634 E69.65649
G1 X9.54 Y44.09 E69.67694
G1 X9.857 Y43.747 E69.69096
G1 X9.974 Y43.63 E69.69592
G1 X10.483 Y43.177 E69.71638
G1 X11.041 Y42.788 E69.73679
G1 X11.641 Y42.466 E69.75723
G1 X12.275 Y42.217 E69.77768
G0 F2400 X12.487 Y42.57
G1 F1200 X13.126 Y42.415 E69.79742
G1 X14.075 Y42.331 E69.82602
G1 X86.341 Y42.331 E71.99524
G1 X86.997 Y42.371 E72.01497
G1 X87.643 Y42.49 E72.03469
G1 X88.27 Y42.687 E72.05442
G1 X88.868 Y42.959 E72.07414
G1 X89.429 Y43.301 E72.09386
G1 X90.159 Y43.913 E72.12245
G1 X90.276 Y44.03 E72.12742
G1 X90.712 Y44.522 E72.14715
G1 X91.084 Y45.063 E72.16686
G1 X91.388 Y45.645 E72.18657
G1 X91.619 Y46.26 E72.20629
G1 X91.774 Y46.899 E72.22603
G1 X91.858 Y47.848 E72.25463
G1 X91.858 Y147.614 E75.24933
G1 X91.818 Y148.27 E75.26906
G1 X91.699 Y148.916 E75.28877
G1 X91.502 Y149.543 E75.3085
G1 X91.23 Y150.141 E75.32822
G1 X90.888 Y150.702 E75.34794
G1 X90.276 Y151.432 E75.37654
G1 X90.159 Y151.549 E75.38151
G1 X89.667 Y151.985 E75.40124
G1 X89.126 Y152.357 E75.42095
G1 X88.544 Y152.661 E75.44066
G1 X87.929 Y152.892 E75.46038
G1 X87.29 Y153.047 E75.48011
G1 X86.341 Y153.131 E75.50871
G1 X14.075 Y153.131 E77.67794
G1 X13.419 Y153.091 E77.69767
G1 X12.773 Y152.972 E77.71738
G1 X12.146 Y152.775 E77.73711
G1 X11.548 Y152.503 E77.75683
G1 X10.987 Y152.161 E77.77655
G1 X10.257 Y151.549 E77.80515
G1 X10.14 Y151.432 E77.81012
G1 X9.704 Y150.94 E77.82985
G1 X9.332 Y150.399 E77.84956
G1 X9.028 Y149.817 E77.86927
G1 X8.797 Y149.202 E77.88899
G1 X8.642 Y148.563 E77.90872
G1 X8.558 Y147.614 E77.93732
G1 X8.558 Y47.848 E80.93202
G1 X8.598 Y47.192 E80.95175
G1 X8.717 Y46.546 E80.97147
G1 X8.914 Y45.919 E80.9912
G1 X9.186 Y45.321 E81.01092
G1 X9.528 Y44.76 E81.03064
G1 X10.14 Y44.03 E81.05923
G1 X10.257 Y43.913 E81.0642
G1 X10.749 Y43.477 E81.08393
G1 X11.29 Y43.105 E81.10364
G1 X11.872 Y42.801 E81.12335
G1 X12.487 Y42.57 E81.14307
G0 F2400 X12.696 Y42.925
G1 F1200 X13.314 Y42.789 E81.16207
G1 X14.075 Y42.731 E81.18498
G1 X86.341 Y42.731 E83.3542
G1 X86.972 Y42.771 E83.37318
G1 X87.593 Y42.89 E83.39216
G1 X88.193 Y43.087 E83.41112
G1 X88.765 Y43.358 E83.43012
G1 X89.297 Y43.698 E83.44907
G1 X89.877 Y44.195 E83.472
G1 X89.994 Y44.312 E83.47696
G1 X90.411 Y44.787 E83.49594
G1 X90.766 Y45.31 E83.51491
G1 X91.052 Y45.874 E83.53389
G1 X91.264 Y46.469 E83.55285
G1 X91.4 Y47.087 E83.57185
G1 X91.458 Y47.848 E83.59476
G1 X91.458 Y147.614 E86.58946
G1 X91.418 Y148.245 E86.60844
G1 X91.299 Y148.866 E86.62742
G1 X91.102 Y149.466 E86.64638
G1 X90.831 Y150.038 E86.66538
G1 X90.491 Y150.57 E86.68433
G1 X89.994 Y151.15 E86.70725
G1 X89.877 Y151.267 E86.71222
G1 X89.402 Y151.684 E86.73119
G1 X88.879 Y152.039 E86.75017
G1 X88.315 Y152.325 E86.76915
G1 X87.72 Y152.537 E86.78811
G1 X87.102 Y152.673 E86.80711
G1 X86.341 Y152.731 E86.83001
G1 X14.075 Y152.731 E88.99924
G1 X13.444 Y152.691 E89.01822
G1 X12.823 Y152.572 E89.0372
G1 X12.223 Y152.375 E89.05616
G1 X11.651 Y152.104 E89.07516
G1 X11.119 Y151.764 E89.09411
G1 X10.539 Y151.267 E89.11704
G1 X10.422 Y151.15 E89.122
G1 X10.005 Y150.675 E89.14098
G1 X9.65 Y150.152 E89.15995
G1 X9.364 Y149.588 E89.17893
G1 X9.152 Y148.993 E89.19789
G1 X9.016 Y148.375 E89.21689
G1 X8.958 Y147.614 E89.2398
G1 X8.958 Y47.848 E92.2345
G1 X8.998 Y47.217 E92.25348
G1 X9.117 Y46.596 E92.27246
G1 X9.314 Y45.996 E92.29141
G1 X9.585 Y45.424 E92.31041
G1 X9.925 Y44.892 E92.32937
G1 X10.422 Y44.312 E92.35229
G1 X10.539 Y44.195 E92.35726
G1 X11.014 Y43.778 E92.37623
G1 X11.537 Y43.423 E92.39521
G1 X12.101 Y43.137 E92.41419
G1 X12.696 Y42.925 E92.43315
G0 F2400 X12.902 Y43.283
G1 F1200 X13.497 Y43.167 E92.45135
G1 X14.075 Y43.131 E92.46873
G1 X86.341 Y43.131 E94.63796
G1 X86.946 Y43.171 E94.65616
G1 X87.54 Y43.29 E94.67434
G1 X88.114 Y43.486 E94.69255
G1 X88.657 Y43.757 E94.71077
G1 X89.16 Y44.096 E94.72897
G1 X89.594 Y44.478 E94.74633
G1 X89.711 Y44.595 E94.7513
G1 X90.11 Y45.051 E94.76948
G1 X90.446 Y45.556 E94.78769
G1 X90.713 Y46.1 E94.80588
G1 X90.906 Y46.675 E94.82409
G1 X91.022 Y47.27 E94.84228
G1 X91.058 Y47.848 E94.85967
G1 X91.058 Y147.614 E97.85437
G1 X91.018 Y148.219 E97.87257
