;FLAVOR:Marlin
;TIME:9327
;Filament used: 4.35007m
;Layer height: 0.1
;MINX:2.198
;MINY:40.978
;MINZ:0.2
;MAXX:97.798
;MAXY:136.578
;MAXZ:3
;Generated with Cura_SteamEngine 4.4.1
M140 S60
M105
M190 S60
M104 S200
M105
M109 S200
M82 ;absolute extrusion mode
G28 ;Home
G1 Z15.0 F6000 ;Move the platform down 15mm
;Prime the extruder
G92 E0
G1 F200 E3
G92 E0
G92 E0
G92 E0
G1 F1500 E-6.5
;LAYER_COUNT:29
;LAYER:0
M107
G0 F2400 X8.736 Y41.101 Z0.2
;TYPE:SKIRT
G1 F1500 E0
G1 F1200 X9.52 Y41.001 E0.02372
G1 X10.115 Y40.978 E0.0416
G1 X89.881 Y40.978 E2.43596
G1 X90.67 Y41.018 E2.45967
G1 X91.45 Y41.137 E2.48335
G1 X92.215 Y41.335 E2.50707
G1 X92.955 Y41.609 E2.53076
G1 X93.664 Y41.957 E2.55447
G1 X94.335 Y42.375 E2.5782
G1 X94.959 Y42.858 E2.60188
G1 X95.396 Y43.263 E2.61977
G1 X95.513 Y43.38 E2.62474
G1 X96.043 Y43.966 E2.64845
G1 X96.51 Y44.602 E2.67214
G1 X96.911 Y45.282 E2.69583
G1 X97.241 Y46 E2.71955
G1 X97.496 Y46.747 E2.74325
G1 X97.675 Y47.516 E2.76695
G1 X97.775 Y48.3 E2.79067
G1 X97.798 Y48.895 E2.80855
G1 X97.798 Y128.661 E5.2029
G1 X97.758 Y129.45 E5.22662
G1 X97.639 Y130.23 E5.2503
G1 X97.441 Y130.995 E5.27402
G1 X97.167 Y131.735 E5.29771
G1 X96.819 Y132.444 E5.32142
G1 X96.401 Y133.115 E5.34515
G1 X95.918 Y133.739 E5.36883
G1 X95.513 Y134.176 E5.38672
G1 X95.396 Y134.293 E5.39168
G1 X94.81 Y134.823 E5.4154
G1 X94.174 Y135.29 E5.43909
G1 X93.494 Y135.691 E5.46278
G1 X92.776 Y136.021 E5.4865
G1 X92.029 Y136.276 E5.5102
G1 X91.26 Y136.455 E5.5339
G1 X90.476 Y136.555 E5.55762
G1 X89.881 Y136.578 E5.57549
G1 X10.115 Y136.578 E7.96985
G1 X9.326 Y136.538 E7.99357
G1 X8.546 Y136.419 E8.01725
G1 X7.781 Y136.221 E8.04097
G1 X7.041 Y135.947 E8.06466
G1 X6.332 Y135.599 E8.08836
G1 X5.661 Y135.181 E8.11209
G1 X5.037 Y134.698 E8.13578
G1 X4.6 Y134.293 E8.15367
G1 X4.483 Y134.176 E8.15863
G1 X3.953 Y133.59 E8.18235
G1 X3.486 Y132.954 E8.20603
G1 X3.085 Y132.274 E8.22973
G1 X2.755 Y131.556 E8.25345
G1 X2.5 Y130.809 E8.27714
G1 X2.321 Y130.04 E8.30084
G1 X2.221 Y129.256 E8.32457
G1 X2.198 Y128.661 E8.34244
G1 X2.198 Y48.895 E10.7368
G1 X2.238 Y48.106 E10.76051
G1 X2.357 Y47.326 E10.7842
G1 X2.555 Y46.561 E10.80792
G1 X2.829 Y45.821 E10.83161
G1 X3.177 Y45.112 E10.85531
G1 X3.595 Y44.441 E10.87904
G1 X4.078 Y43.817 E10.90273
G1 X4.483 Y43.38 E10.92061
G1 X4.6 Y43.263 E10.92558
G1 X5.186 Y42.733 E10.9493
G1 X5.822 Y42.266 E10.97298
G1 X6.502 Y41.865 E10.99668
G1 X7.22 Y41.535 E11.0204
G1 X7.967 Y41.28 E11.04409
G1 X8.736 Y41.101 E11.06779
G0 F2400 X8.925 Y41.474
G1 F1200 X9.69 Y41.39 E11.09089
G1 X10.115 Y41.378 E11.10366
G1 X89.881 Y41.378 E13.49801
G1 X90.649 Y41.418 E13.5211
G1 X91.409 Y41.537 E13.54419
G1 X92.152 Y41.735 E13.56727
G1 X92.871 Y42.009 E13.59037
G1 X93.557 Y42.356 E13.61344
G1 X94.204 Y42.772 E13.63653
G1 X94.804 Y43.253 E13.65962
G1 X95.114 Y43.545 E13.6724
G1 X95.231 Y43.662 E13.67737
G1 X95.745 Y44.234 E13.70045
G1 X96.198 Y44.856 E13.72355
G1 X96.584 Y45.521 E13.74663
G1 X96.899 Y46.223 E13.76972
G1 X97.139 Y46.954 E13.79282
G1 X97.302 Y47.705 E13.81589
G1 X97.386 Y48.47 E13.83899
G1 X97.398 Y48.895 E13.85175
G1 X97.398 Y128.661 E16.24611
G1 X97.358 Y129.429 E16.26919
G1 X97.239 Y130.189 E16.29228
G1 X97.041 Y130.932 E16.31537
G1 X96.767 Y131.651 E16.33846
G1 X96.42 Y132.337 E16.36154
G1 X96.004 Y132.984 E16.38463
G1 X95.523 Y133.584 E16.40771
G1 X95.231 Y133.894 E16.42049
G1 X95.114 Y134.011 E16.42546
G1 X94.542 Y134.525 E16.44855
G1 X93.92 Y134.978 E16.47164
G1 X93.255 Y135.364 E16.49472
G1 X92.553 Y135.679 E16.51782
G1 X91.822 Y135.919 E16.54091
G1 X91.071 Y136.082 E16.56398
G1 X90.306 Y136.166 E16.58708
G1 X89.881 Y136.178 E16.59985
G1 X10.115 Y136.178 E18.9942
G1 X9.347 Y136.138 E19.01729
G1 X8.587 Y136.019 E19.04038
G1 X7.844 Y135.821 E19.06346
G1 X7.125 Y135.547 E19.08656
G1 X6.439 Y135.2 E19.10963
G1 X5.792 Y134.784 E19.13272
G1 X5.192 Y134.303 E19.15581
G1 X4.882 Y134.011 E19.16859
G1 X4.765 Y133.894 E19.17356
G1 X4.251 Y133.322 E19.19664
G1 X3.798 Y132.7 E19.21974
G1 X3.412 Y132.035 E19.24282
G1 X3.097 Y131.333 E19.26591
G1 X2.857 Y130.602 E19.28901
G1 X2.694 Y129.851 E19.31208
G1 X2.61 Y129.086 E19.33518
G1 X2.598 Y128.661 E19.34794
G1 X2.598 Y48.895 E21.7423
G1 X2.638 Y48.127 E21.76538
G1 X2.757 Y47.367 E21.78847
G1 X2.955 Y46.624 E21.81155
G1 X3.229 Y45.905 E21.83465
G1 X3.576 Y45.219 E21.85773
G1 X3.992 Y44.572 E21.88082
G1 X4.473 Y43.972 E21.9039
G1 X4.765 Y43.662 E21.91668
G1 X4.882 Y43.545 E21.92165
G1 X5.454 Y43.031 E21.94473
G1 X6.076 Y42.578 E21.96783
G1 X6.741 Y42.192 E21.99091
G1 X7.443 Y41.877 E22.01401
G1 X8.174 Y41.637 E22.0371
G1 X8.925 Y41.474 E22.06017
G0 F2400 X9.111 Y41.85
G1 F1200 X10.115 Y41.778 E22.09039
G1 X89.881 Y41.778 E24.48474
G1 X90.628 Y41.818 E24.5072
G1 X91.366 Y41.937 E24.52964
G1 X92.088 Y42.135 E24.55211
G1 X92.784 Y42.408 E24.57455
G1 X93.447 Y42.755 E24.59701
G1 X94.07 Y43.17 E24.61948
G1 X94.831 Y43.828 E24.64968
G1 X94.948 Y43.945 E24.65465
G1 X95.448 Y44.502 E24.67712
G1 X95.885 Y45.108 E24.69954
G1 X96.256 Y45.758 E24.72201
G1 X96.555 Y46.444 E24.74447
G1 X96.779 Y47.158 E24.76693
G1 X96.926 Y47.891 E24.78938
G1 X96.998 Y48.895 E24.81959
G1 X96.998 Y128.661 E27.21395
G1 X96.958 Y129.408 E27.2364
G1 X96.839 Y130.146 E27.25884
G1 X96.641 Y130.868 E27.28131
G1 X96.368 Y131.564 E27.30376
G1 X96.021 Y132.227 E27.32622
G1 X95.606 Y132.85 E27.34869
G1 X94.948 Y133.611 E27.37889
G1 X94.831 Y133.728 E27.38385
G1 X94.274 Y134.228 E27.40632
G1 X93.668 Y134.665 E27.42875
G1 X93.018 Y135.036 E27.45121
G1 X92.332 Y135.335 E27.47368
G1 X91.618 Y135.559 E27.49614
G1 X90.885 Y135.706 E27.51858
G1 X89.881 Y135.778 E27.54879
G1 X10.115 Y135.778 E29.94315
G1 X9.368 Y135.738 E29.96561
G1 X8.63 Y135.619 E29.98805
G1 X7.908 Y135.421 E30.01052
G1 X7.212 Y135.148 E30.03296
G1 X6.549 Y134.801 E30.05542
G1 X5.926 Y134.386 E30.07789
G1 X5.165 Y133.728 E30.10809
G1 X5.048 Y133.611 E30.11306
G1 X4.548 Y133.054 E30.13553
G1 X4.111 Y132.448 E30.15795
G1 X3.74 Y131.798 E30.18042
G1 X3.441 Y131.112 E30.20288
G1 X3.217 Y130.398 E30.22534
G1 X3.07 Y129.665 E30.24778
G1 X2.998 Y128.661 E30.278
G1 X2.998 Y48.895 E32.67236
G1 X3.038 Y48.148 E32.69481
G1 X3.157 Y47.41 E32.71725
G1 X3.355 Y46.688 E32.73972
G1 X3.628 Y45.992 E32.76216
G1 X3.975 Y45.329 E32.78463
G1 X4.39 Y44.706 E32.8071
G1 X5.048 Y43.945 E32.8373
G1 X5.165 Y43.828 E32.84226
G1 X5.722 Y43.328 E32.86473
G1 X6.328 Y42.891 E32.88716
G1 X6.978 Y42.52 E32.90962
G1 X7.664 Y42.221 E32.93209
G1 X8.378 Y41.997 E32.95455
G1 X9.111 Y41.85 E32.97699
G0 F2400 X9.294 Y42.229
G1 F1200 X10.115 Y42.178 E33.00168
G1 X89.881 Y42.178 E35.39604
G1 X90.606 Y42.218 E35.41783
G1 X91.323 Y42.337 E35.43965
G1 X92.022 Y42.535 E35.46146
G1 X92.695 Y42.808 E35.48326
G1 X93.334 Y43.153 E35.50506
G1 X93.931 Y43.567 E35.52686
G1 X94.548 Y44.111 E35.55156
G1 X94.665 Y44.228 E35.55652
G1 X95.149 Y44.769 E35.57831
G1 X95.572 Y45.36 E35.60013
G1 X95.926 Y45.994 E35.62192
G1 X96.209 Y46.663 E35.64373
G1 X96.417 Y47.359 E35.66553
G1 X96.547 Y48.074 E35.68735
G1 X96.598 Y48.895 E35.71204
G1 X96.598 Y128.661 E38.1064
G1 X96.558 Y129.386 E38.12819
G1 X96.439 Y130.103 E38.15001
G1 X96.241 Y130.802 E38.17182
G1 X95.968 Y131.475 E38.19362
G1 X95.623 Y132.114 E38.21542
G1 X95.209 Y132.711 E38.23722
G1 X94.665 Y133.328 E38.26191
G1 X94.548 Y133.445 E38.26688
G1 X94.007 Y133.929 E38.28867
G1 X93.416 Y134.352 E38.31049
G1 X92.782 Y134.706 E38.33228
G1 X92.113 Y134.989 E38.35409
G1 X91.417 Y135.197 E38.37589
G1 X90.702 Y135.327 E38.39771
G1 X89.881 Y135.378 E38.4224
G1 X10.115 Y135.378 E40.81676
G1 X9.39 Y135.338 E40.83855
G1 X8.673 Y135.219 E40.86037
G1 X7.974 Y135.021 E40.88218
G1 X7.301 Y134.748 E40.90398
G1 X6.662 Y134.403 E40.92578
G1 X6.065 Y133.989 E40.94758
G1 X5.448 Y133.445 E40.97227
G1 X5.331 Y133.328 E40.97724
G1 X4.847 Y132.787 E40.99903
G1 X4.424 Y132.196 E41.02085
G1 X4.07 Y131.562 E41.04264
G1 X3.787 Y130.893 E41.06445
G1 X3.579 Y130.197 E41.08625
G1 X3.449 Y129.482 E41.10807
G1 X3.398 Y128.661 E41.13276
G1 X3.398 Y48.895 E43.52712
G1 X3.438 Y48.17 E43.54891
G1 X3.557 Y47.453 E43.57073
G1 X3.755 Y46.754 E43.59254
G1 X4.028 Y46.081 E43.61434
G1 X4.373 Y45.442 E43.63613
G1 X4.787 Y44.845 E43.65794
G1 X5.331 Y44.228 E43.68263
G1 X5.448 Y44.111 E43.6876
G1 X5.989 Y43.627 E43.70939
G1 X6.58 Y43.204 E43.73121
G1 X7.214 Y42.85 E43.753
G1 X7.883 Y42.567 E43.77481
G1 X8.579 Y42.359 E43.79661
G1 X9.294 Y42.229 E43.81843
G0 F2400 X8.778 Y42.724
G1 F1200 X9.473 Y42.611 E43.83956
G1 X10.115 Y42.578 E43.85886
G1 X89.881 Y42.578 E46.25322
G1 X90.584 Y42.618 E46.27435
G1 X91.278 Y42.737 E46.29549
G1 X91.953 Y42.935 E46.3166
G1 X92.602 Y43.207 E46.33773
G1 X93.216 Y43.552 E46.35887
G1 X93.787 Y43.963 E46.37999
G1 X94.265 Y44.394 E46.39931
G1 X94.382 Y44.511 E46.40427
G1 X94.851 Y45.036 E46.4254
G1 X95.257 Y45.611 E46.44653
G1 X95.595 Y46.229 E46.46768
G1 X95.862 Y46.88 E46.4888
G1 X96.052 Y47.558 E46.50993
G1 X96.165 Y48.253 E46.53107
G1 X96.198 Y48.895 E46.55037
G1 X96.198 Y128.661 E48.94472
G1 X96.158 Y129.364 E48.96586
G1 X96.039 Y130.058 E48.987
G1 X95.841 Y130.733 E49.00811
G1 X95.569 Y131.382 E49.02923
G1 X95.224 Y131.996 E49.05038
G1 X94.813 Y132.567 E49.07149
G1 X94.382 Y133.045 E49.09081
G1 X94.265 Y133.162 E49.09578
G1 X93.74 Y133.631 E49.11691
G1 X93.165 Y134.037 E49.13804
G1 X92.547 Y134.375 E49.15918
G1 X91.896 Y134.642 E49.18031
G1 X91.218 Y134.832 E49.20144
G1 X90.523 Y134.945 E49.22258
G1 X89.881 Y134.978 E49.24187
G1 X10.115 Y134.978 E51.63623
G1 X9.412 Y134.938 E51.65737
G1 X8.718 Y134.819 E51.6785
G1 X8.043 Y134.621 E51.69962
G1 X7.394 Y134.349 E51.72074
G1 X6.78 Y134.004 E51.74188
G1 X6.209 Y133.593 E51.763
G1 X5.731 Y133.162 E51.78232
G1 X5.614 Y133.045 E51.78729
G1 X5.145 Y132.52 E51.80842
G1 X4.739 Y131.945 E51.82955
G1 X4.401 Y131.327 E51.85069
G1 X4.134 Y130.676 E51.87181
G1 X3.944 Y129.998 E51.89295
G1 X3.831 Y129.303 E51.91408
G1 X3.798 Y128.661 E51.93338
G1 X3.798 Y48.895 E54.32774
G1 X3.838 Y48.192 E54.34887
G1 X3.957 Y47.498 E54.37001
G1 X4.155 Y46.823 E54.39113
G1 X4.427 Y46.174 E54.41225
G1 X4.772 Y45.56 E54.43339
G1 X5.183 Y44.989 E54.45451
G1 X5.614 Y44.511 E54.47383
G1 X5.731 Y44.394 E54.47879
G1 X6.256 Y43.925 E54.49993
G1 X6.831 Y43.519 E54.52105
G1 X7.449 Y43.181 E54.5422
G1 X8.1 Y42.914 E54.56332
G1 X8.778 Y42.724 E54.58446
G0 F2400 X8.974 Y43.091
G1 F1200 X9.648 Y42.997 E54.60488
G1 X10.115 Y42.978 E54.61891
G1 X89.881 Y42.978 E57.01327
G1 X90.561 Y43.018 E57.03372
G1 X91.231 Y43.137 E57.05414
G1 X91.883 Y43.334 E57.07459
G1 X92.507 Y43.606 E57.09502
G1 X93.095 Y43.95 E57.11547
G1 X93.639 Y44.36 E57.13592
G1 X93.982 Y44.677 E57.14994
G1 X94.099 Y44.794 E57.1549
G1 X94.552 Y45.303 E57.17536
G1 X94.941 Y45.861 E57.19578
G1 X95.263 Y46.461 E57.21622
G1 X95.512 Y47.095 E57.23666
G1 X95.685 Y47.754 E57.25711
G1 X95.779 Y48.428 E57.27754
G1 X95.798 Y48.895 E57.29157
G1 X95.798 Y128.661 E59.68593
G1 X95.758 Y129.341 E59.70638
G1 X95.639 Y130.011 E59.7268
G1 X95.442 Y130.663 E59.74725
G1 X95.17 Y131.287 E59.76768
G1 X94.826 Y131.875 E59.78813
G1 X94.416 Y132.419 E59.80858
G1 X94.099 Y132.762 E59.8226
G1 X93.982 Y132.879 E59.82756
G1 X93.473 Y133.332 E59.84802
G1 X92.915 Y133.721 E59.86843
G1 X92.315 Y134.043 E59.88887
G1 X91.681 Y134.292 E59.90932
G1 X91.022 Y134.465 E59.92977
G1 X90.348 Y134.559 E59.9502
G1 X89.881 Y134.578 E59.96423
G1 X10.115 Y134.578 E62.35859
G1 X9.435 Y134.538 E62.37903
G1 X8.765 Y134.419 E62.39946
G1 X8.113 Y134.222 E62.41991
G1 X7.489 Y133.95 E62.44034
G1 X6.901 Y133.606 E62.46079
G1 X6.357 Y133.196 E62.48124
G1 X6.014 Y132.879 E62.49525
G1 X5.897 Y132.762 E62.50022
G1 X5.444 Y132.253 E62.52068
G1 X5.055 Y131.695 E62.54109
G1 X4.733 Y131.095 E62.56153
G1 X4.484 Y130.461 E62.58198
G1 X4.311 Y129.802 E62.60243
G1 X4.217 Y129.128 E62.62286
G1 X4.198 Y128.661 E62.63689
G1 X4.198 Y48.895 E65.03125
G1 X4.238 Y48.215 E65.05169
G1 X4.357 Y47.545 E65.07212
G1 X4.554 Y46.893 E65.09256
G1 X4.826 Y46.269 E65.113
G1 X5.17 Y45.681 E65.13345
G1 X5.58 Y45.137 E65.15389
G1 X5.897 Y44.794 E65.16791
G1 X6.014 Y44.677 E65.17288
G1 X6.523 Y44.224 E65.19333
G1 X7.081 Y43.835 E65.21375
G1 X7.681 Y43.513 E65.23419
G1 X8.315 Y43.264 E65.25464
G1 X8.974 Y43.091 E65.27509
G0 F2400 X9.166 Y43.462
G1 F1200 X10.115 Y43.378 E65.30369
G1 X89.881 Y43.378 E67.69804
G1 X90.537 Y43.418 E67.71777
G1 X91.183 Y43.537 E67.73749
G1 X91.81 Y43.734 E67.75722
G1 X92.408 Y44.006 E67.77694
G1 X92.969 Y44.348 E67.79666
G1 X93.699 Y44.96 E67.82525
G1 X93.816 Y45.077 E67.83022
G1 X94.252 Y45.569 E67.84995
G1 X94.624 Y46.11 E67.86966
G1 X94.928 Y46.692 E67.88937
G1 X95.159 Y47.307 E67.90909
G1 X95.314 Y47.946 E67.92883
G1 X95.398 Y48.895 E67.95743
G1 X95.398 Y128.661 E70.35178
G1 X95.358 Y129.317 E70.37151
G1 X95.239 Y129.963 E70.39123
G1 X95.042 Y130.59 E70.41096
G1 X94.77 Y131.188 E70.43068
G1 X94.428 Y131.749 E70.4504
G1 X93.816 Y132.479 E70.47899
G1 X93.699 Y132.596 E70.48396
G1 X93.207 Y133.032 E70.50369
G1 X92.666 Y133.404 E70.5234
G1 X92.084 Y133.708 E70.54311
G1 X91.469 Y133.939 E70.56283
G1 X90.83 Y134.094 E70.58257
G1 X89.881 Y134.178 E70.61117
G1 X10.115 Y134.178 E73.00552
G1 X9.459 Y134.138 E73.02525
G1 X8.813 Y134.019 E73.04497
G1 X8.186 Y133.822 E73.0647
G1 X7.588 Y133.55 E73.08442
G1 X7.027 Y133.208 E73.10414
G1 X6.297 Y132.596 E73.13273
G1 X6.18 Y132.479 E73.1377
G1 X5.744 Y131.987 E73.15743
G1 X5.372 Y131.446 E73.17714
G1 X5.068 Y130.864 E73.19685
G1 X4.837 Y130.249 E73.21657
G1 X4.682 Y129.61 E73.23631
G1 X4.598 Y128.661 E73.26491
G1 X4.598 Y48.895 E75.65926
G1 X4.638 Y48.239 E75.67899
G1 X4.757 Y47.593 E75.69871
G1 X4.954 Y46.966 E75.71844
G1 X5.226 Y46.368 E75.73816
G1 X5.568 Y45.807 E75.75788
G1 X6.18 Y45.077 E75.78647
G1 X6.297 Y44.96 E75.79144
G1 X6.789 Y44.524 E75.81117
G1 X7.33 Y44.152 E75.83088
G1 X7.912 Y43.848 E75.85059
G1 X8.527 Y43.617 E75.87031
G1 X9.166 Y43.462 E75.89005
G0 F2400 X9.354 Y43.836
G1 F1200 X10.115 Y43.778 E75.91296
G1 X89.881 Y43.778 E78.30732
G1 X90.512 Y43.818 E78.3263
G1 X91.133 Y43.937 E78.34527
G1 X91.733 Y44.134 E78.36423
G1 X92.305 Y44.405 E78.38323
G1 X92.837 Y44.745 E78.40218
G1 X93.417 Y45.242 E78.42511
G1 X93.534 Y45.359 E78.43008
G1 X93.951 Y45.834 E78.44905
G1 X94.306 Y46.357 E78.46802
G1 X94.592 Y46.921 E78.48701
G1 X94.804 Y47.516 E78.50597
G1 X94.94 Y48.134 E78.52496
G1 X94.998 Y48.895 E78.54787
G1 X94.998 Y128.661 E80.94223
G1 X94.958 Y129.292 E80.96121
G1 X94.839 Y129.913 E80.98019
G1 X94.642 Y130.513 E80.99914
G1 X94.371 Y131.085 E81.01814
G1 X94.031 Y131.617 E81.03709
G1 X93.534 Y132.197 E81.06002
G1 X93.417 Y132.314 E81.06499
G1 X92.942 Y132.731 E81.08396
G1 X92.419 Y133.086 E81.10294
G1 X91.855 Y133.372 E81.12192
G1 X91.26 Y133.584 E81.14088
G1 X90.642 Y133.72 E81.15987
G1 X89.881 Y133.778 E81.18278
G1 X10.115 Y133.778 E83.57714
G1 X9.484 Y133.738 E83.59612
G1 X8.863 Y133.619 E83.6151
G1 X8.263 Y133.422 E83.63405
G1 X7.691 Y133.151 E83.65305
G1 X7.159 Y132.811 E83.67201
G1 X6.579 Y132.314 E83.69493
G1 X6.462 Y132.197 E83.6999
G1 X6.045 Y131.722 E83.71887
G1 X5.69 Y131.199 E83.73785
G1 X5.404 Y130.635 E83.75683
G1 X5.192 Y130.04 E83.77579
G1 X5.056 Y129.422 E83.79478
G1 X4.998 Y128.661 E83.81769
G1 X4.998 Y48.895 E86.21205
G1 X5.038 Y48.264 E86.23103
G1 X5.157 Y47.643 E86.25001
G1 X5.354 Y47.043 E86.26897
G1 X5.625 Y46.471 E86.28797
G1 X5.965 Y45.939 E86.30692
G1 X6.462 Y45.359 E86.32984
G1 X6.579 Y45.242 E86.33481
G1 X7.054 Y44.825 E86.35378
G1 X7.577 Y44.47 E86.37276
G1 X8.141 Y44.184 E86.39174
G1 X8.736 Y43.972 E86.4107
G1 X9.354 Y43.836 E86.4297
G0 F2400 X9.537 Y44.214
G1 F1200 X10.115 Y44.178 E86.44708
G1 X89.881 Y44.178 E88.84144
G1 X90.486 Y44.218 E88.85964
G1 X91.08 Y44.337 E88.87782
G1 X91.654 Y44.533 E88.89603
G1 X92.197 Y44.804 E88.91424
G1 X92.7 Y45.143 E88.93245
G1 X93.134 Y45.525 E88.94981
G1 X93.251 Y45.642 E88.95477
G1 X93.65 Y46.098 E88.97296
G1 X93.986 Y46.603 E88.99117
G1 X94.253 Y47.147 E89.00936
G1 X94.446 Y47.722 E89.02757
G1 X94.562 Y48.317 E89.04576
G1 X94.598 Y48.895 E89.06315
G1 X94.598 Y128.661 E91.4575
G1 X94.558 Y129.266 E91.4757
G1 X94.439 Y129.86 E91.49389
G1 X94.243 Y130.434 E91.5121
G1 X93.972 Y130.977 E91.53031
G1 X93.633 Y131.48 E91.54852
