;FLAVOR:Marlin
;TIME:7275
;Filament used: 3.20492m
;Layer height: 0.1
;MINX:8.062
;MINY:70.562
;MINZ:0.2
;MAXX:69.856
;MAXY:163.871
;MAXZ:15
;Generated with Cura_SteamEngine 4.4.1
M140 S39
M105
M190 S39
M104 S200
M105
M109 S200
M82 ;absolute extrusion mode
G28 ;Home
G1 Z15.0 F6000 ;Move the platform down 15mm
;Prime the extruder
G92 E0
G1 F200 E3
G92 E0
G92 E0
G92 E0
G1 F1500 E-6.5
;LAYER_COUNT:149
;LAYER:0
M107
G0 F2400 X14.675 Y70.653 Z0.2
;TYPE:SKIRT
G1 F1500 E0
G1 F1200 X15.46 Y70.572 E0.02369
G1 X15.862 Y70.562 E0.03576
G1 X60.862 Y70.562 E1.38654
G1 X61.651 Y70.602 E1.41025
G1 X62.431 Y70.721 E1.43394
G1 X63.196 Y70.919 E1.45765
G1 X63.936 Y71.193 E1.48134
G1 X64.645 Y71.541 E1.50505
G1 X65.316 Y71.959 E1.52878
G1 X65.94 Y72.442 E1.55247
G1 X66.513 Y72.985 E1.57616
G1 X67.028 Y73.584 E1.59987
G1 X67.479 Y74.232 E1.62357
G1 X67.863 Y74.923 E1.6473
G1 X68.175 Y75.648 E1.67099
G1 X68.412 Y76.401 E1.69469
G1 X68.571 Y77.175 E1.71841
G1 X68.652 Y77.96 E1.7421
G1 X68.662 Y78.362 E1.75417
G1 X68.662 Y88.362 E2.05434
G1 X68.622 Y89.151 E2.07805
G1 X68.503 Y89.931 E2.10174
G1 X68.305 Y90.696 E2.12546
G1 X68.031 Y91.436 E2.14915
G1 X67.683 Y92.145 E2.17285
G1 X67.265 Y92.816 E2.19658
G1 X66.782 Y93.44 E2.22027
G1 X66.239 Y94.013 E2.24397
G1 X65.687 Y94.488 E2.26583
G1 X65.687 Y139.175 E3.60721
G1 X65.839 Y139.25 E3.6123
G1 X66.51 Y139.668 E3.63603
G1 X67.134 Y140.151 E3.65971
G1 X67.707 Y140.694 E3.68341
G1 X68.222 Y141.293 E3.70712
G1 X68.673 Y141.941 E3.73082
G1 X69.057 Y142.632 E3.75455
G1 X69.369 Y143.357 E3.77824
G1 X69.606 Y144.11 E3.80194
G1 X69.765 Y144.884 E3.82566
G1 X69.846 Y145.669 E3.84934
G1 X69.856 Y146.071 E3.86141
G1 X69.856 Y156.071 E4.16159
G1 X69.816 Y156.86 E4.1853
G1 X69.697 Y157.64 E4.20899
G1 X69.499 Y158.405 E4.23271
G1 X69.225 Y159.145 E4.25639
G1 X68.877 Y159.854 E4.2801
G1 X68.459 Y160.525 E4.30383
G1 X67.976 Y161.149 E4.32752
G1 X67.433 Y161.722 E4.35121
G1 X66.834 Y162.237 E4.37492
G1 X66.186 Y162.688 E4.39862
G1 X65.495 Y163.072 E4.42235
G1 X64.77 Y163.384 E4.44604
G1 X64.017 Y163.621 E4.46974
G1 X63.243 Y163.78 E4.49346
G1 X62.458 Y163.861 E4.51715
G1 X62.056 Y163.871 E4.52922
G1 X17.056 Y163.871 E5.88
G1 X16.267 Y163.831 E5.90371
G1 X15.487 Y163.712 E5.92739
G1 X14.722 Y163.514 E5.95111
G1 X13.982 Y163.24 E5.9748
G1 X13.273 Y162.892 E5.99851
G1 X12.602 Y162.474 E6.02224
G1 X11.978 Y161.991 E6.04592
G1 X11.405 Y161.448 E6.06962
G1 X10.89 Y160.849 E6.09333
G1 X10.439 Y160.201 E6.11703
G1 X10.055 Y159.51 E6.14076
G1 X9.743 Y158.785 E6.16445
G1 X9.506 Y158.032 E6.18815
G1 X9.347 Y157.258 E6.21187
G1 X9.266 Y156.473 E6.23556
G1 X9.256 Y156.071 E6.24763
G1 X9.256 Y146.071 E6.5478
G1 X9.296 Y145.282 E6.57151
G1 X9.415 Y144.502 E6.5952
G1 X9.613 Y143.737 E6.61892
G1 X9.887 Y142.997 E6.64261
G1 X10.087 Y142.59 E6.65622
G1 X10.087 Y93.595 E8.12691
G1 X9.696 Y93.14 E8.14492
G1 X9.245 Y92.492 E8.16862
G1 X8.861 Y91.801 E8.19235
G1 X8.549 Y91.076 E8.21604
G1 X8.312 Y90.323 E8.23974
G1 X8.153 Y89.549 E8.26346
G1 X8.072 Y88.764 E8.28715
G1 X8.062 Y88.362 E8.29922
G1 X8.062 Y78.362 E8.59939
G1 X8.102 Y77.573 E8.6231
G1 X8.221 Y76.793 E8.64679
G1 X8.419 Y76.028 E8.67051
G1 X8.693 Y75.288 E8.69419
G1 X9.041 Y74.579 E8.7179
G1 X9.459 Y73.908 E8.74163
G1 X9.942 Y73.284 E8.76532
G1 X10.485 Y72.711 E8.78901
G1 X11.084 Y72.196 E8.81273
G1 X11.732 Y71.745 E8.83642
G1 X12.423 Y71.361 E8.86015
G1 X13.148 Y71.049 E8.88385
G1 X13.901 Y70.812 E8.90754
G1 X14.675 Y70.653 E8.93126
G0 F2400 X15.013 Y71.011
G1 F1200 X15.862 Y70.962 E8.95679
G1 X60.862 Y70.962 E10.30757
G1 X61.63 Y71.002 E10.33065
G1 X62.39 Y71.121 E10.35374
G1 X63.133 Y71.319 E10.37682
G1 X63.852 Y71.593 E10.39992
G1 X64.538 Y71.94 E10.42299
G1 X65.185 Y72.356 E10.44608
G1 X65.785 Y72.837 E10.46917
G1 X66.332 Y73.378 E10.49226
G1 X66.82 Y73.973 E10.51536
G1 X67.243 Y74.615 E10.53844
G1 X67.598 Y75.298 E10.56154
G1 X67.879 Y76.013 E10.5846
G1 X68.085 Y76.755 E10.60772
G1 X68.213 Y77.513 E10.63079
G1 X68.262 Y78.362 E10.65632
G1 X68.262 Y88.362 E10.95649
G1 X68.222 Y89.13 E10.97958
G1 X68.103 Y89.89 E11.00267
G1 X67.905 Y90.633 E11.02575
G1 X67.631 Y91.352 E11.04885
G1 X67.284 Y92.038 E11.07192
G1 X66.868 Y92.685 E11.09501
G1 X66.387 Y93.285 E11.1181
G1 X65.846 Y93.832 E11.14119
G1 X65.287 Y94.29 E11.16288
G1 X65.287 Y139.424 E12.51768
G1 X65.732 Y139.649 E12.53265
G1 X66.379 Y140.065 E12.55574
G1 X66.979 Y140.546 E12.57882
G1 X67.526 Y141.087 E12.60192
G1 X68.014 Y141.682 E12.62502
G1 X68.437 Y142.324 E12.64809
G1 X68.792 Y143.007 E12.6712
G1 X69.073 Y143.722 E12.69426
G1 X69.279 Y144.464 E12.71737
G1 X69.407 Y145.222 E12.74045
G1 X69.456 Y146.071 E12.76598
G1 X69.456 Y156.071 E13.06615
G1 X69.416 Y156.839 E13.08923
G1 X69.297 Y157.599 E13.11233
G1 X69.099 Y158.342 E13.13541
G1 X68.825 Y159.061 E13.1585
G1 X68.478 Y159.747 E13.18158
G1 X68.062 Y160.394 E13.20467
G1 X67.581 Y160.994 E13.22775
G1 X67.04 Y161.541 E13.25085
G1 X66.445 Y162.029 E13.27394
G1 X65.803 Y162.452 E13.29702
G1 X65.12 Y162.807 E13.32013
G1 X64.405 Y163.088 E13.34319
G1 X63.663 Y163.294 E13.3663
G1 X62.905 Y163.422 E13.38938
G1 X62.056 Y163.471 E13.41491
G1 X17.056 Y163.471 E14.76568
G1 X16.288 Y163.431 E14.78877
G1 X15.528 Y163.312 E14.81186
G1 X14.785 Y163.114 E14.83494
G1 X14.066 Y162.84 E14.85804
G1 X13.38 Y162.493 E14.88111
G1 X12.733 Y162.077 E14.9042
G1 X12.133 Y161.596 E14.92729
G1 X11.586 Y161.055 E14.95038
G1 X11.098 Y160.46 E14.97348
G1 X10.675 Y159.818 E14.99656
G1 X10.32 Y159.135 E15.01966
G1 X10.039 Y158.42 E15.04272
G1 X9.833 Y157.678 E15.06584
G1 X9.705 Y156.92 E15.08891
G1 X9.656 Y156.071 E15.11444
G1 X9.656 Y146.071 E15.41461
G1 X9.696 Y145.303 E15.4377
G1 X9.815 Y144.543 E15.46079
G1 X10.013 Y143.8 E15.48387
G1 X10.287 Y143.081 E15.50697
G1 X10.487 Y142.686 E15.52026
G1 X10.487 Y93.44 E16.99849
G1 X10.392 Y93.346 E17.0025
G1 X9.904 Y92.751 E17.0256
G1 X9.481 Y92.109 E17.04868
G1 X9.126 Y91.426 E17.07178
G1 X8.845 Y90.711 E17.09484
G1 X8.639 Y89.969 E17.11796
G1 X8.511 Y89.211 E17.14103
G1 X8.462 Y88.362 E17.16656
G1 X8.462 Y78.362 E17.46673
G1 X8.502 Y77.594 E17.48982
G1 X8.621 Y76.834 E17.51291
G1 X8.819 Y76.091 E17.53599
G1 X9.093 Y75.372 E17.55908
G1 X9.44 Y74.686 E17.58216
G1 X9.856 Y74.039 E17.60525
G1 X10.337 Y73.439 E17.62833
G1 X10.878 Y72.892 E17.65143
G1 X11.473 Y72.404 E17.67453
G1 X12.115 Y71.981 E17.6976
G1 X12.798 Y71.626 E17.72071
G1 X13.513 Y71.345 E17.74377
G1 X14.255 Y71.139 E17.76689
G1 X15.013 Y71.011 E17.78996
G0 F2400 X14.603 Y71.476
G1 F1200 X15.345 Y71.381 E17.81242
G1 X15.862 Y71.362 E17.82794
G1 X60.862 Y71.362 E19.17872
G1 X61.609 Y71.402 E19.20118
G1 X62.347 Y71.521 E19.22362
G1 X63.069 Y71.719 E19.24609
G1 X63.765 Y71.992 E19.26853
G1 X64.428 Y72.339 E19.29099
G1 X65.051 Y72.754 E19.31346
G1 X65.625 Y73.233 E19.3359
G1 X66.146 Y73.77 E19.35836
G1 X66.605 Y74.36 E19.3808
G1 X67 Y74.996 E19.40327
G1 X67.324 Y75.67 E19.42572
G1 X67.574 Y76.375 E19.44818
G1 X67.748 Y77.103 E19.47064
G1 X67.843 Y77.845 E19.4931
G1 X67.862 Y78.362 E19.50863
G1 X67.862 Y88.362 E19.8088
G1 X67.822 Y89.109 E19.83126
G1 X67.703 Y89.847 E19.85369
G1 X67.505 Y90.569 E19.87617
G1 X67.232 Y91.265 E19.89861
G1 X66.885 Y91.928 E19.92107
G1 X66.47 Y92.551 E19.94354
G1 X65.991 Y93.125 E19.96598
G1 X65.454 Y93.646 E19.98844
G1 X64.887 Y94.087 E20.01
G1 X64.887 Y139.673 E21.37837
G1 X64.959 Y139.701 E21.38069
G1 X65.622 Y140.048 E21.40315
G1 X66.245 Y140.463 E21.42562
G1 X66.819 Y140.942 E21.44806
G1 X67.34 Y141.479 E21.47052
G1 X67.799 Y142.069 E21.49296
G1 X68.194 Y142.705 E21.51543
G1 X68.518 Y143.379 E21.53788
G1 X68.768 Y144.084 E21.56034
G1 X68.942 Y144.812 E21.5828
G1 X69.037 Y145.554 E21.60526
G1 X69.056 Y146.071 E21.62079
G1 X69.056 Y156.071 E21.92096
G1 X69.016 Y156.818 E21.94341
G1 X68.897 Y157.556 E21.96585
G1 X68.699 Y158.278 E21.98833
G1 X68.426 Y158.974 E22.01077
G1 X68.079 Y159.637 E22.03323
G1 X67.664 Y160.26 E22.0557
G1 X67.185 Y160.834 E22.07814
G1 X66.648 Y161.355 E22.1006
G1 X66.058 Y161.814 E22.12304
G1 X65.422 Y162.209 E22.14551
G1 X64.748 Y162.533 E22.16796
G1 X64.043 Y162.783 E22.19041
G1 X63.315 Y162.957 E22.21288
G1 X62.573 Y163.052 E22.23534
G1 X62.056 Y163.071 E22.25087
G1 X17.056 Y163.071 E23.60164
G1 X16.309 Y163.031 E23.6241
G1 X15.571 Y162.912 E23.64654
G1 X14.849 Y162.714 E23.66901
G1 X14.153 Y162.441 E23.69145
G1 X13.49 Y162.094 E23.71391
G1 X12.867 Y161.679 E23.73638
G1 X12.293 Y161.2 E23.75882
G1 X11.772 Y160.663 E23.78128
G1 X11.313 Y160.073 E23.80372
G1 X10.918 Y159.437 E23.8262
G1 X10.594 Y158.763 E23.84864
G1 X10.344 Y158.058 E23.8711
G1 X10.17 Y157.33 E23.89356
G1 X10.075 Y156.588 E23.91602
G1 X10.056 Y156.071 E23.93155
G1 X10.056 Y146.071 E24.23172
G1 X10.096 Y145.324 E24.25418
G1 X10.215 Y144.586 E24.27662
G1 X10.413 Y143.864 E24.29909
G1 X10.686 Y143.168 E24.32153
G1 X10.887 Y142.784 E24.33454
G1 X10.887 Y93.272 E25.82076
G1 X10.578 Y92.954 E25.83407
G1 X10.119 Y92.364 E25.8565
G1 X9.724 Y91.728 E25.87898
G1 X9.4 Y91.054 E25.90142
G1 X9.15 Y90.349 E25.92388
G1 X8.976 Y89.621 E25.94635
G1 X8.881 Y88.879 E25.9688
G1 X8.862 Y88.362 E25.98433
G1 X8.862 Y78.362 E26.2845
G1 X8.902 Y77.615 E26.30696
G1 X9.021 Y76.877 E26.3294
G1 X9.219 Y76.155 E26.35187
G1 X9.492 Y75.459 E26.37431
G1 X9.839 Y74.796 E26.39677
G1 X10.254 Y74.173 E26.41924
G1 X10.733 Y73.599 E26.44168
G1 X11.27 Y73.078 E26.46414
G1 X11.86 Y72.619 E26.48658
G1 X12.496 Y72.224 E26.50906
G1 X13.17 Y71.9 E26.5315
G1 X13.875 Y71.65 E26.55396
G1 X14.603 Y71.476 E26.57642
G0 F2400 X14.945 Y71.826
G1 F1200 X15.862 Y71.762 E26.60402
G1 X60.862 Y71.762 E27.95479
G1 X61.587 Y71.802 E27.97659
G1 X62.304 Y71.921 E27.99841
G1 X63.003 Y72.119 E28.02021
G1 X63.676 Y72.392 E28.04202
G1 X64.315 Y72.737 E28.06381
G1 X64.912 Y73.151 E28.08562
G1 X65.46 Y73.627 E28.10741
G1 X65.953 Y74.161 E28.12923
G1 X66.383 Y74.746 E28.15102
G1 X66.747 Y75.375 E28.17283
G1 X67.04 Y76.04 E28.19465
G1 X67.258 Y76.733 E28.21645
G1 X67.398 Y77.445 E28.23823
G1 X67.462 Y78.362 E28.26583
G1 X67.462 Y88.362 E28.566
G1 X67.422 Y89.087 E28.5878
G1 X67.303 Y89.804 E28.60961
G1 X67.105 Y90.503 E28.63142
G1 X66.832 Y91.176 E28.65322
G1 X66.487 Y91.815 E28.67502
G1 X66.073 Y92.412 E28.69683
G1 X65.597 Y92.96 E28.71862
G1 X65.063 Y93.453 E28.74043
G1 X64.487 Y93.876 E28.76188
G1 X64.487 Y139.946 E30.14478
G1 X64.87 Y140.101 E30.15718
G1 X65.509 Y140.446 E30.17898
G1 X66.106 Y140.86 E30.20079
G1 X66.654 Y141.336 E30.22257
G1 X67.147 Y141.87 E30.24439
G1 X67.577 Y142.455 E30.26618
G1 X67.941 Y143.084 E30.288
G1 X68.234 Y143.749 E30.30981
G1 X68.452 Y144.442 E30.33162
G1 X68.592 Y145.154 E30.3534
G1 X68.656 Y146.071 E30.38099
G1 X68.656 Y156.071 E30.68117
G1 X68.616 Y156.796 E30.70296
G1 X68.497 Y157.513 E30.72478
G1 X68.299 Y158.212 E30.74659
G1 X68.026 Y158.885 E30.76839
G1 X67.681 Y159.524 E30.79018
G1 X67.267 Y160.121 E30.81199
G1 X66.791 Y160.669 E30.83378
G1 X66.257 Y161.162 E30.8556
G1 X65.672 Y161.592 E30.87739
G1 X65.043 Y161.956 E30.8992
G1 X64.378 Y162.249 E30.92102
G1 X63.685 Y162.467 E30.94282
G1 X62.973 Y162.607 E30.96461
G1 X62.056 Y162.671 E30.9922
G1 X17.056 Y162.671 E32.34298
G1 X16.331 Y162.631 E32.36477
G1 X15.614 Y162.512 E32.38659
G1 X14.915 Y162.314 E32.4084
G1 X14.242 Y162.041 E32.4302
G1 X13.603 Y161.696 E32.45199
G1 X13.006 Y161.282 E32.4738
G1 X12.458 Y160.806 E32.49559
G1 X11.965 Y160.272 E32.51741
G1 X11.535 Y159.687 E32.5392
G1 X11.171 Y159.058 E32.56101
G1 X10.878 Y158.393 E32.58283
G1 X10.66 Y157.7 E32.60463
G1 X10.52 Y156.988 E32.62642
G1 X10.456 Y156.071 E32.65401
G1 X10.456 Y146.071 E32.95418
G1 X10.496 Y145.346 E32.97598
G1 X10.615 Y144.629 E32.99779
G1 X10.813 Y143.93 E33.0196
G1 X11.086 Y143.257 E33.0414
G1 X11.288 Y142.883 E33.05416
G1 X11.287 Y142.874 E33.05443
G1 X11.287 Y93.117 E34.548
G1 X11.264 Y93.097 E34.54892
G1 X10.771 Y92.563 E34.57073
G1 X10.341 Y91.978 E34.59253
G1 X9.977 Y91.349 E34.61434
G1 X9.684 Y90.684 E34.63615
G1 X9.466 Y89.991 E34.65796
G1 X9.326 Y89.279 E34.67974
G1 X9.262 Y88.362 E34.70734
G1 X9.262 Y78.362 E35.00751
G1 X9.302 Y77.637 E35.0293
G1 X9.421 Y76.92 E35.05112
G1 X9.619 Y76.221 E35.07293
G1 X9.892 Y75.548 E35.09473
G1 X10.237 Y74.909 E35.11653
G1 X10.651 Y74.312 E35.13833
G1 X11.127 Y73.764 E35.16012
G1 X11.661 Y73.271 E35.18194
G1 X12.246 Y72.841 E35.20373
G1 X12.875 Y72.477 E35.22555
G1 X13.54 Y72.184 E35.24736
G1 X14.233 Y71.966 E35.26917
G1 X14.945 Y71.826 E35.29095
G0 F2400 X14.585 Y72.295
G1 F1200 X15.281 Y72.189 E35.31208
G1 X15.862 Y72.162 E35.32954
G1 X60.862 Y72.162 E36.68032
G1 X61.565 Y72.202 E36.70145
G1 X62.259 Y72.321 E36.72259
G1 X62.934 Y72.519 E36.74371
G1 X63.583 Y72.791 E36.76483
G1 X64.197 Y73.136 E36.78597
G1 X64.768 Y73.547 E36.80709
G1 X65.289 Y74.021 E36.82823
G1 X65.753 Y74.551 E36.84937
G1 X66.153 Y75.13 E36.8705
G1 X66.485 Y75.751 E36.89164
G1 X66.745 Y76.405 E36.91276
G1 X66.929 Y77.085 E36.93391
G1 X67.035 Y77.781 E36.95504
G1 X67.062 Y78.362 E36.9725
G1 X67.062 Y88.362 E37.27267
G1 X67.022 Y89.065 E37.29381
G1 X66.903 Y89.759 E37.31494
G1 X66.705 Y90.434 E37.33606
G1 X66.433 Y91.083 E37.35718
G1 X66.088 Y91.697 E37.37832
G1 X65.677 Y92.268 E37.39944
G1 X65.203 Y92.789 E37.42058
G1 X64.673 Y93.253 E37.44173
G1 X64.094 Y93.653 E37.46285
G1 X64.087 Y93.657 E37.4631
G1 X64.087 Y140.216 E38.86067
G1 X64.128 Y140.228 E38.86195
G1 X64.777 Y140.5 E38.88308
G1 X65.391 Y140.845 E38.90422
G1 X65.962 Y141.256 E38.92533
G1 X66.483 Y141.73 E38.94648
G1 X66.947 Y142.26 E38.96762
G1 X67.347 Y142.839 E38.98875
G1 X67.679 Y143.46 E39.00988
G1 X67.939 Y144.114 E39.03101
G1 X68.123 Y144.794 E39.05215
G1 X68.229 Y145.49 E39.07329
G1 X68.256 Y146.071 E39.09075
G1 X68.256 Y156.071 E39.39092
G1 X68.216 Y156.774 E39.41206
G1 X68.097 Y157.468 E39.43319
G1 X67.899 Y158.143 E39.45431
G1 X67.627 Y158.792 E39.47543
G1 X67.282 Y159.406 E39.49657
G1 X66.871 Y159.977 E39.51769
G1 X66.397 Y160.498 E39.53883
G1 X65.867 Y160.962 E39.55998
G1 X65.288 Y161.362 E39.5811
G1 X64.667 Y161.694 E39.60224
G1 X64.013 Y161.954 E39.62336
G1 X63.333 Y162.138 E39.64451
G1 X62.637 Y162.244 E39.66564
G1 X62.056 Y162.271 E39.6831
G1 X17.056 Y162.271 E41.03388
G1 X16.353 Y162.231 E41.05501
G1 X15.659 Y162.112 E41.07615
G1 X14.984 Y161.914 E41.09727
G1 X14.335 Y161.642 E41.11839
G1 X13.721 Y161.297 E41.13953
G1 X13.15 Y160.886 E41.16065
G1 X12.629 Y160.412 E41.18179
G1 X12.165 Y159.882 E41.20294
G1 X11.765 Y159.303 E41.22406
G1 X11.433 Y158.682 E41.2452
G1 X11.173 Y158.028 E41.26632
G1 X10.989 Y157.348 E41.28747
G1 X10.883 Y156.652 E41.3086
G1 X10.856 Y156.071 E41.32606
G1 X10.856 Y146.071 E41.62623
G1 X10.896 Y145.368 E41.64737
G1 X11.015 Y144.674 E41.66851
G1 X11.213 Y143.999 E41.68962
G1 X11.485 Y143.35 E41.71074
G1 X11.692 Y142.982 E41.72342
G1 X11.687 Y142.874 E41.72666
G1 X11.687 Y92.932 E43.22579
G1 X11.435 Y92.703 E43.23601
G1 X10.971 Y92.173 E43.25715
G1 X10.571 Y91.594 E43.27828
G1 X10.239 Y90.973 E43.29941
G1 X9.979 Y90.319 E43.32054
G1 X9.795 Y89.639 E43.34168
G1 X9.689 Y88.943 E43.36282
G1 X9.662 Y88.362 E43.38028
G1 X9.662 Y78.362 E43.68045
G1 X9.702 Y77.659 E43.70159
G1 X9.821 Y76.965 E43.72272
G1 X10.019 Y76.29 E43.74384
G1 X10.291 Y75.641 E43.76496
G1 X10.636 Y75.027 E43.7861
G1 X11.047 Y74.456 E43.80722
G1 X11.521 Y73.935 E43.82836
G1 X12.051 Y73.471 E43.84951
G1 X12.63 Y73.071 E43.87063
G1 X13.251 Y72.739 E43.89177
G1 X13.905 Y72.479 E43.91289
G1 X14.585 Y72.295 E43.93404
G0 F2400 X14.931 Y72.637
G1 F1200 X15.862 Y72.562 E43.96208
G1 X60.862 Y72.562 E45.31285
G1 X61.542 Y72.602 E45.3333
G1 X62.212 Y72.721 E45.35373
G1 X62.864 Y72.918 E45.37417
G1 X63.488 Y73.19 E45.3946
G1 X64.076 Y73.534 E45.41505
G1 X64.62 Y73.944 E45.4355
G1 X65.111 Y74.415 E45.45592
G1 X65.545 Y74.94 E45.47637
G1 X65.914 Y75.512 E45.4968
G1 X66.213 Y76.124 E45.51725
G1 X66.438 Y76.766 E45.53767
G1 X66.587 Y77.431 E45.55813
G1 X66.662 Y78.362 E45.58616
G1 X66.662 Y88.362 E45.88634
G1 X66.622 Y89.042 E45.90678
G1 X66.503 Y89.712 E45.92721
G1 X66.306 Y90.364 E45.94765
G1 X66.034 Y90.988 E45.96809
G1 X65.69 Y91.576 E45.98854
G1 X65.28 Y92.12 E46.00898
G1 X64.809 Y92.611 E46.02941
G1 X64.284 Y93.045 E46.04985
G1 X63.712 Y93.414 E46.07029
G1 X63.687 Y93.426 E46.07112
