;FLAVOR:Marlin
;TIME:1280
;Filament used: 0.663773m
;Layer height: 0.1
;MINX:17.3
;MINY:31.027
;MINZ:0.2
;MAXX:62.9
;MAXY:58.127
;MAXZ:11.5
;Generated with Cura_SteamEngine 4.4.1
M140 S60
M105
M190 S60
M104 S200
M105
M109 S200
M82 ;absolute extrusion mode
G28 ;Home
G1 Z15.0 F6000 ;Move the platform down 15mm
;Prime the extruder
G92 E0
G1 F200 E3
G92 E0
G92 E0
G92 E0
G1 F1500 E-6.5
;LAYER_COUNT:114
;LAYER:0
M107
G0 F2400 X20.924 Y32.315 Z0.2
;TYPE:SKIRT
G1 F1500 E0
G1 F1200 X21.604 Y31.914 E0.0237
G1 X22.322 Y31.584 E0.04742
G1 X23.069 Y31.329 E0.07111
G1 X23.838 Y31.15 E0.09481
G1 X24.622 Y31.05 E0.11853
G1 X25.217 Y31.027 E0.13641
G1 X54.983 Y31.027 E1.0299
G1 X55.772 Y31.067 E1.05362
G1 X56.552 Y31.186 E1.0773
G1 X57.317 Y31.384 E1.10102
G1 X58.057 Y31.658 E1.12471
G1 X58.766 Y32.006 E1.14841
G1 X59.437 Y32.424 E1.17214
G1 X60.061 Y32.907 E1.19583
G1 X60.498 Y33.312 E1.21372
G1 X60.615 Y33.429 E1.21868
G1 X61.145 Y34.015 E1.2424
G1 X61.612 Y34.651 E1.26608
G1 X62.013 Y35.331 E1.28978
G1 X62.343 Y36.049 E1.3135
G1 X62.598 Y36.796 E1.33719
G1 X62.777 Y37.565 E1.36089
G1 X62.877 Y38.349 E1.38462
G1 X62.9 Y38.944 E1.40249
G1 X62.9 Y50.21 E1.74067
G1 X62.86 Y50.999 E1.76438
G1 X62.741 Y51.779 E1.78807
G1 X62.543 Y52.544 E1.81179
G1 X62.269 Y53.284 E1.83547
G1 X61.921 Y53.993 E1.85918
G1 X61.503 Y54.664 E1.88291
G1 X61.02 Y55.288 E1.9066
G1 X60.615 Y55.725 E1.92448
G1 X60.498 Y55.842 E1.92945
G1 X59.912 Y56.372 E1.95317
G1 X59.276 Y56.839 E1.97685
G1 X58.596 Y57.24 E2.00055
G1 X57.878 Y57.57 E2.02427
G1 X57.131 Y57.825 E2.04796
G1 X56.362 Y58.004 E2.07166
G1 X55.578 Y58.104 E2.09538
G1 X54.983 Y58.127 E2.11326
G1 X25.217 Y58.127 E3.00675
G1 X24.428 Y58.087 E3.03047
G1 X23.648 Y57.968 E3.05415
G1 X22.883 Y57.77 E3.07787
G1 X22.143 Y57.496 E3.10156
G1 X21.434 Y57.148 E3.12526
G1 X20.763 Y56.73 E3.14899
G1 X20.139 Y56.247 E3.17268
G1 X19.702 Y55.842 E3.19057
G1 X19.585 Y55.725 E3.19553
G1 X19.055 Y55.139 E3.21925
G1 X18.588 Y54.503 E3.24293
G1 X18.187 Y53.823 E3.26663
G1 X17.857 Y53.105 E3.29035
G1 X17.602 Y52.358 E3.31404
G1 X17.423 Y51.589 E3.33774
G1 X17.323 Y50.805 E3.36147
G1 X17.3 Y50.21 E3.37934
G1 X17.3 Y38.944 E3.71752
G1 X17.34 Y38.155 E3.74123
G1 X17.459 Y37.375 E3.76492
G1 X17.657 Y36.61 E3.78864
G1 X17.931 Y35.87 E3.81232
G1 X18.279 Y35.161 E3.83603
G1 X18.697 Y34.49 E3.85976
G1 X19.18 Y33.866 E3.88345
G1 X19.585 Y33.429 E3.90133
G1 X19.702 Y33.312 E3.9063
G1 X20.288 Y32.782 E3.93001
G1 X20.924 Y32.315 E3.9537
G0 F2400 X21.178 Y32.627
G1 F1200 X21.843 Y32.241 E3.97678
G1 X22.545 Y31.926 E3.99988
G1 X23.276 Y31.686 E4.02297
G1 X24.027 Y31.523 E4.04604
G1 X24.792 Y31.439 E4.06914
G1 X25.217 Y31.427 E4.0819
G1 X54.983 Y31.427 E4.9754
G1 X55.751 Y31.467 E4.99848
G1 X56.511 Y31.586 E5.02157
G1 X57.254 Y31.784 E5.04465
G1 X57.973 Y32.058 E5.06775
G1 X58.659 Y32.405 E5.09083
G1 X59.306 Y32.821 E5.11392
G1 X59.906 Y33.302 E5.137
G1 X60.216 Y33.594 E5.14978
G1 X60.333 Y33.711 E5.15475
G1 X60.847 Y34.283 E5.17783
G1 X61.3 Y34.905 E5.20093
G1 X61.686 Y35.57 E5.22401
G1 X62.001 Y36.272 E5.24711
G1 X62.241 Y37.003 E5.2702
G1 X62.404 Y37.754 E5.29327
G1 X62.488 Y38.519 E5.31637
G1 X62.5 Y38.944 E5.32913
G1 X62.5 Y50.21 E5.66731
G1 X62.46 Y50.978 E5.69039
G1 X62.341 Y51.738 E5.71348
G1 X62.143 Y52.481 E5.73657
G1 X61.869 Y53.2 E5.75966
G1 X61.522 Y53.886 E5.78274
G1 X61.106 Y54.533 E5.80583
G1 X60.625 Y55.133 E5.82891
G1 X60.333 Y55.443 E5.84169
G1 X60.216 Y55.56 E5.84666
G1 X59.644 Y56.074 E5.86974
G1 X59.022 Y56.527 E5.89284
G1 X58.357 Y56.913 E5.91592
G1 X57.655 Y57.228 E5.93902
G1 X56.924 Y57.468 E5.96211
G1 X56.173 Y57.631 E5.98518
G1 X55.408 Y57.715 E6.00828
G1 X54.983 Y57.727 E6.02105
G1 X25.217 Y57.727 E6.91454
G1 X24.449 Y57.687 E6.93762
G1 X23.689 Y57.568 E6.96072
G1 X22.946 Y57.37 E6.9838
G1 X22.227 Y57.096 E7.00689
G1 X21.541 Y56.749 E7.02997
G1 X20.894 Y56.333 E7.05306
G1 X20.294 Y55.852 E7.07614
G1 X19.984 Y55.56 E7.08893
G1 X19.867 Y55.443 E7.09389
G1 X19.353 Y54.871 E7.11698
G1 X18.9 Y54.249 E7.14007
G1 X18.514 Y53.584 E7.16315
G1 X18.199 Y52.882 E7.18625
G1 X17.959 Y52.151 E7.20934
G1 X17.796 Y51.4 E7.23241
G1 X17.712 Y50.635 E7.25551
G1 X17.7 Y50.21 E7.26828
G1 X17.7 Y38.944 E7.60645
G1 X17.74 Y38.176 E7.62954
G1 X17.859 Y37.416 E7.65263
G1 X18.057 Y36.673 E7.67571
G1 X18.331 Y35.954 E7.6988
G1 X18.678 Y35.268 E7.72188
G1 X19.094 Y34.621 E7.74497
G1 X19.575 Y34.021 E7.76805
G1 X19.867 Y33.711 E7.78084
G1 X19.984 Y33.594 E7.7858
G1 X20.556 Y33.08 E7.80889
G1 X21.178 Y32.627 E7.83198
G0 F2400 X21.43 Y32.94
G1 F1200 X22.08 Y32.569 E7.85445
G1 X22.766 Y32.27 E7.87691
G1 X23.48 Y32.046 E7.89938
G1 X24.213 Y31.899 E7.92182
G1 X25.217 Y31.827 E7.95203
G1 X54.983 Y31.827 E8.84552
G1 X55.73 Y31.867 E8.86798
G1 X56.468 Y31.986 E8.89042
G1 X57.19 Y32.184 E8.91289
G1 X57.886 Y32.457 E8.93533
G1 X58.549 Y32.804 E8.9578
G1 X59.172 Y33.219 E8.98027
G1 X59.933 Y33.877 E9.01046
G1 X60.05 Y33.994 E9.01543
G1 X60.55 Y34.551 E9.0379
G1 X60.987 Y35.157 E9.06033
G1 X61.358 Y35.807 E9.08279
G1 X61.657 Y36.493 E9.10525
G1 X61.881 Y37.207 E9.12772
G1 X62.028 Y37.94 E9.15016
G1 X62.1 Y38.944 E9.18037
G1 X62.1 Y50.21 E9.51855
G1 X62.06 Y50.957 E9.541
G1 X61.941 Y51.695 E9.56344
G1 X61.743 Y52.417 E9.58591
G1 X61.47 Y53.113 E9.60835
G1 X61.123 Y53.776 E9.63082
G1 X60.708 Y54.399 E9.65329
G1 X60.05 Y55.16 E9.68348
G1 X59.933 Y55.277 E9.68845
G1 X59.376 Y55.777 E9.71092
G1 X58.77 Y56.214 E9.73335
G1 X58.12 Y56.585 E9.75581
G1 X57.434 Y56.884 E9.77827
G1 X56.72 Y57.108 E9.80074
G1 X55.987 Y57.255 E9.82318
G1 X54.983 Y57.327 E9.85339
G1 X25.217 Y57.327 E10.74689
G1 X24.47 Y57.287 E10.76934
G1 X23.732 Y57.168 E10.79178
G1 X23.01 Y56.97 E10.81425
G1 X22.314 Y56.697 E10.83669
G1 X21.651 Y56.35 E10.85916
G1 X21.028 Y55.935 E10.88163
G1 X20.267 Y55.277 E10.91183
G1 X20.15 Y55.16 E10.91679
G1 X19.65 Y54.603 E10.93926
G1 X19.213 Y53.997 E10.96169
G1 X18.842 Y53.347 E10.98415
G1 X18.543 Y52.661 E11.00662
G1 X18.319 Y51.947 E11.02908
G1 X18.172 Y51.214 E11.05152
G1 X18.1 Y50.21 E11.08173
G1 X18.1 Y38.944 E11.41991
G1 X18.14 Y38.197 E11.44236
G1 X18.259 Y37.459 E11.4648
G1 X18.457 Y36.737 E11.48727
G1 X18.73 Y36.041 E11.50972
G1 X19.077 Y35.378 E11.53218
G1 X19.492 Y34.755 E11.55465
G1 X20.15 Y33.994 E11.58485
G1 X20.267 Y33.877 E11.58981
G1 X20.824 Y33.377 E11.61228
G1 X21.43 Y32.94 E11.63471
G0 F2400 X21.682 Y33.253
G1 F1200 X22.316 Y32.899 E11.6565
G1 X22.985 Y32.616 E11.67831
G1 X23.681 Y32.408 E11.70011
G1 X24.396 Y32.278 E11.72193
G1 X25.217 Y32.227 E11.74662
G1 X54.983 Y32.227 E12.64011
G1 X55.708 Y32.267 E12.66191
G1 X56.425 Y32.386 E12.68373
G1 X57.124 Y32.584 E12.70553
G1 X57.797 Y32.857 E12.72733
G1 X58.436 Y33.202 E12.74913
G1 X59.033 Y33.616 E12.77094
G1 X59.65 Y34.16 E12.79563
G1 X59.767 Y34.277 E12.8006
G1 X60.251 Y34.818 E12.82239
G1 X60.674 Y35.409 E12.8442
G1 X61.028 Y36.043 E12.866
G1 X61.311 Y36.712 E12.8878
G1 X61.519 Y37.408 E12.90961
G1 X61.649 Y38.123 E12.93142
G1 X61.7 Y38.944 E12.95612
G1 X61.7 Y50.21 E13.29429
G1 X61.66 Y50.935 E13.31609
G1 X61.541 Y51.652 E13.3379
G1 X61.343 Y52.351 E13.35971
G1 X61.07 Y53.024 E13.38151
G1 X60.725 Y53.663 E13.40331
G1 X60.311 Y54.26 E13.42512
G1 X59.767 Y54.877 E13.44981
G1 X59.65 Y54.994 E13.45477
G1 X59.109 Y55.478 E13.47656
G1 X58.518 Y55.901 E13.49838
G1 X57.884 Y56.255 E13.52018
G1 X57.215 Y56.538 E13.54198
G1 X56.519 Y56.746 E13.56379
G1 X55.804 Y56.876 E13.5856
G1 X54.983 Y56.927 E13.61029
G1 X25.217 Y56.927 E14.50379
G1 X24.492 Y56.887 E14.52558
G1 X23.775 Y56.768 E14.5474
G1 X23.076 Y56.57 E14.56921
G1 X22.403 Y56.297 E14.59101
G1 X21.764 Y55.952 E14.6128
G1 X21.167 Y55.538 E14.63461
G1 X20.55 Y54.994 E14.6593
G1 X20.433 Y54.877 E14.66427
G1 X19.949 Y54.336 E14.68606
G1 X19.526 Y53.745 E14.70788
G1 X19.172 Y53.111 E14.72967
G1 X18.889 Y52.442 E14.75148
G1 X18.681 Y51.746 E14.77328
G1 X18.551 Y51.031 E14.7951
G1 X18.5 Y50.21 E14.81979
G1 X18.5 Y38.944 E15.15796
G1 X18.54 Y38.219 E15.17976
G1 X18.659 Y37.502 E15.20158
G1 X18.857 Y36.803 E15.22338
G1 X19.13 Y36.13 E15.24518
G1 X19.475 Y35.491 E15.26698
G1 X19.889 Y34.894 E15.28879
G1 X20.433 Y34.277 E15.31348
G1 X20.55 Y34.16 E15.31845
G1 X21.091 Y33.676 E15.34024
G1 X21.682 Y33.253 E15.36205
G0 F2400 X21.933 Y33.568
G1 F1200 X22.551 Y33.23 E15.3832
G1 X23.202 Y32.963 E15.40432
G1 X23.88 Y32.773 E15.42545
G1 X24.575 Y32.66 E15.44659
G1 X25.217 Y32.627 E15.46589
G1 X54.983 Y32.627 E16.35938
G1 X55.686 Y32.667 E16.38052
G1 X56.38 Y32.786 E16.40165
G1 X57.055 Y32.984 E16.42277
G1 X57.704 Y33.256 E16.44389
G1 X58.318 Y33.601 E16.46503
G1 X58.889 Y34.012 E16.48615
G1 X59.367 Y34.443 E16.50547
G1 X59.484 Y34.56 E16.51044
G1 X59.953 Y35.085 E16.53157
G1 X60.359 Y35.66 E16.5527
G1 X60.697 Y36.278 E16.57384
G1 X60.964 Y36.929 E16.59496
G1 X61.154 Y37.607 E16.6161
G1 X61.267 Y38.302 E16.63723
G1 X61.3 Y38.944 E16.65653
G1 X61.3 Y50.21 E16.9947
G1 X61.26 Y50.913 E17.01584
G1 X61.141 Y51.607 E17.03698
G1 X60.943 Y52.282 E17.05809
G1 X60.671 Y52.931 E17.07921
G1 X60.326 Y53.545 E17.10036
G1 X59.915 Y54.116 E17.12147
G1 X59.484 Y54.594 E17.14079
G1 X59.367 Y54.711 E17.14576
G1 X58.842 Y55.18 E17.16689
G1 X58.267 Y55.586 E17.18802
G1 X57.649 Y55.924 E17.20916
G1 X56.998 Y56.191 E17.23029
G1 X56.32 Y56.381 E17.25142
G1 X55.625 Y56.494 E17.27256
G1 X54.983 Y56.527 E17.29185
G1 X25.217 Y56.527 E18.18535
G1 X24.514 Y56.487 E18.20648
G1 X23.82 Y56.368 E18.22762
G1 X23.145 Y56.17 E18.24874
G1 X22.496 Y55.898 E18.26986
G1 X21.882 Y55.553 E18.291
G1 X21.311 Y55.142 E18.31212
G1 X20.833 Y54.711 E18.33144
G1 X20.716 Y54.594 E18.3364
G1 X20.247 Y54.069 E18.35754
G1 X19.841 Y53.494 E18.37866
G1 X19.503 Y52.876 E18.39981
G1 X19.236 Y52.225 E18.42093
G1 X19.046 Y51.547 E18.44206
G1 X18.933 Y50.852 E18.4632
G1 X18.9 Y50.21 E18.4825
G1 X18.9 Y38.944 E18.82067
G1 X18.94 Y38.241 E18.84181
G1 X19.059 Y37.547 E18.86294
G1 X19.257 Y36.872 E18.88406
G1 X19.529 Y36.223 E18.90518
G1 X19.874 Y35.609 E18.92632
G1 X20.285 Y35.038 E18.94744
G1 X20.716 Y34.56 E18.96676
G1 X20.833 Y34.443 E18.97173
G1 X21.358 Y33.974 E18.99286
G1 X21.933 Y33.568 E19.01399
G0 F2400 X22.183 Y33.884
G1 F1200 X22.783 Y33.562 E19.03443
G1 X23.417 Y33.313 E19.05487
G1 X24.076 Y33.14 E19.07533
G1 X24.75 Y33.046 E19.09575
G1 X25.217 Y33.027 E19.10978
G1 X54.983 Y33.027 E20.00328
G1 X55.663 Y33.067 E20.02372
G1 X56.333 Y33.186 E20.04415
G1 X56.985 Y33.383 E20.0646
G1 X57.609 Y33.655 E20.08503
G1 X58.197 Y33.999 E20.10548
G1 X58.741 Y34.409 E20.12593
G1 X59.084 Y34.726 E20.13994
G1 X59.201 Y34.843 E20.14491
G1 X59.654 Y35.352 E20.16537
G1 X60.043 Y35.91 E20.18578
G1 X60.365 Y36.51 E20.20622
G1 X60.614 Y37.144 E20.22667
G1 X60.787 Y37.803 E20.24712
G1 X60.881 Y38.477 E20.26755
G1 X60.9 Y38.944 E20.28158
G1 X60.9 Y50.21 E20.61975
G1 X60.86 Y50.89 E20.6402
G1 X60.741 Y51.56 E20.66063
G1 X60.544 Y52.212 E20.68107
G1 X60.272 Y52.836 E20.7015
G1 X59.928 Y53.424 E20.72195
G1 X59.518 Y53.968 E20.7424
G1 X59.201 Y54.311 E20.75642
G1 X59.084 Y54.428 E20.76139
G1 X58.575 Y54.881 E20.78184
G1 X58.017 Y55.27 E20.80226
G1 X57.417 Y55.592 E20.8227
G1 X56.783 Y55.841 E20.84314
G1 X56.124 Y56.014 E20.8636
G1 X55.45 Y56.108 E20.88402
G1 X54.983 Y56.127 E20.89805
G1 X25.217 Y56.127 E21.79155
G1 X24.537 Y56.087 E21.81199
G1 X23.867 Y55.968 E21.83242
G1 X23.215 Y55.771 E21.85287
G1 X22.591 Y55.499 E21.8733
G1 X22.003 Y55.155 E21.89375
G1 X21.459 Y54.745 E21.9142
G1 X21.116 Y54.428 E21.92822
G1 X20.999 Y54.311 E21.93318
G1 X20.546 Y53.802 E21.95364
G1 X20.157 Y53.244 E21.97405
G1 X19.835 Y52.644 E21.99449
G1 X19.586 Y52.01 E22.01494
G1 X19.413 Y51.351 E22.03539
G1 X19.319 Y50.677 E22.05582
G1 X19.3 Y50.21 E22.06985
G1 X19.3 Y38.944 E22.40802
G1 X19.34 Y38.264 E22.42847
G1 X19.459 Y37.594 E22.4489
G1 X19.656 Y36.942 E22.46934
G1 X19.928 Y36.318 E22.48977
G1 X20.272 Y35.73 E22.51022
G1 X20.682 Y35.186 E22.53067
G1 X20.999 Y34.843 E22.54469
G1 X21.116 Y34.726 E22.54966
G1 X21.625 Y34.273 E22.57011
G1 X22.183 Y33.884 E22.59053
G0 F2400 X22.432 Y34.201
G1 F1200 X23.014 Y33.897 E22.61024
G1 X23.629 Y33.666 E22.62996
G1 X24.268 Y33.511 E22.6497
G1 X25.217 Y33.427 E22.67829
G1 X54.983 Y33.427 E23.57179
G1 X55.639 Y33.467 E23.59152
G1 X56.285 Y33.586 E23.61123
G1 X56.912 Y33.783 E23.63096
G1 X57.51 Y34.055 E23.65068
G1 X58.071 Y34.397 E23.6704
G1 X58.801 Y35.009 E23.699
G1 X58.918 Y35.126 E23.70396
G1 X59.354 Y35.618 E23.7237
G1 X59.726 Y36.159 E23.74341
G1 X60.03 Y36.741 E23.76311
G1 X60.261 Y37.356 E23.78283
G1 X60.416 Y37.995 E23.80257
G1 X60.5 Y38.944 E23.83117
G1 X60.5 Y50.21 E24.16934
G1 X60.46 Y50.866 E24.18907
G1 X60.341 Y51.512 E24.20879
G1 X60.144 Y52.139 E24.22852
G1 X59.872 Y52.737 E24.24824
G1 X59.53 Y53.298 E24.26796
G1 X58.918 Y54.028 E24.29655
G1 X58.801 Y54.145 E24.30152
G1 X58.309 Y54.581 E24.32125
G1 X57.768 Y54.953 E24.34096
G1 X57.186 Y55.257 E24.36067
G1 X56.571 Y55.488 E24.38039
G1 X55.932 Y55.643 E24.40013
G1 X54.983 Y55.727 E24.42873
G1 X25.217 Y55.727 E25.32222
G1 X24.561 Y55.687 E25.34195
G1 X23.915 Y55.568 E25.36167
G1 X23.288 Y55.371 E25.38139
G1 X22.69 Y55.099 E25.40111
G1 X22.129 Y54.757 E25.42084
G1 X21.399 Y54.145 E25.44943
G1 X21.282 Y54.028 E25.4544
G1 X20.846 Y53.536 E25.47413
G1 X20.474 Y52.995 E25.49384
G1 X20.17 Y52.413 E25.51355
G1 X19.939 Y51.798 E25.53327
G1 X19.784 Y51.159 E25.55301
G1 X19.7 Y50.21 E25.5816
G1 X19.7 Y38.944 E25.91978
G1 X19.74 Y38.288 E25.93951
G1 X19.859 Y37.642 E25.95922
G1 X20.056 Y37.015 E25.97895
G1 X20.328 Y36.417 E25.99867
G1 X20.67 Y35.856 E26.01839
G1 X21.282 Y35.126 E26.04699
G1 X21.399 Y35.009 E26.05195
G1 X21.891 Y34.573 E26.07169
G1 X22.432 Y34.201 E26.0914
G0 F2400 X22.679 Y34.519
G1 F1200 X23.243 Y34.233 E26.11038
G1 X23.838 Y34.021 E26.12934
G1 X24.456 Y33.885 E26.14833
G1 X25.217 Y33.827 E26.17124
G1 X54.983 Y33.827 E27.06474
G1 X55.614 Y33.867 E27.08371
G1 X56.235 Y33.986 E27.10269
G1 X56.835 Y34.183 E27.12165
G1 X57.407 Y34.454 E27.14065
G1 X57.939 Y34.794 E27.1596
G1 X58.519 Y35.291 E27.18253
G1 X58.636 Y35.408 E27.1875
G1 X59.053 Y35.883 E27.20647
G1 X59.408 Y36.406 E27.22544
G1 X59.694 Y36.97 E27.24443
G1 X59.906 Y37.565 E27.26339
G1 X60.042 Y38.183 E27.28238
G1 X60.1 Y38.944 E27.30529
G1 X60.1 Y50.21 E27.64346
G1 X60.06 Y50.841 E27.66244
G1 X59.941 Y51.462 E27.68142
G1 X59.744 Y52.062 E27.70038
G1 X59.473 Y52.634 E27.71938
G1 X59.133 Y53.166 E27.73833
G1 X58.636 Y53.746 E27.76126
G1 X58.519 Y53.863 E27.76622
G1 X58.044 Y54.28 E27.7852
G1 X57.521 Y54.635 E27.80417
G1 X56.957 Y54.921 E27.82315
G1 X56.362 Y55.133 E27.84211
G1 X55.744 Y55.269 E27.86111
G1 X54.983 Y55.327 E27.88402
G1 X25.217 Y55.327 E28.77751
G1 X24.586 Y55.287 E28.79649
G1 X23.965 Y55.168 E28.81547
G1 X23.365 Y54.971 E28.83443
G1 X22.793 Y54.7 E28.85343
G1 X22.261 Y54.36 E28.87238
G1 X21.681 Y53.863 E28.89531
G1 X21.564 Y53.746 E28.90027
G1 X21.147 Y53.271 E28.91925
G1 X20.792 Y52.748 E28.93822
G1 X20.506 Y52.184 E28.9572
G1 X20.294 Y51.589 E28.97616
G1 X20.158 Y50.971 E28.99516
G1 X20.1 Y50.21 E29.01807
G1 X20.1 Y38.944 E29.35624
G1 X20.14 Y38.313 E29.37522
G1 X20.259 Y37.692 E29.3942
G1 X20.456 Y37.092 E29.41316
G1 X20.727 Y36.52 E29.43215
G1 X21.067 Y35.988 E29.45111
G1 X21.564 Y35.408 E29.47403
G1 X21.681 Y35.291 E29.479
G1 X22.156 Y34.874 E29.49797
G1 X22.679 Y34.519 E29.51695
G0 F2400 X22.925 Y34.839
G1 F1200 X23.469 Y34.572 E29.53514
G1 X24.044 Y34.379 E29.55334
G1 X24.639 Y34.263 E29.57154
G1 X25.217 Y34.227 E29.58892
G1 X54.983 Y34.227 E30.48242
G1 X55.588 Y34.267 E30.50062
G1 X56.182 Y34.386 E30.5188
G1 X56.756 Y34.582 E30.53701
G1 X57.299 Y34.853 E30.55523
G1 X57.802 Y35.192 E30.57343
G1 X58.236 Y35.574 E30.59079
G1 X58.353 Y35.691 E30.59576
G1 X58.752 Y36.147 E30.61394
G1 X59.088 Y36.652 E30.63215
G1 X59.355 Y37.196 E30.65034
G1 X59.548 Y37.771 E30.66855
G1 X59.664 Y38.366 E30.68674
G1 X59.7 Y38.944 E30.70413
G1 X59.7 Y50.21 E31.0423
G1 X59.66 Y50.815 E31.0605
G1 X59.541 Y51.409 E31.07869
G1 X59.345 Y51.983 E31.09689
G1 X59.074 Y52.526 E31.11511
G1 X58.735 Y53.029 E31.13332
G1 X58.353 Y53.463 E31.15067
G1 X58.236 Y53.58 E31.15564
G1 X57.78 Y53.979 E31.17383
G1 X57.275 Y54.315 E31.19204
G1 X56.731 Y54.582 E31.21023
G1 X56.156 Y54.775 E31.22843
