;FLAVOR:Marlin
;TIME:670
;Filament used: 0.232729m
;Layer height: 0.1
;MINX:9.891
;MINY:19.959
;MINZ:0.2
;MAXX:33.991
;MAXY:44.059
;MAXZ:11
;Generated with Cura_SteamEngine 4.4.1
M140 S60
M105
M190 S60
M104 S200
M105
M109 S200
M82 ;absolute extrusion mode
G28 ;Home
G1 Z15.0 F6000 ;Move the platform down 15mm
;Prime the extruder
G92 E0
G1 F200 E3
G92 E0
G92 E0
G92 E0
G1 F1500 E-6.5
;LAYER_COUNT:109
;LAYER:0
M107
G0 F2400 X13.561 Y21.142 Z0.2
;TYPE:SKIRT
G1 F1500 E0
G1 F1200 X14.252 Y20.758 E0.02373
G1 X14.977 Y20.446 E0.04742
G1 X15.73 Y20.209 E0.07112
G1 X16.504 Y20.05 E0.09484
G1 X17.289 Y19.969 E0.11853
G1 X17.691 Y19.959 E0.1306
G1 X26.191 Y19.959 E0.38574
G1 X26.98 Y19.999 E0.40946
G1 X27.76 Y20.118 E0.43314
G1 X28.525 Y20.316 E0.45686
G1 X29.265 Y20.59 E0.48055
G1 X29.974 Y20.938 E0.50426
G1 X30.645 Y21.356 E0.52799
G1 X31.269 Y21.839 E0.55167
G1 X31.842 Y22.382 E0.57537
G1 X32.357 Y22.981 E0.59908
G1 X32.808 Y23.629 E0.62278
G1 X33.192 Y24.32 E0.64651
G1 X33.504 Y25.045 E0.6702
G1 X33.741 Y25.798 E0.6939
G1 X33.9 Y26.572 E0.71761
G1 X33.981 Y27.357 E0.7413
G1 X33.991 Y27.759 E0.75337
G1 X33.991 Y36.259 E1.00852
G1 X33.951 Y37.048 E1.03223
G1 X33.832 Y37.828 E1.05592
G1 X33.634 Y38.593 E1.07964
G1 X33.36 Y39.333 E1.10333
G1 X33.012 Y40.042 E1.12703
G1 X32.594 Y40.713 E1.15076
G1 X32.111 Y41.337 E1.17445
G1 X31.568 Y41.91 E1.19815
G1 X30.969 Y42.425 E1.22186
G1 X30.321 Y42.876 E1.24556
G1 X29.63 Y43.26 E1.26929
G1 X28.905 Y43.572 E1.29298
G1 X28.152 Y43.809 E1.31667
G1 X27.378 Y43.968 E1.34039
G1 X26.593 Y44.049 E1.36408
G1 X26.191 Y44.059 E1.37615
G1 X17.691 Y44.059 E1.6313
G1 X16.902 Y44.019 E1.65501
G1 X16.122 Y43.9 E1.6787
G1 X15.357 Y43.702 E1.70242
G1 X14.617 Y43.428 E1.7261
G1 X13.908 Y43.08 E1.74981
G1 X13.237 Y42.662 E1.77354
G1 X12.613 Y42.179 E1.79723
G1 X12.04 Y41.636 E1.82092
G1 X11.525 Y41.037 E1.84464
G1 X11.074 Y40.389 E1.86834
G1 X10.69 Y39.698 E1.89206
G1 X10.378 Y38.973 E1.91576
G1 X10.141 Y38.22 E1.93945
G1 X9.982 Y37.446 E1.96317
G1 X9.901 Y36.661 E1.98686
G1 X9.891 Y36.259 E1.99893
G1 X9.891 Y27.759 E2.25408
G1 X9.931 Y26.97 E2.27779
G1 X10.05 Y26.19 E2.30148
G1 X10.248 Y25.425 E2.3252
G1 X10.522 Y24.685 E2.34888
G1 X10.87 Y23.976 E2.37259
G1 X11.288 Y23.305 E2.39632
G1 X11.771 Y22.681 E2.42001
G1 X12.314 Y22.108 E2.4437
G1 X12.913 Y21.593 E2.46742
G1 X13.561 Y21.142 E2.49111
G0 F2400 X13.944 Y21.378
G1 F1200 X14.627 Y21.023 E2.51422
G1 X15.342 Y20.742 E2.53728
G1 X16.084 Y20.536 E2.56039
G1 X16.842 Y20.408 E2.58347
G1 X17.691 Y20.359 E2.609
G1 X26.191 Y20.359 E2.86414
G1 X26.959 Y20.399 E2.88723
G1 X27.719 Y20.518 E2.91032
G1 X28.462 Y20.716 E2.9334
G1 X29.181 Y20.99 E2.9565
G1 X29.867 Y21.337 E2.97957
G1 X30.514 Y21.753 E3.00266
G1 X31.114 Y22.234 E3.02575
G1 X31.661 Y22.775 E3.04884
G1 X32.149 Y23.37 E3.07194
G1 X32.572 Y24.012 E3.09502
G1 X32.927 Y24.695 E3.11812
G1 X33.208 Y25.41 E3.14118
G1 X33.414 Y26.152 E3.1643
G1 X33.542 Y26.91 E3.18737
G1 X33.591 Y27.759 E3.2129
G1 X33.591 Y36.259 E3.46805
G1 X33.551 Y37.027 E3.49113
G1 X33.432 Y37.787 E3.51422
G1 X33.234 Y38.53 E3.5373
G1 X32.96 Y39.249 E3.5604
G1 X32.613 Y39.935 E3.58348
G1 X32.197 Y40.582 E3.60657
G1 X31.716 Y41.182 E3.62965
G1 X31.175 Y41.729 E3.65274
G1 X30.58 Y42.217 E3.67584
G1 X29.938 Y42.64 E3.69892
G1 X29.255 Y42.995 E3.72203
G1 X28.54 Y43.276 E3.74509
G1 X27.798 Y43.482 E3.7682
G1 X27.04 Y43.61 E3.79128
G1 X26.191 Y43.659 E3.8168
G1 X17.691 Y43.659 E4.07195
G1 X16.923 Y43.619 E4.09504
G1 X16.163 Y43.5 E4.11813
G1 X15.42 Y43.302 E4.14121
G1 X14.701 Y43.028 E4.1643
G1 X14.015 Y42.681 E4.18738
G1 X13.368 Y42.265 E4.21047
G1 X12.768 Y41.784 E4.23355
G1 X12.221 Y41.243 E4.25665
G1 X11.733 Y40.648 E4.27975
G1 X11.31 Y40.006 E4.30282
G1 X10.955 Y39.323 E4.32593
G1 X10.674 Y38.608 E4.34899
G1 X10.468 Y37.866 E4.3721
G1 X10.34 Y37.108 E4.39518
G1 X10.291 Y36.259 E4.42071
G1 X10.291 Y27.759 E4.67585
G1 X10.331 Y26.991 E4.69894
G1 X10.45 Y26.231 E4.72203
G1 X10.648 Y25.488 E4.74511
G1 X10.922 Y24.769 E4.76821
G1 X11.269 Y24.083 E4.79128
G1 X11.685 Y23.436 E4.81437
G1 X12.166 Y22.836 E4.83746
G1 X12.707 Y22.289 E4.86055
G1 X13.302 Y21.801 E4.88365
G1 X13.944 Y21.378 E4.90673
G0 F2400 X13.689 Y22.016
G1 F1200 X14.325 Y21.621 E4.9292
G1 X14.999 Y21.297 E4.95165
G1 X15.704 Y21.047 E4.9741
G1 X16.432 Y20.873 E4.99657
G1 X17.174 Y20.778 E5.01902
G1 X17.691 Y20.759 E5.03455
G1 X26.191 Y20.759 E5.2897
G1 X26.938 Y20.799 E5.31216
G1 X27.676 Y20.918 E5.33459
G1 X28.398 Y21.116 E5.35707
G1 X29.094 Y21.389 E5.37951
G1 X29.757 Y21.736 E5.40197
G1 X30.38 Y22.151 E5.42444
G1 X30.954 Y22.63 E5.44688
G1 X31.475 Y23.167 E5.46934
G1 X31.934 Y23.757 E5.49178
G1 X32.329 Y24.393 E5.51425
G1 X32.653 Y25.067 E5.5367
G1 X32.903 Y25.772 E5.55915
G1 X33.077 Y26.5 E5.58162
G1 X33.172 Y27.242 E5.60408
G1 X33.191 Y27.759 E5.61961
G1 X33.191 Y36.259 E5.87475
G1 X33.151 Y37.006 E5.89721
G1 X33.032 Y37.744 E5.91965
G1 X32.834 Y38.466 E5.94212
G1 X32.561 Y39.162 E5.96456
G1 X32.214 Y39.825 E5.98702
G1 X31.799 Y40.448 E6.00949
G1 X31.32 Y41.022 E6.03193
G1 X30.783 Y41.543 E6.05439
G1 X30.193 Y42.002 E6.07683
G1 X29.557 Y42.397 E6.09931
G1 X28.883 Y42.721 E6.12175
G1 X28.178 Y42.971 E6.14421
G1 X27.45 Y43.145 E6.16667
G1 X26.708 Y43.24 E6.18913
G1 X26.191 Y43.259 E6.20466
G1 X17.691 Y43.259 E6.45981
G1 X16.944 Y43.219 E6.48226
G1 X16.206 Y43.1 E6.5047
G1 X15.484 Y42.902 E6.52717
G1 X14.788 Y42.629 E6.54961
G1 X14.125 Y42.282 E6.57208
G1 X13.502 Y41.867 E6.59455
G1 X12.928 Y41.388 E6.61699
G1 X12.407 Y40.851 E6.63945
G1 X11.948 Y40.261 E6.66188
G1 X11.553 Y39.625 E6.68436
G1 X11.229 Y38.951 E6.70681
G1 X10.979 Y38.246 E6.72926
G1 X10.805 Y37.518 E6.75173
G1 X10.71 Y36.776 E6.77418
G1 X10.691 Y36.259 E6.78971
G1 X10.691 Y27.759 E7.04486
G1 X10.731 Y27.012 E7.06731
G1 X10.85 Y26.274 E7.08975
G1 X11.048 Y25.552 E7.11222
G1 X11.321 Y24.856 E7.13467
G1 X11.668 Y24.193 E7.15713
G1 X12.083 Y23.57 E7.1796
G1 X12.562 Y22.996 E7.20204
G1 X13.099 Y22.475 E7.2245
G1 X13.689 Y22.016 E7.24694
G0 F2400 X14.075 Y22.238
G1 F1200 X14.704 Y21.874 E7.26875
G1 X15.369 Y21.581 E7.29057
G1 X16.062 Y21.363 E7.31237
G1 X16.774 Y21.223 E7.33415
G1 X17.691 Y21.159 E7.36175
G1 X26.191 Y21.159 E7.61689
G1 X26.916 Y21.199 E7.63869
G1 X27.633 Y21.318 E7.66051
G1 X28.332 Y21.516 E7.68231
G1 X29.005 Y21.789 E7.70411
G1 X29.644 Y22.134 E7.72591
G1 X30.241 Y22.548 E7.74772
G1 X30.789 Y23.024 E7.76951
G1 X31.282 Y23.558 E7.79132
G1 X31.712 Y24.143 E7.81312
G1 X32.076 Y24.772 E7.83493
G1 X32.369 Y25.437 E7.85674
G1 X32.587 Y26.13 E7.87855
G1 X32.727 Y26.842 E7.90033
G1 X32.791 Y27.759 E7.92793
G1 X32.791 Y36.259 E8.18307
G1 X32.751 Y36.984 E8.20487
G1 X32.632 Y37.701 E8.22669
G1 X32.434 Y38.4 E8.24849
G1 X32.161 Y39.073 E8.27029
G1 X31.816 Y39.712 E8.29209
G1 X31.402 Y40.309 E8.3139
G1 X30.926 Y40.857 E8.33569
G1 X30.392 Y41.35 E8.3575
G1 X29.807 Y41.78 E8.3793
G1 X29.178 Y42.144 E8.40111
G1 X28.513 Y42.437 E8.42292
G1 X27.82 Y42.655 E8.44473
G1 X27.108 Y42.795 E8.46651
G1 X26.191 Y42.859 E8.49411
G1 X17.691 Y42.859 E8.74925
G1 X16.966 Y42.819 E8.77105
G1 X16.249 Y42.7 E8.79287
G1 X15.55 Y42.502 E8.81467
G1 X14.877 Y42.229 E8.83647
G1 X14.238 Y41.884 E8.85827
G1 X13.641 Y41.47 E8.88008
G1 X13.093 Y40.994 E8.90187
G1 X12.6 Y40.46 E8.92368
G1 X12.17 Y39.875 E8.94548
G1 X11.806 Y39.246 E8.96729
G1 X11.513 Y38.581 E8.9891
G1 X11.295 Y37.888 E9.01091
G1 X11.155 Y37.176 E9.03269
G1 X11.091 Y36.259 E9.06029
G1 X11.091 Y27.759 E9.31543
G1 X11.131 Y27.034 E9.33723
G1 X11.25 Y26.317 E9.35904
G1 X11.448 Y25.618 E9.38085
G1 X11.721 Y24.945 E9.40265
G1 X12.066 Y24.306 E9.42445
G1 X12.48 Y23.709 E9.44626
G1 X12.956 Y23.161 E9.46805
G1 X13.49 Y22.668 E9.48986
G1 X14.075 Y22.238 E9.51166
G0 F2400 X14.459 Y22.468
G1 F1200 X15.08 Y22.136 E9.53279
G1 X15.734 Y21.876 E9.55392
G1 X16.414 Y21.692 E9.57507
G1 X17.11 Y21.586 E9.5962
G1 X17.691 Y21.559 E9.61366
G1 X26.191 Y21.559 E9.8688
G1 X26.894 Y21.599 E9.88994
G1 X27.588 Y21.718 E9.91108
G1 X28.263 Y21.916 E9.93219
G1 X28.912 Y22.188 E9.95331
G1 X29.526 Y22.533 E9.97446
G1 X30.097 Y22.944 E9.99557
G1 X30.618 Y23.418 E10.01672
G1 X31.082 Y23.948 E10.03786
G1 X31.482 Y24.527 E10.05899
G1 X31.814 Y25.148 E10.08012
G1 X32.074 Y25.802 E10.10125
G1 X32.258 Y26.482 E10.12239
G1 X32.364 Y27.178 E10.14353
G1 X32.391 Y27.759 E10.16099
G1 X32.391 Y36.259 E10.41613
G1 X32.351 Y36.962 E10.43727
G1 X32.232 Y37.656 E10.45841
G1 X32.034 Y38.331 E10.47952
G1 X31.762 Y38.98 E10.50064
G1 X31.417 Y39.594 E10.52178
G1 X31.006 Y40.165 E10.5429
G1 X30.532 Y40.686 E10.56405
G1 X30.002 Y41.15 E10.58519
G1 X29.423 Y41.55 E10.60631
G1 X28.802 Y41.882 E10.62745
G1 X28.148 Y42.142 E10.64858
G1 X27.468 Y42.326 E10.66972
G1 X26.772 Y42.432 E10.69086
G1 X26.191 Y42.459 E10.70831
G1 X17.691 Y42.459 E10.96346
G1 X16.988 Y42.419 E10.9846
G1 X16.294 Y42.3 E11.00573
G1 X15.619 Y42.102 E11.02685
G1 X14.97 Y41.83 E11.04797
G1 X14.356 Y41.485 E11.06911
G1 X13.785 Y41.074 E11.09023
G1 X13.264 Y40.6 E11.11137
G1 X12.8 Y40.07 E11.13252
G1 X12.4 Y39.491 E11.15364
G1 X12.068 Y38.87 E11.17478
G1 X11.808 Y38.216 E11.19591
G1 X11.624 Y37.536 E11.21705
G1 X11.518 Y36.84 E11.23818
G1 X11.491 Y36.259 E11.25564
G1 X11.491 Y27.759 E11.51079
G1 X11.531 Y27.056 E11.53193
G1 X11.65 Y26.362 E11.55306
G1 X11.848 Y25.687 E11.57418
G1 X12.12 Y25.038 E11.5953
G1 X12.465 Y24.424 E11.61644
G1 X12.876 Y23.853 E11.63756
G1 X13.35 Y23.332 E11.6587
G1 X13.88 Y22.868 E11.67985
G1 X14.459 Y22.468 E11.70097
G0 F2400 X14.841 Y22.707
G1 F1200 X15.453 Y22.408 E11.72142
G1 X16.095 Y22.183 E11.74184
G1 X16.76 Y22.034 E11.76229
G1 X17.691 Y21.959 E11.79033
G1 X26.191 Y21.959 E12.04548
G1 X26.871 Y21.999 E12.06592
G1 X27.541 Y22.118 E12.08635
G1 X28.193 Y22.315 E12.1068
G1 X28.817 Y22.587 E12.12723
G1 X29.405 Y22.931 E12.14768
G1 X29.949 Y23.341 E12.16813
G1 X30.44 Y23.812 E12.18855
G1 X30.874 Y24.337 E12.209
G1 X31.243 Y24.909 E12.22943
G1 X31.542 Y25.521 E12.24987
G1 X31.767 Y26.163 E12.27029
G1 X31.916 Y26.828 E12.29075
G1 X31.991 Y27.759 E12.31879
G1 X31.991 Y36.259 E12.57393
G1 X31.951 Y36.939 E12.59438
G1 X31.832 Y37.609 E12.61481
G1 X31.635 Y38.261 E12.63525
G1 X31.363 Y38.885 E12.65569
G1 X31.019 Y39.473 E12.67613
G1 X30.609 Y40.017 E12.69658
G1 X30.138 Y40.508 E12.71701
G1 X29.613 Y40.942 E12.73745
G1 X29.041 Y41.311 E12.75788
G1 X28.429 Y41.61 E12.77833
G1 X27.787 Y41.835 E12.79875
G1 X27.122 Y41.984 E12.81921
G1 X26.191 Y42.059 E12.84724
G1 X17.691 Y42.059 E13.10239
G1 X17.011 Y42.019 E13.12284
G1 X16.341 Y41.9 E13.14326
G1 X15.689 Y41.703 E13.16371
G1 X15.065 Y41.431 E13.18414
G1 X14.477 Y41.087 E13.20459
G1 X13.933 Y40.677 E13.22504
G1 X13.442 Y40.206 E13.24546
G1 X13.008 Y39.681 E13.26591
G1 X12.639 Y39.109 E13.28634
G1 X12.34 Y38.497 E13.30679
G1 X12.115 Y37.855 E13.32721
G1 X11.966 Y37.19 E13.34766
G1 X11.891 Y36.259 E13.3757
G1 X11.891 Y27.759 E13.63085
G1 X11.931 Y27.079 E13.65129
G1 X12.05 Y26.409 E13.67172
G1 X12.247 Y25.757 E13.69217
G1 X12.519 Y25.133 E13.7126
G1 X12.863 Y24.545 E13.73305
G1 X13.273 Y24.001 E13.7535
G1 X13.744 Y23.51 E13.77392
G1 X14.269 Y23.076 E13.79436
G1 X14.841 Y22.707 E13.8148
G0 F2400 X14.656 Y23.293
G1 F1200 X15.22 Y22.957 E13.8345
G1 X15.822 Y22.693 E13.85424
G1 X16.451 Y22.503 E13.87396
G1 X17.098 Y22.392 E13.89366
G1 X17.691 Y22.359 E13.91149
G1 X26.191 Y22.359 E14.16664
G1 X26.847 Y22.399 E14.18637
G1 X27.493 Y22.518 E14.20608
G1 X28.12 Y22.715 E14.22581
G1 X28.718 Y22.987 E14.24553
G1 X29.279 Y23.329 E14.26525
G1 X29.794 Y23.737 E14.28498
G1 X30.256 Y24.204 E14.30469
G1 X30.657 Y24.724 E14.32441
G1 X30.993 Y25.288 E14.34411
G1 X31.257 Y25.89 E14.36384
G1 X31.447 Y26.519 E14.38357
G1 X31.558 Y27.166 E14.40327
G1 X31.591 Y27.759 E14.4211
G1 X31.591 Y36.259 E14.67625
G1 X31.551 Y36.915 E14.69597
G1 X31.432 Y37.561 E14.71569
G1 X31.235 Y38.188 E14.73542
G1 X30.963 Y38.786 E14.75514
G1 X30.621 Y39.347 E14.77486
G1 X30.213 Y39.862 E14.79458
G1 X29.746 Y40.324 E14.8143
G1 X29.226 Y40.725 E14.83401
G1 X28.662 Y41.061 E14.85372
G1 X28.06 Y41.325 E14.87345
G1 X27.431 Y41.515 E14.89318
G1 X26.784 Y41.626 E14.91288
G1 X26.191 Y41.659 E14.93071
G1 X17.691 Y41.659 E15.18586
G1 X17.035 Y41.619 E15.20558
G1 X16.389 Y41.5 E15.2253
G1 X15.762 Y41.303 E15.24503
G1 X15.164 Y41.031 E15.26475
G1 X14.603 Y40.689 E15.28447
G1 X14.088 Y40.281 E15.30419
G1 X13.626 Y39.814 E15.32391
G1 X13.225 Y39.294 E15.34362
G1 X12.889 Y38.73 E15.36333
G1 X12.625 Y38.128 E15.38306
G1 X12.435 Y37.499 E15.40278
G1 X12.324 Y36.852 E15.42249
G1 X12.291 Y36.259 E15.44032
G1 X12.291 Y27.759 E15.69546
G1 X12.331 Y27.103 E15.71519
G1 X12.45 Y26.457 E15.73491
G1 X12.647 Y25.83 E15.75464
G1 X12.919 Y25.232 E15.77436
G1 X13.261 Y24.671 E15.79408
G1 X13.669 Y24.156 E15.8138
G1 X14.136 Y23.694 E15.83352
G1 X14.656 Y23.293 E15.85323
G0 F2400 X15.041 Y23.519
G1 F1200 X15.597 Y23.219 E15.8722
G1 X16.186 Y22.991 E15.89115
G1 X16.8 Y22.839 E15.91014
G1 X17.691 Y22.759 E15.93699
G1 X26.191 Y22.759 E16.19214
G1 X26.822 Y22.799 E16.21112
G1 X27.443 Y22.918 E16.2301
G1 X28.043 Y23.115 E16.24906
G1 X28.615 Y23.386 E16.26806
G1 X29.147 Y23.726 E16.28701
G1 X29.632 Y24.132 E16.30599
G1 X30.062 Y24.595 E16.32496
G1 X30.431 Y25.109 E16.34395
G1 X30.731 Y25.665 E16.36292
G1 X30.959 Y26.254 E16.38188
G1 X31.111 Y26.868 E16.40086
G1 X31.191 Y27.759 E16.42772
G1 X31.191 Y36.259 E16.68286
G1 X31.151 Y36.89 E16.70184
G1 X31.032 Y37.511 E16.72082
G1 X30.835 Y38.111 E16.73978
G1 X30.564 Y38.683 E16.75878
G1 X30.224 Y39.215 E16.77773
G1 X29.818 Y39.7 E16.79672
G1 X29.355 Y40.13 E16.81568
G1 X28.841 Y40.499 E16.83468
G1 X28.285 Y40.799 E16.85364
G1 X27.696 Y41.027 E16.8726
G1 X27.082 Y41.179 E16.89159
G1 X26.191 Y41.259 E16.91844
G1 X17.691 Y41.259 E17.17358
G1 X17.06 Y41.219 E17.19256
G1 X16.439 Y41.1 E17.21154
G1 X15.839 Y40.903 E17.2305
G1 X15.267 Y40.632 E17.2495
G1 X14.735 Y40.292 E17.26845
G1 X14.25 Y39.886 E17.28744
G1 X13.82 Y39.423 E17.3064
G1 X13.451 Y38.909 E17.3254
G1 X13.151 Y38.353 E17.34436
G1 X12.923 Y37.764 E17.36332
G1 X12.771 Y37.15 E17.38231
G1 X12.691 Y36.259 E17.40916
G1 X12.691 Y27.759 E17.66431
G1 X12.731 Y27.128 E17.68329
G1 X12.85 Y26.507 E17.70227
G1 X13.047 Y25.907 E17.72122
G1 X13.318 Y25.335 E17.74022
G1 X13.658 Y24.803 E17.75917
G1 X14.064 Y24.318 E17.77816
G1 X14.527 Y23.888 E17.79713
G1 X15.041 Y23.519 E17.81612
G0 F2400 X15.423 Y23.757
G1 F1200 X15.969 Y23.493 E17.83432
G1 X16.545 Y23.304 E17.85252
G1 X17.141 Y23.192 E17.87072
G1 X17.691 Y23.159 E17.88726
G1 X26.191 Y23.159 E18.14241
G1 X26.796 Y23.199 E18.16061
G1 X27.39 Y23.318 E18.1788
G1 X27.964 Y23.514 E18.197
G1 X28.507 Y23.785 E18.21522
G1 X29.01 Y24.124 E18.23343
G1 X29.463 Y24.526 E18.25161
G1 X29.86 Y24.984 E18.2698
G1 X30.193 Y25.491 E18.28801
G1 X30.457 Y26.037 E18.30621
G1 X30.646 Y26.613 E18.32441
G1 X30.758 Y27.209 E18.34261
G1 X30.791 Y27.759 E18.35915
G1 X30.791 Y36.259 E18.6143
G1 X30.751 Y36.864 E18.6325
G1 X30.632 Y37.458 E18.65068
G1 X30.436 Y38.032 E18.66889
G1 X30.165 Y38.575 E18.68711
G1 X29.826 Y39.078 E18.70531
G1 X29.424 Y39.531 E18.72349
G1 X28.966 Y39.928 E18.74169
G1 X28.459 Y40.261 E18.7599
G1 X27.913 Y40.525 E18.7781
G1 X27.337 Y40.714 E18.7963
G1 X26.741 Y40.826 E18.8145
G1 X26.191 Y40.859 E18.83104
G1 X17.691 Y40.859 E19.08619
G1 X17.086 Y40.819 E19.10439
G1 X16.492 Y40.7 E19.12257
G1 X15.918 Y40.504 E19.14078
G1 X15.375 Y40.233 E19.159
G1 X14.872 Y39.894 E19.1772
G1 X14.419 Y39.492 E19.19538
G1 X14.022 Y39.034 E19.21358
G1 X13.689 Y38.527 E19.23178
G1 X13.425 Y37.981 E19.24999
G1 X13.236 Y37.405 E19.26819
G1 X13.124 Y36.809 E19.28639
G1 X13.091 Y36.259 E19.30293
G1 X13.091 Y27.759 E19.55808
G1 X13.131 Y27.154 E19.57628
G1 X13.25 Y26.56 E19.59446
G1 X13.446 Y25.986 E19.61267
G1 X13.717 Y25.443 E19.63088
G1 X14.056 Y24.94 E19.64909
G1 X14.458 Y24.487 E19.66727
G1 X14.916 Y24.09 E19.68547
G1 X15.423 Y23.757 E19.70367
G0 F2400 X15.304 Y24.303
G1 F1200 X15.802 Y24.008 E19.72105
G1 X16.336 Y23.783 E19.73844
G1 X16.896 Y23.635 E19.75583
G1 X17.691 Y23.559 E19.7798
G1 X26.191 Y23.559 E20.03495
G1 X26.769 Y23.599 E20.05234
G1 X27.336 Y23.718 E20.06973
G1 X27.881 Y23.914 E20.08712
G1 X28.394 Y24.183 E20.1045
G1 X28.865 Y24.52 E20.12189
