;FLAVOR:Marlin
;TIME:5487
;Filament used: 2.47739m
;Layer height: 0.1
;MINX:12.415
;MINY:28.059
;MINZ:0.2
;MAXX:78.015
;MAXY:93.659
;MAXZ:13
;Generated with Cura_SteamEngine 4.4.1
M140 S60
M105
M190 S60
M104 S200
M105
M109 S200
M82 ;absolute extrusion mode
G28 ;Home
G1 Z15.0 F6000 ;Move the platform down 15mm
;Prime the extruder
G92 E0
G1 F200 E3
G92 E0
G92 E0
G92 E0
G1 F1500 E-6.5
;LAYER_COUNT:129
;LAYER:0
M107
G0 F2400 X16.085 Y29.242 Z0.2
;TYPE:SKIRT
G1 F1500 E0
G1 F1200 X16.776 Y28.858 E0.02373
G1 X17.501 Y28.546 E0.04742
G1 X18.254 Y28.309 E0.07112
G1 X19.028 Y28.15 E0.09484
G1 X19.813 Y28.069 E0.11853
G1 X20.215 Y28.059 E0.1306
G1 X70.215 Y28.059 E1.63146
G1 X71.004 Y28.099 E1.65517
G1 X71.784 Y28.218 E1.67886
G1 X72.549 Y28.416 E1.70258
G1 X73.289 Y28.69 E1.72626
G1 X73.998 Y29.038 E1.74997
G1 X74.669 Y29.456 E1.7737
G1 X75.293 Y29.939 E1.79739
G1 X75.866 Y30.482 E1.82108
G1 X76.381 Y31.081 E1.8448
G1 X76.832 Y31.729 E1.8685
G1 X77.216 Y32.42 E1.89222
G1 X77.528 Y33.145 E1.91592
G1 X77.765 Y33.898 E1.93961
G1 X77.924 Y34.672 E1.96333
G1 X78.005 Y35.457 E1.98702
G1 X78.015 Y35.859 E1.99909
G1 X78.015 Y85.859 E3.49995
G1 X77.975 Y86.648 E3.52367
G1 X77.856 Y87.428 E3.54735
G1 X77.658 Y88.193 E3.57107
G1 X77.384 Y88.933 E3.59476
G1 X77.036 Y89.642 E3.61847
G1 X76.618 Y90.313 E3.6422
G1 X76.135 Y90.937 E3.66588
G1 X75.592 Y91.51 E3.68958
G1 X74.993 Y92.025 E3.71329
G1 X74.345 Y92.476 E3.73699
G1 X73.654 Y92.86 E3.76072
G1 X72.929 Y93.172 E3.78441
G1 X72.176 Y93.409 E3.80811
G1 X71.402 Y93.568 E3.83183
G1 X70.617 Y93.649 E3.85552
G1 X70.215 Y93.659 E3.86759
G1 X20.215 Y93.659 E5.36845
G1 X19.426 Y93.619 E5.39216
G1 X18.646 Y93.5 E5.41585
G1 X17.881 Y93.302 E5.43957
G1 X17.141 Y93.028 E5.46325
G1 X16.432 Y92.68 E5.48696
G1 X15.761 Y92.262 E5.51069
G1 X15.137 Y91.779 E5.53438
G1 X14.564 Y91.236 E5.55807
G1 X14.049 Y90.637 E5.58179
G1 X13.598 Y89.989 E5.60549
G1 X13.214 Y89.298 E5.62922
G1 X12.902 Y88.573 E5.65291
G1 X12.665 Y87.82 E5.6766
G1 X12.506 Y87.046 E5.70032
G1 X12.425 Y86.261 E5.72401
G1 X12.415 Y85.859 E5.73608
G1 X12.415 Y35.859 E7.23694
G1 X12.455 Y35.07 E7.26066
G1 X12.574 Y34.29 E7.28434
G1 X12.772 Y33.525 E7.30806
G1 X13.046 Y32.785 E7.33175
G1 X13.394 Y32.076 E7.35546
G1 X13.812 Y31.405 E7.37919
G1 X14.295 Y30.781 E7.40287
G1 X14.838 Y30.208 E7.42657
G1 X15.437 Y29.693 E7.45028
G1 X16.085 Y29.242 E7.47398
G0 F2400 X16.468 Y29.478
G1 F1200 X17.151 Y29.123 E7.49709
G1 X17.866 Y28.842 E7.52015
G1 X18.608 Y28.636 E7.54326
G1 X19.366 Y28.508 E7.56634
G1 X20.215 Y28.459 E7.59186
G1 X70.215 Y28.459 E9.09273
G1 X70.983 Y28.499 E9.11581
G1 X71.743 Y28.618 E9.1389
G1 X72.486 Y28.816 E9.16198
G1 X73.205 Y29.09 E9.18508
G1 X73.891 Y29.437 E9.20816
G1 X74.538 Y29.853 E9.23125
G1 X75.138 Y30.334 E9.25433
G1 X75.685 Y30.875 E9.27742
G1 X76.173 Y31.47 E9.30052
G1 X76.596 Y32.112 E9.3236
G1 X76.951 Y32.795 E9.34671
G1 X77.232 Y33.51 E9.36977
G1 X77.438 Y34.252 E9.39288
G1 X77.566 Y35.01 E9.41596
G1 X77.615 Y35.859 E9.44148
G1 X77.615 Y85.859 E10.94235
G1 X77.575 Y86.627 E10.96543
G1 X77.456 Y87.387 E10.98852
G1 X77.258 Y88.13 E11.0116
G1 X76.984 Y88.849 E11.0347
G1 X76.637 Y89.535 E11.05778
G1 X76.221 Y90.182 E11.08087
G1 X75.74 Y90.782 E11.10395
G1 X75.199 Y91.329 E11.12704
G1 X74.604 Y91.817 E11.15014
G1 X73.962 Y92.24 E11.17322
G1 X73.279 Y92.595 E11.19633
G1 X72.564 Y92.876 E11.21939
G1 X71.822 Y93.082 E11.2425
G1 X71.064 Y93.21 E11.26558
G1 X70.215 Y93.259 E11.2911
G1 X20.215 Y93.259 E12.79197
G1 X19.447 Y93.219 E12.81505
G1 X18.687 Y93.1 E12.83814
G1 X17.944 Y92.902 E12.86122
G1 X17.225 Y92.628 E12.88432
G1 X16.539 Y92.281 E12.9074
G1 X15.892 Y91.865 E12.93049
G1 X15.292 Y91.384 E12.95357
G1 X14.745 Y90.843 E12.97666
G1 X14.257 Y90.248 E12.99976
G1 X13.834 Y89.606 E13.02284
G1 X13.479 Y88.923 E13.04595
G1 X13.198 Y88.208 E13.06901
G1 X12.992 Y87.466 E13.09212
G1 X12.864 Y86.708 E13.1152
G1 X12.815 Y85.859 E13.14072
G1 X12.815 Y35.859 E14.64159
G1 X12.855 Y35.091 E14.66467
G1 X12.974 Y34.331 E14.68776
G1 X13.172 Y33.588 E14.71084
G1 X13.446 Y32.869 E14.73394
G1 X13.793 Y32.183 E14.75702
G1 X14.209 Y31.536 E14.78011
G1 X14.69 Y30.936 E14.80319
G1 X15.231 Y30.389 E14.82628
G1 X15.826 Y29.901 E14.84938
G1 X16.468 Y29.478 E14.87246
G0 F2400 X16.213 Y30.116
G1 F1200 X16.849 Y29.721 E14.89493
G1 X17.523 Y29.397 E14.91738
G1 X18.228 Y29.147 E14.93984
G1 X18.956 Y28.973 E14.9623
G1 X19.698 Y28.878 E14.98476
G1 X20.215 Y28.859 E15.00029
G1 X70.215 Y28.859 E16.50115
G1 X70.962 Y28.899 E16.52361
G1 X71.7 Y29.018 E16.54604
G1 X72.422 Y29.216 E16.56852
G1 X73.118 Y29.489 E16.59096
G1 X73.781 Y29.836 E16.61342
G1 X74.404 Y30.251 E16.63589
G1 X74.978 Y30.73 E16.65833
G1 X75.499 Y31.267 E16.68079
G1 X75.958 Y31.857 E16.70323
G1 X76.353 Y32.493 E16.7257
G1 X76.677 Y33.167 E16.74815
G1 X76.927 Y33.872 E16.7706
G1 X77.101 Y34.6 E16.79307
G1 X77.196 Y35.342 E16.81553
G1 X77.215 Y35.859 E16.83106
G1 X77.215 Y85.859 E18.33192
G1 X77.175 Y86.606 E18.35438
G1 X77.056 Y87.344 E18.37681
G1 X76.858 Y88.066 E18.39929
G1 X76.585 Y88.762 E18.42173
G1 X76.238 Y89.425 E18.44419
G1 X75.823 Y90.048 E18.46666
G1 X75.344 Y90.622 E18.4891
G1 X74.807 Y91.143 E18.51156
G1 X74.217 Y91.602 E18.534
G1 X73.581 Y91.997 E18.55647
G1 X72.907 Y92.321 E18.57892
G1 X72.202 Y92.571 E18.60137
G1 X71.474 Y92.745 E18.62384
G1 X70.732 Y92.84 E18.6463
G1 X70.215 Y92.859 E18.66183
G1 X20.215 Y92.859 E20.16269
G1 X19.468 Y92.819 E20.18515
G1 X18.73 Y92.7 E20.20758
G1 X18.008 Y92.502 E20.23006
G1 X17.312 Y92.229 E20.2525
G1 X16.649 Y91.882 E20.27496
G1 X16.026 Y91.467 E20.29743
G1 X15.452 Y90.988 E20.31987
G1 X14.931 Y90.451 E20.34233
G1 X14.472 Y89.861 E20.36477
G1 X14.077 Y89.225 E20.38724
G1 X13.753 Y88.551 E20.40969
G1 X13.503 Y87.846 E20.43214
G1 X13.329 Y87.118 E20.45461
G1 X13.234 Y86.376 E20.47707
G1 X13.215 Y85.859 E20.4926
G1 X13.215 Y35.859 E21.99346
G1 X13.255 Y35.112 E22.01591
G1 X13.374 Y34.374 E22.03835
G1 X13.572 Y33.652 E22.06083
G1 X13.845 Y32.956 E22.08327
G1 X14.192 Y32.293 E22.10573
G1 X14.607 Y31.67 E22.1282
G1 X15.086 Y31.096 E22.15064
G1 X15.623 Y30.575 E22.1731
G1 X16.213 Y30.116 E22.19554
G0 F2400 X16.599 Y30.338
G1 F1200 X17.228 Y29.974 E22.21735
G1 X17.893 Y29.681 E22.23917
G1 X18.586 Y29.463 E22.26097
G1 X19.298 Y29.323 E22.28275
G1 X20.215 Y29.259 E22.31035
G1 X70.215 Y29.259 E23.81121
G1 X70.94 Y29.299 E23.83301
G1 X71.657 Y29.418 E23.85482
G1 X72.356 Y29.616 E23.87663
G1 X73.029 Y29.889 E23.89843
G1 X73.668 Y30.234 E23.92023
G1 X74.265 Y30.648 E23.94204
G1 X74.813 Y31.124 E23.96383
G1 X75.306 Y31.658 E23.98564
G1 X75.736 Y32.243 E24.00744
G1 X76.1 Y32.872 E24.02925
G1 X76.393 Y33.537 E24.05106
G1 X76.611 Y34.23 E24.07287
G1 X76.751 Y34.942 E24.09465
G1 X76.815 Y35.859 E24.12224
G1 X76.815 Y85.859 E25.62311
G1 X76.775 Y86.584 E25.6449
G1 X76.656 Y87.301 E25.66672
G1 X76.458 Y88 E25.68853
G1 X76.185 Y88.673 E25.71033
G1 X75.84 Y89.312 E25.73213
G1 X75.426 Y89.909 E25.75393
G1 X74.95 Y90.457 E25.77572
G1 X74.416 Y90.95 E25.79754
G1 X73.831 Y91.38 E25.81933
G1 X73.202 Y91.744 E25.84115
G1 X72.537 Y92.037 E25.86296
G1 X71.844 Y92.255 E25.88477
G1 X71.132 Y92.395 E25.90655
G1 X70.215 Y92.459 E25.93414
G1 X20.215 Y92.459 E27.435
G1 X19.49 Y92.419 E27.4568
G1 X18.773 Y92.3 E27.47862
G1 X18.074 Y92.102 E27.50042
G1 X17.401 Y91.829 E27.52222
G1 X16.762 Y91.484 E27.54402
G1 X16.165 Y91.07 E27.56583
G1 X15.617 Y90.594 E27.58762
G1 X15.124 Y90.06 E27.60943
G1 X14.694 Y89.475 E27.63123
G1 X14.33 Y88.846 E27.65304
G1 X14.037 Y88.181 E27.67486
G1 X13.819 Y87.488 E27.69666
G1 X13.679 Y86.776 E27.71844
G1 X13.615 Y85.859 E27.74604
G1 X13.615 Y35.859 E29.2469
G1 X13.655 Y35.134 E29.2687
G1 X13.774 Y34.417 E29.29051
G1 X13.972 Y33.718 E29.31232
G1 X14.245 Y33.045 E29.33412
G1 X14.59 Y32.406 E29.35592
G1 X15.004 Y31.809 E29.37773
G1 X15.48 Y31.261 E29.39952
G1 X16.014 Y30.768 E29.42133
G1 X16.599 Y30.338 E29.44313
G0 F2400 X16.983 Y30.568
G1 F1200 X17.604 Y30.236 E29.46426
G1 X18.258 Y29.976 E29.48539
G1 X18.938 Y29.792 E29.50653
G1 X19.634 Y29.686 E29.52767
G1 X20.215 Y29.659 E29.54513
G1 X70.215 Y29.659 E31.04599
G1 X70.918 Y29.699 E31.06713
G1 X71.612 Y29.818 E31.08826
G1 X72.287 Y30.016 E31.10938
G1 X72.936 Y30.288 E31.1305
G1 X73.55 Y30.633 E31.15164
G1 X74.121 Y31.044 E31.17276
G1 X74.642 Y31.518 E31.1939
G1 X75.106 Y32.048 E31.21505
G1 X75.506 Y32.627 E31.23617
G1 X75.838 Y33.248 E31.25731
G1 X76.098 Y33.902 E31.27843
G1 X76.282 Y34.582 E31.29958
G1 X76.388 Y35.278 E31.32071
G1 X76.415 Y35.859 E31.33817
G1 X76.415 Y85.859 E32.83904
G1 X76.375 Y86.562 E32.86017
G1 X76.256 Y87.256 E32.88131
G1 X76.058 Y87.931 E32.90242
G1 X75.786 Y88.58 E32.92355
G1 X75.441 Y89.194 E32.94469
G1 X75.03 Y89.765 E32.9658
G1 X74.556 Y90.286 E32.98695
G1 X74.026 Y90.75 E33.00809
G1 X73.447 Y91.15 E33.02922
G1 X72.826 Y91.482 E33.05035
G1 X72.172 Y91.742 E33.07148
G1 X71.492 Y91.926 E33.09263
G1 X70.796 Y92.032 E33.11376
G1 X70.215 Y92.059 E33.13122
G1 X20.215 Y92.059 E34.63208
G1 X19.512 Y92.019 E34.65322
G1 X18.818 Y91.9 E34.67435
G1 X18.143 Y91.702 E34.69547
G1 X17.494 Y91.43 E34.71659
G1 X16.88 Y91.085 E34.73773
G1 X16.309 Y90.674 E34.75885
G1 X15.788 Y90.2 E34.77999
G1 X15.324 Y89.67 E34.80114
G1 X14.924 Y89.091 E34.82226
G1 X14.592 Y88.47 E34.8434
G1 X14.332 Y87.816 E34.86453
G1 X14.148 Y87.136 E34.88567
G1 X14.042 Y86.44 E34.9068
G1 X14.015 Y85.859 E34.92426
G1 X14.015 Y35.859 E36.42513
G1 X14.055 Y35.156 E36.44626
G1 X14.174 Y34.462 E36.4674
G1 X14.372 Y33.787 E36.48851
G1 X14.644 Y33.138 E36.50964
G1 X14.989 Y32.524 E36.53078
G1 X15.4 Y31.953 E36.5519
G1 X15.874 Y31.432 E36.57304
G1 X16.404 Y30.968 E36.59418
G1 X16.983 Y30.568 E36.61531
G0 F2400 X17.365 Y30.807
G1 F1200 X17.977 Y30.508 E36.63575
G1 X18.619 Y30.283 E36.65617
G1 X19.284 Y30.134 E36.67663
G1 X20.215 Y30.059 E36.70467
G1 X70.215 Y30.059 E38.20553
G1 X70.895 Y30.099 E38.22598
G1 X71.565 Y30.218 E38.2464
G1 X72.217 Y30.415 E38.26685
G1 X72.841 Y30.687 E38.28728
G1 X73.429 Y31.031 E38.30773
G1 X73.973 Y31.441 E38.32818
G1 X74.464 Y31.912 E38.3486
G1 X74.898 Y32.437 E38.36905
G1 X75.267 Y33.009 E38.38948
G1 X75.566 Y33.621 E38.40993
G1 X75.791 Y34.263 E38.43035
G1 X75.94 Y34.928 E38.4508
G1 X76.015 Y35.859 E38.47884
G1 X76.015 Y85.859 E39.9797
G1 X75.975 Y86.539 E40.00015
G1 X75.856 Y87.209 E40.02058
G1 X75.659 Y87.861 E40.04102
G1 X75.387 Y88.485 E40.06145
G1 X75.043 Y89.073 E40.0819
G1 X74.633 Y89.617 E40.10235
G1 X74.162 Y90.108 E40.12277
G1 X73.637 Y90.542 E40.14322
G1 X73.065 Y90.911 E40.16365
G1 X72.453 Y91.21 E40.1841
G1 X71.811 Y91.435 E40.20452
G1 X71.146 Y91.584 E40.22498
G1 X70.215 Y91.659 E40.25301
G1 X20.215 Y91.659 E41.75388
G1 X19.535 Y91.619 E41.77432
G1 X18.865 Y91.5 E41.79475
G1 X18.213 Y91.303 E41.8152
G1 X17.589 Y91.031 E41.83563
G1 X17.001 Y90.687 E41.85608
G1 X16.457 Y90.277 E41.87652
G1 X15.966 Y89.806 E41.89695
G1 X15.532 Y89.281 E41.91739
G1 X15.163 Y88.709 E41.93783
G1 X14.864 Y88.097 E41.95827
G1 X14.639 Y87.455 E41.97869
G1 X14.49 Y86.79 E41.99915
G1 X14.415 Y85.859 E42.02719
G1 X14.415 Y35.859 E43.52805
G1 X14.455 Y35.179 E43.5485
G1 X14.574 Y34.509 E43.56892
G1 X14.771 Y33.857 E43.58937
G1 X15.043 Y33.233 E43.6098
G1 X15.387 Y32.645 E43.63025
G1 X15.797 Y32.101 E43.6507
G1 X16.268 Y31.61 E43.67112
G1 X16.793 Y31.176 E43.69157
G1 X17.365 Y30.807 E43.712
G0 F2400 X17.18 Y31.393
G1 F1200 X17.744 Y31.057 E43.73171
G1 X18.346 Y30.793 E43.75144
G1 X18.975 Y30.603 E43.77116
G1 X19.622 Y30.492 E43.79087
G1 X20.215 Y30.459 E43.80869
G1 X70.215 Y30.459 E45.30956
G1 X70.871 Y30.499 E45.32929
G1 X71.517 Y30.618 E45.349
G1 X72.144 Y30.815 E45.36873
G1 X72.742 Y31.087 E45.38845
G1 X73.303 Y31.429 E45.40817
G1 X73.818 Y31.837 E45.4279
G1 X74.28 Y32.304 E45.44761
G1 X74.681 Y32.824 E45.46733
G1 X75.017 Y33.388 E45.48703
G1 X75.281 Y33.99 E45.50676
G1 X75.471 Y34.619 E45.52649
G1 X75.582 Y35.266 E45.54619
G1 X75.615 Y35.859 E45.56402
G1 X75.615 Y85.859 E47.06488
G1 X75.575 Y86.515 E47.08461
G1 X75.456 Y87.161 E47.10433
G1 X75.259 Y87.788 E47.12406
G1 X74.987 Y88.386 E47.14378
G1 X74.645 Y88.947 E47.1635
G1 X74.237 Y89.462 E47.18322
G1 X73.77 Y89.924 E47.20294
G1 X73.25 Y90.325 E47.22265
G1 X72.686 Y90.661 E47.24236
G1 X72.084 Y90.925 E47.26209
G1 X71.455 Y91.115 E47.28181
G1 X70.808 Y91.226 E47.30152
G1 X70.215 Y91.259 E47.31934
G1 X20.215 Y91.259 E48.82021
G1 X19.559 Y91.219 E48.83994
G1 X18.913 Y91.1 E48.85965
G1 X18.286 Y90.903 E48.87938
G1 X17.688 Y90.631 E48.8991
G1 X17.127 Y90.289 E48.91882
G1 X16.612 Y89.881 E48.93855
G1 X16.15 Y89.414 E48.95826
G1 X15.749 Y88.894 E48.97798
G1 X15.413 Y88.33 E48.99768
G1 X15.149 Y87.728 E49.01741
G1 X14.959 Y87.099 E49.03714
G1 X14.848 Y86.452 E49.05684
G1 X14.815 Y85.859 E49.07467
G1 X14.815 Y35.859 E50.57553
G1 X14.855 Y35.203 E50.59526
G1 X14.974 Y34.557 E50.61498
G1 X15.171 Y33.93 E50.63471
G1 X15.443 Y33.332 E50.65443
G1 X15.785 Y32.771 E50.67415
G1 X16.193 Y32.256 E50.69387
G1 X16.66 Y31.794 E50.71359
G1 X17.18 Y31.393 E50.7333
G0 F2400 X17.565 Y31.619
G1 F1200 X18.121 Y31.319 E50.75227
G1 X18.71 Y31.091 E50.77122
G1 X19.324 Y30.939 E50.79021
G1 X20.215 Y30.859 E50.81706
G1 X70.215 Y30.859 E52.31793
G1 X70.846 Y30.899 E52.33691
G1 X71.467 Y31.018 E52.35589
G1 X72.067 Y31.215 E52.37484
G1 X72.639 Y31.486 E52.39384
G1 X73.171 Y31.826 E52.41279
G1 X73.656 Y32.232 E52.43178
G1 X74.086 Y32.695 E52.45075
G1 X74.455 Y33.209 E52.46974
G1 X74.755 Y33.765 E52.4887
G1 X74.983 Y34.354 E52.50766
G1 X75.135 Y34.968 E52.52665
G1 X75.215 Y35.859 E52.5535
G1 X75.215 Y85.859 E54.05437
G1 X75.175 Y86.49 E54.07335
G1 X75.056 Y87.111 E54.09233
G1 X74.859 Y87.711 E54.11128
G1 X74.588 Y88.283 E54.13028
G1 X74.248 Y88.815 E54.14923
G1 X73.842 Y89.3 E54.16822
G1 X73.379 Y89.73 E54.18719
G1 X72.865 Y90.099 E54.20618
G1 X72.309 Y90.399 E54.22514
G1 X71.72 Y90.627 E54.2441
G1 X71.106 Y90.779 E54.26309
G1 X70.215 Y90.859 E54.28994
G1 X20.215 Y90.859 E55.79081
G1 X19.584 Y90.819 E55.80978
G1 X18.963 Y90.7 E55.82876
G1 X18.363 Y90.503 E55.84772
G1 X17.791 Y90.232 E55.86672
G1 X17.259 Y89.892 E55.88567
G1 X16.774 Y89.486 E55.90466
G1 X16.344 Y89.023 E55.92362
G1 X15.975 Y88.509 E55.94262
G1 X15.675 Y87.953 E55.96158
G1 X15.447 Y87.364 E55.98054
G1 X15.295 Y86.75 E55.99953
G1 X15.215 Y85.859 E56.02638
G1 X15.215 Y35.859 E57.52724
G1 X15.255 Y35.228 E57.54622
G1 X15.374 Y34.607 E57.5652
G1 X15.571 Y34.007 E57.58416
G1 X15.842 Y33.435 E57.60316
G1 X16.182 Y32.903 E57.62211
G1 X16.588 Y32.418 E57.6411
G1 X17.051 Y31.988 E57.66006
G1 X17.565 Y31.619 E57.67906
G0 F2400 X17.947 Y31.857
G1 F1200 X18.493 Y31.593 E57.69726
G1 X19.069 Y31.404 E57.71546
G1 X19.665 Y31.292 E57.73366
G1 X20.215 Y31.259 E57.7502
G1 X70.215 Y31.259 E59.25106
G1 X70.82 Y31.299 E59.26926
G1 X71.414 Y31.418 E59.28745
G1 X71.988 Y31.614 E59.30566
G1 X72.531 Y31.885 E59.32387
G1 X73.034 Y32.224 E59.34208
G1 X73.487 Y32.626 E59.36026
G1 X73.884 Y33.084 E59.37845
G1 X74.217 Y33.591 E59.39666
G1 X74.481 Y34.137 E59.41487
G1 X74.67 Y34.713 E59.43306
G1 X74.782 Y35.309 E59.45127
G1 X74.815 Y35.859 E59.46781
G1 X74.815 Y85.859 E60.96867
G1 X74.775 Y86.464 E60.98687
G1 X74.656 Y87.058 E61.00505
G1 X74.46 Y87.632 E61.02326
G1 X74.189 Y88.175 E61.04148
G1 X73.85 Y88.678 E61.05969
G1 X73.448 Y89.131 E61.07787
G1 X72.99 Y89.528 E61.09606
G1 X72.483 Y89.861 E61.11427
G1 X71.937 Y90.125 E61.13247
G1 X71.361 Y90.314 E61.15067
G1 X70.765 Y90.426 E61.16887
G1 X70.215 Y90.459 E61.18541
G1 X20.215 Y90.459 E62.68628
G1 X19.61 Y90.419 E62.70448
G1 X19.016 Y90.3 E62.72266
G1 X18.442 Y90.104 E62.74087
G1 X17.899 Y89.833 E62.75908
G1 X17.396 Y89.494 E62.77729
G1 X16.943 Y89.092 E62.79547
G1 X16.546 Y88.634 E62.81366
G1 X16.213 Y88.127 E62.83187
G1 X15.949 Y87.581 E62.85008
G1 X15.76 Y87.005 E62.86827
G1 X15.648 Y86.409 E62.88648
G1 X15.615 Y85.859 E62.90302
G1 X15.615 Y35.859 E64.40388
G1 X15.655 Y35.254 E64.42208
G1 X15.774 Y34.66 E64.44026
G1 X15.97 Y34.086 E64.45847
G1 X16.241 Y33.543 E64.47669
G1 X16.58 Y33.04 E64.4949
G1 X16.982 Y32.587 E64.51308
G1 X17.44 Y32.19 E64.53127
G1 X17.947 Y31.857 E64.54948
G0 F2400 X17.828 Y32.403
G1 F1200 X18.326 Y32.108 E64.56685
G1 X18.86 Y31.883 E64.58425
