;FLAVOR:Marlin
;TIME:2682
;Filament used: 1.02641m
;Layer height: 0.1
;MINX:9.642
;MINY:37.051
;MINZ:0.2
;MAXX:41.237
;MAXY:68.643
;MAXZ:30
;Generated with Cura_SteamEngine 4.4.1
M140 S60
M105
M190 S60
M104 S200
M105
M109 S200
M82 ;absolute extrusion mode
G28 ;Home
G1 Z15.0 F6000 ;Move the platform down 15mm
;Prime the extruder
G92 E0
G1 F200 E3
G92 E0
G92 E0
G92 E0
G1 F1500 E-6.5
;LAYER_COUNT:299
;LAYER:0
M107
G0 F2400 X18.485 Y38.662 Z0.2
;TYPE:SKIRT
G1 F1500 E0
G1 F1200 X19.372 Y38.287 E0.02891
G1 X21.071 Y37.69 E0.08296
G1 X21.829 Y37.466 E0.10669
G1 X22.774 Y37.299 E0.13549
G1 X24.521 Y37.1 E0.18827
G1 X25.309 Y37.051 E0.21197
G1 X26.241 Y37.095 E0.23998
G1 X28.019 Y37.287 E0.29366
G1 X28.799 Y37.412 E0.31737
G1 X29.73 Y37.67 E0.34637
G1 X31.408 Y38.25 E0.39967
G1 X32.14 Y38.545 E0.42336
G1 X32.966 Y38.99 E0.45152
G1 X34.526 Y39.956 E0.5066
G1 X35.176 Y40.406 E0.53033
G1 X35.927 Y41.064 E0.5603
G1 X37.192 Y42.325 E0.61392
G1 X37.722 Y42.91 E0.63761
G1 X38.285 Y43.691 E0.66651
G1 X39.235 Y45.199 E0.72001
G1 X39.621 Y45.888 E0.74372
G1 X39.991 Y46.762 E0.77221
G1 X40.591 Y48.463 E0.82635
G1 X40.815 Y49.22 E0.85005
G1 X40.985 Y50.172 E0.87907
G1 X41.188 Y51.948 E0.93273
G1 X41.237 Y52.736 E0.95643
G1 X41.191 Y53.692 E0.98516
G1 X40.995 Y55.463 E1.03865
G1 X40.868 Y56.242 E1.06234
G1 X40.61 Y57.164 E1.09108
G1 X40.02 Y58.863 E1.14506
G1 X39.724 Y59.595 E1.16876
G1 X39.265 Y60.44 E1.19763
G1 X38.317 Y61.956 E1.2513
G1 X37.865 Y62.603 E1.27499
G1 X37.232 Y63.322 E1.30375
G1 X35.963 Y64.597 E1.35774
G1 X35.379 Y65.128 E1.38144
G1 X34.59 Y65.696 E1.41062
G1 X33.084 Y66.644 E1.46404
G1 X32.396 Y67.03 E1.48772
G1 X31.519 Y67.4 E1.51629
G1 X29.812 Y68.001 E1.57061
G1 X29.055 Y68.226 E1.59432
G1 X28.109 Y68.393 E1.62315
G1 X26.361 Y68.593 E1.67596
G1 X25.573 Y68.643 E1.69967
G1 X24.637 Y68.599 E1.72779
G1 X22.858 Y68.407 E1.7815
G1 X22.078 Y68.283 E1.80521
G1 X21.146 Y68.024 E1.83425
G1 X19.469 Y67.444 E1.88751
G1 X18.736 Y67.148 E1.91124
G1 X17.913 Y66.704 E1.93931
G1 X16.362 Y65.744 E1.99406
G1 X15.712 Y65.295 E2.01778
G1 X14.967 Y64.643 E2.0475
G1 X13.691 Y63.374 E2.10151
G1 X13.16 Y62.789 E2.12523
G1 X12.59 Y61.998 E2.1545
G1 X11.642 Y60.492 E2.20791
G1 X11.256 Y59.804 E2.23159
G1 X10.886 Y58.927 E2.26017
G1 X10.29 Y57.234 E2.31404
G1 X10.065 Y56.477 E2.33775
G1 X9.898 Y55.538 E2.36638
G1 X9.692 Y53.753 E2.42031
G1 X9.642 Y52.965 E2.44401
G1 X9.688 Y52 E2.47301
G1 X9.885 Y50.222 E2.52671
G1 X10.012 Y49.443 E2.5504
G1 X10.271 Y48.519 E2.57921
G1 X10.859 Y46.828 E2.63295
G1 X11.155 Y46.096 E2.65665
G1 X11.613 Y45.254 E2.68542
G1 X12.566 Y43.73 E2.73937
G1 X13.018 Y43.083 E2.76307
G1 X13.655 Y42.359 E2.79201
G1 X14.909 Y41.101 E2.84533
G1 X15.494 Y40.571 E2.86903
G1 X16.271 Y40.011 E2.89778
G1 X17.796 Y39.049 E2.9519
G1 X18.485 Y38.662 E2.97562
G0 F2400 X18.681 Y39.011
G1 F1200 X19.505 Y38.664 E3.00246
G1 X21.204 Y38.067 E3.05651
G1 X21.942 Y37.851 E3.0796
G1 X22.819 Y37.697 E3.10632
G1 X24.566 Y37.498 E3.1591
G1 X25.334 Y37.45 E3.1822
G1 X26.198 Y37.493 E3.20817
G1 X27.976 Y37.685 E3.26185
G1 X28.736 Y37.807 E3.28495
G1 X29.599 Y38.048 E3.31185
G1 X31.277 Y38.628 E3.36514
G1 X31.99 Y38.917 E3.38824
G1 X32.756 Y39.331 E3.41437
G1 X34.316 Y40.297 E3.46945
G1 X34.948 Y40.735 E3.49253
G1 X35.644 Y41.347 E3.52035
G1 X36.909 Y42.608 E3.57397
G1 X37.425 Y43.179 E3.59707
G1 X37.946 Y43.905 E3.62389
G1 X38.896 Y45.413 E3.67739
G1 X39.272 Y46.084 E3.70048
G1 X39.614 Y46.895 E3.7269
G1 X40.214 Y48.596 E3.78104
G1 X40.431 Y49.334 E3.80413
G1 X40.587 Y50.218 E3.83108
G1 X40.79 Y51.994 E3.88474
G1 X40.838 Y52.761 E3.90781
G1 X40.793 Y53.648 E3.93447
G1 X40.597 Y55.419 E3.98795
G1 X40.473 Y56.178 E4.01104
G1 X40.232 Y57.033 E4.0377
G1 X39.642 Y58.732 E4.09169
G1 X39.353 Y59.444 E4.11475
G1 X38.926 Y60.227 E4.14152
G1 X37.978 Y61.743 E4.1952
G1 X37.537 Y62.374 E4.2183
G1 X36.949 Y63.04 E4.24497
G1 X35.68 Y64.315 E4.29897
G1 X35.11 Y64.831 E4.32205
G1 X34.377 Y65.358 E4.34915
G1 X32.871 Y66.306 E4.40257
G1 X32.2 Y66.681 E4.42564
G1 X31.387 Y67.023 E4.45211
G1 X29.68 Y67.624 E4.50644
G1 X28.942 Y67.841 E4.52953
G1 X28.063 Y67.996 E4.55632
G1 X26.315 Y68.196 E4.60913
G1 X25.548 Y68.244 E4.6322
G1 X24.68 Y68.201 E4.65829
G1 X22.901 Y68.009 E4.712
G1 X22.142 Y67.887 E4.73507
G1 X21.276 Y67.646 E4.76206
G1 X19.599 Y67.066 E4.81532
G1 X18.886 Y66.777 E4.83841
G1 X18.123 Y66.364 E4.86446
G1 X16.572 Y65.404 E4.91921
G1 X15.94 Y64.966 E4.94229
G1 X15.249 Y64.359 E4.9699
G1 X13.973 Y63.09 E5.02392
G1 X13.456 Y62.52 E5.04702
G1 X12.928 Y61.785 E5.07418
G1 X11.98 Y60.279 E5.1276
G1 X11.605 Y59.608 E5.15067
G1 X11.263 Y58.794 E5.17718
G1 X10.667 Y57.101 E5.23105
G1 X10.45 Y56.363 E5.25414
G1 X10.296 Y55.492 E5.2807
G1 X10.09 Y53.707 E5.33463
G1 X10.041 Y52.94 E5.3577
G1 X10.086 Y52.044 E5.38463
G1 X10.283 Y50.266 E5.43833
G1 X10.407 Y49.507 E5.46141
G1 X10.649 Y48.651 E5.48812
G1 X11.237 Y46.96 E5.54186
G1 X11.527 Y46.247 E5.56496
G1 X11.952 Y45.467 E5.59162
G1 X12.905 Y43.943 E5.64558
G1 X13.346 Y43.312 E5.66869
G1 X13.938 Y42.642 E5.69552
G1 X15.192 Y41.384 E5.74884
G1 X15.763 Y40.868 E5.77194
G1 X16.485 Y40.349 E5.79864
G1 X18.01 Y39.387 E5.85276
G1 X18.681 Y39.011 E5.87585
G0 F2400 X18.876 Y39.361
G1 F1200 X19.637 Y39.042 E5.90062
G1 X21.336 Y38.445 E5.95467
G1 X22.054 Y38.235 E5.97713
G1 X22.865 Y38.094 E6.00184
G1 X24.612 Y37.895 E6.05462
G1 X25.358 Y37.85 E6.07705
G1 X26.156 Y37.89 E6.10103
G1 X27.934 Y38.082 E6.15471
G1 X28.672 Y38.202 E6.17716
G1 X29.469 Y38.426 E6.20201
G1 X31.147 Y39.006 E6.2553
G1 X31.84 Y39.288 E6.27776
G1 X32.545 Y39.671 E6.30184
G1 X34.105 Y40.637 E6.35692
G1 X34.719 Y41.064 E6.37937
G1 X35.362 Y41.63 E6.40508
G1 X36.627 Y42.891 E6.4587
G1 X37.128 Y43.447 E6.48116
G1 X37.608 Y44.118 E6.50593
G1 X38.558 Y45.626 E6.55943
G1 X38.922 Y46.279 E6.58187
G1 X39.236 Y47.028 E6.60625
G1 X39.836 Y48.729 E6.66039
G1 X40.047 Y49.447 E6.68286
G1 X40.19 Y50.263 E6.70772
G1 X40.393 Y52.039 E6.76138
G1 X40.438 Y52.786 E6.78384
G1 X40.396 Y53.604 E6.80843
G1 X40.2 Y55.375 E6.86192
G1 X40.078 Y56.113 E6.88437
G1 X39.855 Y56.901 E6.90895
G1 X39.265 Y58.6 E6.96294
G1 X38.982 Y59.293 E6.98541
G1 X38.587 Y60.015 E7.01011
G1 X37.639 Y61.531 E7.06378
G1 X37.209 Y62.144 E7.08626
G1 X36.665 Y62.758 E7.11088
G1 X35.396 Y64.033 E7.16488
G1 X34.841 Y64.534 E7.18732
G1 X34.164 Y65.019 E7.21232
G1 X32.658 Y65.967 E7.26574
G1 X32.005 Y66.331 E7.28818
G1 X31.254 Y66.646 E7.31263
G1 X29.547 Y67.247 E7.36695
G1 X28.829 Y67.457 E7.3894
G1 X28.018 Y67.599 E7.41412
G1 X26.27 Y67.799 E7.46693
G1 X25.523 Y67.844 E7.48939
G1 X24.723 Y67.804 E7.51344
G1 X22.944 Y67.612 E7.56715
G1 X22.205 Y67.492 E7.58962
G1 X21.407 Y67.268 E7.6145
G1 X19.73 Y66.688 E7.66777
G1 X19.037 Y66.406 E7.69022
G1 X18.334 Y66.024 E7.71424
G1 X16.783 Y65.064 E7.76899
G1 X16.169 Y64.637 E7.79144
G1 X15.531 Y64.075 E7.81696
G1 X14.255 Y62.806 E7.87098
G1 X13.753 Y62.251 E7.89345
G1 X13.267 Y61.572 E7.91851
G1 X12.319 Y60.066 E7.97193
G1 X11.955 Y59.413 E7.99437
G1 X11.64 Y58.661 E8.01884
G1 X11.044 Y56.968 E8.07272
G1 X10.834 Y56.251 E8.09515
G1 X10.693 Y55.447 E8.11965
G1 X10.487 Y53.662 E8.17358
G1 X10.441 Y52.915 E8.19605
G1 X10.484 Y52.088 E8.22091
G1 X10.681 Y50.31 E8.2746
G1 X10.803 Y49.572 E8.29706
G1 X11.026 Y48.782 E8.3217
G1 X11.614 Y47.091 E8.37544
G1 X11.897 Y46.399 E8.39788
G1 X12.291 Y45.679 E8.42252
G1 X13.244 Y44.155 E8.47647
G1 X13.674 Y43.542 E8.49895
G1 X14.221 Y42.924 E8.52372
G1 X15.475 Y41.666 E8.57704
G1 X16.031 Y41.165 E8.59951
G1 X16.698 Y40.688 E8.62412
G1 X18.223 Y39.726 E8.67824
G1 X18.876 Y39.361 E8.7007
G0 F2400 X19.071 Y39.711
G1 F1200 X19.77 Y39.419 E8.72344
G1 X21.469 Y38.822 E8.77749
G1 X22.167 Y38.62 E8.79931
G1 X22.91 Y38.491 E8.82194
G1 X24.657 Y38.292 E8.87472
G1 X25.382 Y38.25 E8.89652
G1 X26.113 Y38.288 E8.91849
G1 X27.891 Y38.48 E8.97217
G1 X28.607 Y38.598 E8.99396
G1 X29.338 Y38.804 E9.01675
G1 X31.016 Y39.384 E9.07005
G1 X31.689 Y39.659 E9.09187
G1 X32.335 Y40.011 E9.11395
G1 X33.895 Y40.977 E9.16903
G1 X34.49 Y41.393 E9.19082
G1 X35.08 Y41.914 E9.21445
G1 X36.345 Y43.175 E9.26807
G1 X36.83 Y43.715 E9.28985
G1 X37.269 Y44.331 E9.31256
G1 X38.219 Y45.839 E9.36606
G1 X38.572 Y46.474 E9.38787
G1 X38.859 Y47.162 E9.41024
G1 X39.459 Y48.863 E9.46439
G1 X39.663 Y49.56 E9.48619
G1 X39.792 Y50.308 E9.50897
G1 X39.995 Y52.084 E9.56263
G1 X40.038 Y52.81 E9.58446
G1 X39.998 Y53.56 E9.607
G1 X39.802 Y55.331 E9.66049
G1 X39.682 Y56.047 E9.68228
G1 X39.477 Y56.77 E9.70484
G1 X38.887 Y58.469 E9.75883
G1 X38.611 Y59.141 E9.78063
G1 X38.248 Y59.803 E9.8033
G1 X37.3 Y61.319 E9.85697
G1 X36.882 Y61.913 E9.87877
G1 X36.382 Y62.476 E9.90137
G1 X35.113 Y63.751 E9.95537
G1 X34.573 Y64.237 E9.97718
G1 X33.951 Y64.681 E10.00012
G1 X32.445 Y65.629 E10.05353
G1 X31.81 Y65.981 E10.07533
G1 X31.121 Y66.268 E10.09773
G1 X29.414 Y66.869 E10.15205
G1 X28.716 Y67.073 E10.17388
G1 X27.972 Y67.201 E10.19654
G1 X26.224 Y67.401 E10.24935
G1 X25.499 Y67.444 E10.27116
G1 X24.766 Y67.406 E10.29319
G1 X22.987 Y67.214 E10.3469
G1 X22.27 Y67.096 E10.36871
G1 X21.538 Y66.889 E10.39154
G1 X19.861 Y66.309 E10.44481
G1 X19.188 Y66.035 E10.46662
G1 X18.544 Y65.684 E10.48864
G1 X16.993 Y64.724 E10.54339
G1 X16.398 Y64.308 E10.56518
G1 X15.813 Y63.792 E10.5886
G1 X14.537 Y62.523 E10.64262
G1 X14.051 Y61.983 E10.66442
G1 X13.605 Y61.359 E10.68745
G1 X12.657 Y59.853 E10.74086
G1 X12.305 Y59.218 E10.76266
G1 X12.018 Y58.529 E10.78506
G1 X11.422 Y56.836 E10.83894
G1 X11.218 Y56.138 E10.86077
G1 X11.091 Y55.401 E10.88322
G1 X10.885 Y53.616 E10.93715
G1 X10.841 Y52.891 E10.95896
G1 X10.881 Y52.132 E10.98177
G1 X11.078 Y50.354 E11.03547
G1 X11.198 Y49.638 E11.05726
G1 X11.404 Y48.913 E11.07988
G1 X11.992 Y47.222 E11.13362
G1 X12.268 Y46.55 E11.15543
G1 X12.63 Y45.891 E11.178
G1 X13.583 Y44.367 E11.23195
G1 X14.001 Y43.773 E11.25376
G1 X14.505 Y43.207 E11.27651
G1 X15.759 Y41.949 E11.32982
G1 X16.299 Y41.463 E11.35163
G1 X16.912 Y41.026 E11.37423
G1 X18.437 Y40.064 E11.42835
G1 X19.071 Y39.711 E11.45013
G0 F2400 X19.266 Y40.061
G1 F1200 X19.903 Y39.797 E11.47083
G1 X21.602 Y39.2 E11.52489
G1 X22.278 Y39.004 E11.54602
G1 X22.955 Y38.889 E11.56663
G1 X24.702 Y38.69 E11.61941
G1 X25.405 Y38.65 E11.64054
G1 X26.07 Y38.686 E11.66054
G1 X27.848 Y38.878 E11.71422
G1 X28.542 Y38.993 E11.73533
G1 X29.207 Y39.182 E11.75608
G1 X30.885 Y39.762 E11.80938
G1 X31.537 Y40.03 E11.83054
G1 X32.124 Y40.351 E11.85062
G1 X33.684 Y41.317 E11.9057
G1 X34.261 Y41.721 E11.92684
G1 X34.797 Y42.197 E11.94836
G1 X36.062 Y43.458 E12.00197
G1 X36.532 Y43.983 E12.02313
G1 X36.931 Y44.544 E12.04379
G1 X37.881 Y46.052 E12.09729
G1 X38.222 Y46.668 E12.11842
G1 X38.482 Y47.295 E12.1388
G1 X39.082 Y48.996 E12.19294
G1 X39.278 Y49.672 E12.21407
G1 X39.395 Y50.354 E12.23484
G1 X39.598 Y52.13 E12.2885
G1 X39.638 Y52.833 E12.30963
G1 X39.6 Y53.516 E12.33017
G1 X39.404 Y55.287 E12.38365
G1 X39.287 Y55.981 E12.40478
G1 X39.099 Y56.639 E12.42532
G1 X38.509 Y58.338 E12.47931
G1 X38.241 Y58.989 E12.50044
G1 X37.909 Y59.591 E12.52108
G1 X36.961 Y61.107 E12.57475
G1 X36.554 Y61.682 E12.59589
G1 X36.098 Y62.194 E12.61647
G1 X34.829 Y63.469 E12.67047
G1 X34.305 Y63.939 E12.6916
G1 X33.738 Y64.342 E12.71248
G1 X32.232 Y65.29 E12.7659
G1 X31.616 Y65.631 E12.78703
G1 X30.988 Y65.891 E12.80744
G1 X29.281 Y66.492 E12.86176
G1 X28.605 Y66.688 E12.88289
G1 X27.927 Y66.804 E12.90353
G1 X26.179 Y67.004 E12.95635
G1 X25.476 Y67.044 E12.97748
G1 X24.809 Y67.008 E12.99753
G1 X23.03 Y66.816 E13.05124
G1 X22.335 Y66.701 E13.07239
G1 X21.668 Y66.511 E13.09321
G1 X19.991 Y65.931 E13.14647
G1 X19.34 Y65.664 E13.16759
G1 X18.755 Y65.344 E13.18761
G1 X17.204 Y64.384 E13.24236
G1 X16.627 Y63.98 E13.26351
G1 X16.095 Y63.508 E13.28485
G1 X14.819 Y62.239 E13.33887
G1 X14.349 Y61.715 E13.36
G1 X13.944 Y61.146 E13.38097
G1 X12.996 Y59.64 E13.43438
G1 X12.655 Y59.024 E13.45552
G1 X12.395 Y58.396 E13.47592
G1 X11.799 Y56.703 E13.5298
G1 X11.603 Y56.027 E13.55092
G1 X11.488 Y55.355 E13.57139
G1 X11.282 Y53.57 E13.62533
G1 X11.241 Y52.867 E13.64646
G1 X11.279 Y52.176 E13.66724
G1 X11.476 Y50.398 E13.72093
G1 X11.593 Y49.704 E13.74206
G1 X11.782 Y49.045 E13.76264
G1 X12.37 Y47.354 E13.81638
G1 X12.639 Y46.703 E13.83752
G1 X12.969 Y46.103 E13.85808
G1 X13.922 Y44.579 E13.91203
G1 X14.329 Y44.004 E13.93318
G1 X14.788 Y43.489 E13.95389
G1 X16.042 Y42.231 E14.0072
G1 X16.566 Y41.761 E14.02833
G1 X17.125 Y41.364 E14.04891
G1 X18.65 Y40.402 E14.10304
G1 X19.266 Y40.061 E14.12417
G0 F2400 X19.46 Y40.412
G1 F1200 X20.035 Y40.174 E14.14285
G1 X21.734 Y39.577 E14.19691
G1 X22.389 Y39.389 E14.21736
G1 X23.001 Y39.286 E14.23599
G1 X24.748 Y39.087 E14.28877
G1 X25.427 Y39.05 E14.30918
G1 X26.027 Y39.084 E14.32722
G1 X27.805 Y39.276 E14.3809
G1 X28.476 Y39.388 E14.40132
G1 X29.077 Y39.56 E14.42009
G1 X30.755 Y40.14 E14.47338
G1 X31.384 Y40.4 E14.49381
G1 X31.914 Y40.691 E14.51196
G1 X33.474 Y41.657 E14.56704
G1 X34.03 Y42.049 E14.58746
G1 X34.515 Y42.48 E14.60694
G1 X35.78 Y43.741 E14.66055
G1 X36.233 Y44.249 E14.68098
G1 X36.592 Y44.757 E14.69965
G1 X37.542 Y46.265 E14.75315
G1 X37.871 Y46.862 E14.77362
G1 X38.105 Y47.428 E14.792
G1 X38.705 Y49.129 E14.84614
G1 X38.893 Y49.783 E14.86657
G1 X38.997 Y50.399 E14.88532
G1 X39.2 Y52.175 E14.93898
G1 X39.238 Y52.855 E14.95942
G1 X39.203 Y53.472 E14.97797
G1 X39.007 Y55.243 E15.03146
G1 X38.892 Y55.914 E15.05189
G1 X38.721 Y56.508 E15.07045
G1 X38.131 Y58.207 E15.12443
G1 X37.87 Y58.836 E15.14488
G1 X37.57 Y59.379 E15.1635
G1 X36.622 Y60.895 E15.21717
G1 X36.227 Y61.45 E15.23762
G1 X35.815 Y61.912 E15.2562
G1 X34.546 Y63.187 E15.3102
G1 X34.038 Y63.64 E15.33063
G1 X33.525 Y64.003 E15.34949
G1 X32.019 Y64.951 E15.40291
G1 X31.422 Y65.28 E15.42337
G1 X30.855 Y65.514 E15.44178
G1 X29.148 Y66.115 E15.4961
G1 X28.494 Y66.303 E15.51653
G1 X27.881 Y66.406 E15.53519
G1 X26.133 Y66.606 E15.588
G1 X25.453 Y66.644 E15.60845
G1 X24.852 Y66.611 E15.62651
G1 X23.073 Y66.419 E15.68022
G1 X22.401 Y66.306 E15.70068
G1 X21.799 Y66.133 E15.71948
G1 X20.122 Y65.553 E15.77274
G1 X19.493 Y65.293 E15.79318
G1 X18.965 Y65.004 E15.81124
G1 X17.414 Y64.044 E15.866
G1 X16.858 Y63.652 E15.88642
G1 X16.377 Y63.224 E15.90574
G1 X15.101 Y61.955 E15.95976
G1 X14.647 Y61.448 E15.98019
G1 X14.283 Y60.933 E15.99912
G1 X13.335 Y59.427 E16.05254
G1 X13.006 Y58.83 E16.073
G1 X12.772 Y58.263 E16.09141
G1 X12.176 Y56.57 E16.14529
G1 X11.988 Y55.916 E16.16571
G1 X11.885 Y55.309 E16.1842
G1 X11.679 Y53.524 E16.23813
G1 X11.641 Y52.844 E16.25858
G1 X11.676 Y52.22 E16.27734
G1 X11.873 Y50.442 E16.33103
G1 X11.988 Y49.771 E16.35147
G1 X12.16 Y49.176 E16.37006
G1 X12.748 Y47.485 E16.4238
G1 X13.009 Y46.856 E16.44424
G1 X13.308 Y46.315 E16.4628
G1 X14.261 Y44.791 E16.51675
G1 X14.656 Y44.236 E16.5372
G1 X15.071 Y43.771 E16.55591
G1 X16.325 Y42.513 E16.60923
G1 X16.833 Y42.06 E16.62966
G1 X17.339 Y41.702 E16.64826
G1 X18.864 Y40.74 E16.70239
G1 X19.46 Y40.412 E16.72281
G0 F2400 X19.653 Y40.763
G1 F1200 X20.168 Y40.551 E16.73952
G1 X21.867 Y39.954 E16.79358
G1 X22.499 Y39.775 E16.8133
G1 X23.046 Y39.684 E16.82994
G1 X24.793 Y39.485 E16.88272
G1 X25.449 Y39.45 E16.90244
G1 X25.984 Y39.481 E16.91853
G1 X27.762 Y39.673 E16.97221
G1 X28.409 Y39.783 E16.99191
G1 X28.946 Y39.938 E17.00869
G1 X30.624 Y40.518 E17.06198
G1 X31.231 Y40.77 E17.08171
G1 X31.703 Y41.031 E17.0979
G1 X33.263 Y41.997 E17.15297
G1 X33.799 Y42.376 E17.17268
G1 X34.232 Y42.764 E17.19013
G1 X35.497 Y44.025 E17.24375
G1 X35.934 Y44.516 E17.26348
G1 X36.254 Y44.971 E17.28018
G1 X37.204 Y46.479 E17.33367
G1 X37.52 Y47.055 E17.3534
G1 X37.727 Y47.561 E17.36981
G1 X38.327 Y49.262 E17.42395
G1 X38.508 Y49.893 E17.44365
G1 X38.6 Y50.445 E17.46045
G1 X38.803 Y52.221 E17.51411
G1 X38.838 Y52.877 E17.53383
G1 X38.805 Y53.428 E17.5504
G1 X38.609 Y55.199 E17.60388
G1 X38.497 Y55.846 E17.62359
G1 X38.343 Y56.376 E17.64016
G1 X37.753 Y58.075 E17.69415
G1 X37.5 Y58.682 E17.71389
G1 X37.231 Y59.167 E17.73053
G1 X36.283 Y60.683 E17.78421
G1 X35.901 Y61.218 E17.80394
G1 X35.531 Y61.629 E17.82054
G1 X34.262 Y62.904 E17.87454
G1 X33.771 Y63.341 E17.89427
G1 X33.312 Y63.665 E17.91113
G1 X31.806 Y64.613 E17.96455
